;FLAVOR:Marlin
;TIME:9378
;Filament used: 6.83865m
;Layer height: 0.15
;MINX:82.4
;MINY:61.116
;MINZ:0.3
;MAXX:137.6
;MAXY:129.6
;MAXZ:44.25
;Generated with Cura_SteamEngine 5.4.0
M140 S60
M105
M190 S60
M104 S195
M105
M109 S195
M82 ;absolute extrusion mode
G28 ;Home
G1 Z15.0 F2000 ;Move the platform
G92 E0
G92 E0
G1 F2700 E-6.5
;LAYER_COUNT:294
;LAYER:0
M107
M204 S1000
G0 F7500 X86.339 Y63.624 Z0.3
;TYPE:SKIRT
G1 F2700 E0
G1 F1500 X86.783 Y63.118 E0.03359
G1 X87.267 Y62.667 E0.06659
G1 X87.785 Y62.274 E0.09903
G1 X88.424 Y61.888 E0.13627
G1 X88.999 Y61.618 E0.16797
G1 X89.717 Y61.37 E0.20586
G1 X90.317 Y61.231 E0.23659
G1 X91.054 Y61.139 E0.27365
G1 X92.178 Y61.116 E0.32973
G1 X128.158 Y61.116 E2.12478
G1 X128.835 Y61.127 E2.15856
G1 X129.423 Y61.188 E2.18806
G1 X130.079 Y61.315 E2.22139
G1 X130.766 Y61.525 E2.25723
G1 X131.344 Y61.769 E2.28853
G1 X131.976 Y62.117 E2.32453
G1 X132.562 Y62.528 E2.36024
G1 X133.062 Y62.963 E2.3933
G1 X133.541 Y63.477 E2.42835
G1 X133.94 Y64.005 E2.46137
G1 X134.3 Y64.6 E2.49607
G1 X134.601 Y65.246 E2.53162
G1 X134.825 Y65.898 E2.56602
G1 X134.98 Y66.573 E2.60057
G1 X135.067 Y67.298 E2.637
G1 X135.089 Y67.632 E2.6537
G1 X135.1 Y68.227 E2.68339
G1 X135.1 Y71.777 E2.8605
G1 X135.14 Y74.557 E2.99921
G1 X135.255 Y77.274 E3.13488
G1 X135.448 Y79.998 E3.27112
G1 X135.715 Y82.692 E3.40618
G1 X136.063 Y85.415 E3.54314
G1 X136.484 Y88.094 E3.67844
G1 X136.986 Y90.797 E3.8156
G1 X137.516 Y93.285 E3.94251
G1 X137.589 Y93.892 E3.97301
G1 X137.599 Y94.232 E3.98998
G1 X137.6 Y125.309 E5.54042
G1 X137.591 Y126.036 E5.57669
G1 X137.533 Y126.633 E5.60662
G1 X137.387 Y127.183 E5.63501
G1 X137.157 Y127.702 E5.66333
G1 X136.848 Y128.18 E5.69172
G1 X136.467 Y128.603 E5.72013
G1 X136.026 Y128.96 E5.74843
G1 X135.532 Y129.244 E5.77686
G1 X135.001 Y129.445 E5.80519
G1 X134.455 Y129.561 E5.83303
G1 X134.092 Y129.59 E5.8512
G1 X133.76 Y129.599 E5.86777
G1 X86.661 Y129.6 E8.21755
G1 X85.963 Y129.591 E8.25238
G1 X85.365 Y129.532 E8.28236
G1 X84.815 Y129.386 E8.31075
G1 X84.295 Y129.155 E8.33913
G1 X83.819 Y128.847 E8.36742
G1 X83.396 Y128.466 E8.39582
G1 X83.039 Y128.023 E8.42421
G1 X82.756 Y127.531 E8.45252
G1 X82.554 Y126.999 E8.48091
G1 X82.439 Y126.453 E8.50875
G1 X82.41 Y126.088 E8.52702
G1 X82.401 Y125.744 E8.54419
G1 X82.4 Y94.646 E10.09567
G1 X82.412 Y93.933 E10.13125
G1 X82.493 Y93.236 E10.16626
G1 X82.733 Y92.12 E10.22321
G1 X83.283 Y89.378 E10.36273
G1 X83.74 Y86.707 E10.49792
G1 X84.12 Y84.032 E10.63272
G1 X84.428 Y81.313 E10.76924
G1 X84.661 Y78.57 E10.90658
G1 X84.813 Y75.873 E11.04135
G1 X84.9 Y71.784 E11.2454
G1 X84.9 Y68.355 E11.41647
G1 X84.911 Y67.635 E11.45239
G1 X84.929 Y67.33 E11.46764
G1 X84.996 Y66.709 E11.4988
G1 X85.119 Y66.105 E11.52955
G1 X85.32 Y65.451 E11.56369
G1 X85.577 Y64.845 E11.59652
G1 X85.922 Y64.218 E11.63223
G1 X86.339 Y63.624 E11.66844
G0 F7500 X86.641 Y63.887
G1 F1500 X87.056 Y63.411 E11.69994
G1 X87.54 Y62.96 E11.73295
G1 X88.026 Y62.593 E11.76333
G1 X88.594 Y62.25 E11.79644
G1 X89.169 Y61.98 E11.82813
G1 X89.807 Y61.76 E11.8618
G1 X90.407 Y61.621 E11.89252
G1 X91.062 Y61.539 E11.92546
G1 X92.186 Y61.516 E11.98154
G1 X128.152 Y61.516 E13.7759
G1 X128.795 Y61.525 E13.80798
G1 X129.348 Y61.581 E13.83571
G1 X129.963 Y61.698 E13.86694
G1 X130.61 Y61.894 E13.90067
G1 X131.188 Y62.138 E13.93197
G1 X131.782 Y62.467 E13.96585
G1 X132.299 Y62.83 E13.99736
G1 X132.799 Y63.265 E14.03043
G1 X133.222 Y63.718 E14.06135
G1 X133.621 Y64.246 E14.09437
G1 X133.938 Y64.77 E14.12492
G1 X134.223 Y65.377 E14.15838
G1 X134.435 Y65.988 E14.19064
G1 X134.59 Y66.663 E14.22519
G1 X134.668 Y67.325 E14.25845
G1 X134.689 Y67.639 E14.27415
G1 X134.7 Y68.234 E14.30384
G1 X134.7 Y71.777 E14.4806
G1 X134.74 Y74.574 E14.62016
G1 X134.855 Y77.291 E14.75583
G1 X135.05 Y80.037 E14.89317
G1 X135.318 Y82.743 E15.02884
G1 X135.666 Y85.466 E15.16579
G1 X136.091 Y88.167 E15.3022
G1 X136.595 Y90.881 E15.43992
G1 X137.119 Y93.334 E15.56506
G1 X137.189 Y93.904 E15.59371
G1 X137.199 Y94.232 E15.61009
G1 X137.2 Y125.304 E17.16027
G1 X137.191 Y126.031 E17.19655
G1 X137.145 Y126.534 E17.22175
G1 X137.02 Y127.024 E17.24698
G1 X136.819 Y127.488 E17.2722
G1 X136.548 Y127.915 E17.29744
G1 X136.213 Y128.294 E17.32267
G1 X135.823 Y128.615 E17.34787
G1 X135.387 Y128.871 E17.3731
G1 X134.916 Y129.054 E17.39831
G1 X134.422 Y129.162 E17.42353
G1 X134.081 Y129.19 E17.4406
G1 X133.76 Y129.199 E17.45662
G1 X86.666 Y129.2 E19.80615
G1 X85.968 Y129.191 E19.84098
G1 X85.464 Y129.144 E19.86623
G1 X84.974 Y129.019 E19.89146
G1 X84.51 Y128.818 E19.91669
G1 X84.084 Y128.547 E19.94188
G1 X83.705 Y128.212 E19.96712
G1 X83.384 Y127.821 E19.99235
G1 X83.129 Y127.385 E20.01755
G1 X82.945 Y126.914 E20.04278
G1 X82.838 Y126.42 E20.068
G1 X82.81 Y126.077 E20.08517
G1 X82.801 Y125.744 E20.10179
G1 X82.8 Y94.653 E21.65292
G1 X82.812 Y93.94 E21.6885
G1 X82.884 Y93.32 E21.71964
G1 X83.124 Y92.204 E21.77659
G1 X83.675 Y89.457 E21.91637
G1 X84.134 Y86.774 E22.05217
G1 X84.516 Y84.088 E22.18752
G1 X84.827 Y81.347 E22.32515
G1 X85.059 Y78.604 E22.46249
G1 X85.213 Y75.882 E22.5985
G1 X85.3 Y71.793 E22.80255
G1 X85.3 Y68.361 E22.97378
G1 X85.31 Y67.659 E23.0088
G1 X85.327 Y67.372 E23.02315
G1 X85.388 Y66.789 E23.05239
G1 X85.511 Y66.185 E23.08314
G1 X85.688 Y65.607 E23.1133
G1 X85.945 Y65.001 E23.14614
G1 X86.25 Y64.447 E23.17769
G1 X86.641 Y63.887 E23.21177
G1 F2700 E16.71177
;MESH:Lid.stl
G0 F7500 X87.841 Y67.611
G0 X91.246 Y91.884
;TYPE:WALL-INNER
G1 F2700 E23.21177
G1 F1500 X128.754 Y91.883 E25.08305
G1 X129.236 Y91.78 E25.10764
G1 X129.699 Y91.574 E25.13292
G1 X130.103 Y91.28 E25.15785
G1 X130.437 Y90.91 E25.18272
G1 X130.69 Y90.471 E25.20799
G1 X130.844 Y89.997 E25.23286
G1 X130.9 Y89.47 E25.2593
G1 X130.9 Y67.73 E26.34391
G1 X130.844 Y67.203 E26.37035
G1 X130.69 Y66.729 E26.39522
G1 X130.437 Y66.29 E26.4205
G1 X130.103 Y65.92 E26.44536
G1 X129.699 Y65.626 E26.47029
G1 X129.236 Y65.42 E26.49557
G1 X128.754 Y65.317 E26.52016
G1 X91.246 Y65.316 E28.39145
G1 X90.764 Y65.42 E28.41605
G1 X90.301 Y65.626 E28.44133
G1 X89.897 Y65.92 E28.46626
G1 X89.564 Y66.29 E28.49109
G1 X89.31 Y66.729 E28.51639
G1 X89.156 Y67.203 E28.54126
G1 X89.1 Y67.73 E28.5677
G1 X89.1 Y89.47 E29.65231
G1 X89.156 Y89.997 E29.67875
G1 X89.31 Y90.471 E29.70362
G1 X89.564 Y90.91 E29.72892
G1 X89.897 Y91.28 E29.75376
G1 X90.301 Y91.574 E29.77868
G1 X90.764 Y91.78 E29.80397
G1 X91.246 Y91.884 E29.82857
G1 F2700 E23.32857
G0 F7500 X91.369 Y91.784
G0 X128.128 Y91.684
G0 X128.128 Y93.149
G0 X128.884 Y93.148
G0 X129.633 Y92.989
G0 X130.334 Y92.676
G0 X130.954 Y92.225
G0 X131.467 Y91.656
G0 X131.851 Y90.992
G0 X132.088 Y90.263
G0 X132.13 Y89.851
G0 X132.165 Y80.176
G0 X128.671 Y79.995
G1 F2700 E29.82857
G1 F1500 X128.355 Y79.907 E29.84493
G1 X128.219 Y79.804 E29.85344
G1 X127.956 Y79.416 E29.87683
G1 X127.884 Y79.197 E29.88833
G1 X127.882 Y78.04 E29.94605
G1 X127.957 Y77.784 E29.95936
G1 X128.228 Y77.391 E29.98318
G1 X128.355 Y77.294 E29.99115
G1 X128.669 Y77.206 E30.00742
G1 X129.077 Y77.305 E30.02836
G1 X129.357 Y77.489 E30.04508
G1 X129.5 Y77.879 E30.0658
G1 X129.5 Y79.408 E30.14209
G1 X129.358 Y79.71 E30.15874
G1 X129.079 Y79.894 E30.17541
G1 X128.671 Y79.995 E30.19638
G0 F7500 X129.033 Y79.491
;TYPE:WALL-OUTER
G1 F1500 X128.669 Y79.595 E30.21527
G1 X128.526 Y79.543 E30.22286
G1 X128.283 Y79.188 E30.24432
G1 X128.282 Y78.014 E30.30289
G1 X128.528 Y77.662 E30.32432
G1 X128.668 Y77.606 E30.33184
G1 X128.959 Y77.687 E30.34691
G1 X129.052 Y77.749 E30.35249
G1 X129.1 Y77.879 E30.3594
G1 X129.097 Y79.356 E30.43309
G1 X129.033 Y79.491 E30.44054
G0 F7500 X128.841 Y79.546
G1 F2700 E23.94054
G0 F7500 X128.383 Y79.861
G0 X127.782 Y79.488
G0 X132.165 Y79.488
G0 X132.164 Y89.535
G0 X132.088 Y90.263
G0 X131.851 Y90.992
G0 X131.467 Y91.656
G0 X130.954 Y92.225
G0 X130.334 Y92.676
G0 X129.633 Y92.989
G0 X129.027 Y93.117
G0 X127.782 Y93.149
G0 X91.204 Y92.284
G1 F2700 E30.44054
G1 F1500 X128.796 Y92.283 E32.31601
G1 X129.36 Y92.162 E32.34479
G1 X129.9 Y91.922 E32.37427
G1 X130.372 Y91.579 E32.40338
G1 X130.762 Y91.147 E32.43242
G1 X131.058 Y90.635 E32.46192
G1 X131.238 Y90.081 E32.49099
G1 X131.3 Y89.491 E32.52058
G1 X131.3 Y67.709 E33.60729
G1 X131.238 Y67.119 E33.63689
G1 X131.058 Y66.565 E33.66595
G1 X130.762 Y66.053 E33.69545
G1 X130.372 Y65.621 E33.72449
G1 X129.9 Y65.278 E33.7536
G1 X129.36 Y65.038 E33.78308
G1 X128.796 Y64.917 E33.81186
G1 X91.204 Y64.916 E35.68733
G1 X90.64 Y65.038 E35.71612
G1 X90.1 Y65.278 E35.7456
G1 X89.628 Y65.621 E35.77471
G1 X89.238 Y66.053 E35.80375
G1 X88.942 Y66.565 E35.83325
G1 X88.762 Y67.119 E35.86232
G1 X88.7 Y67.709 E35.89191
G1 X88.7 Y89.491 E36.97862
G1 X88.762 Y90.081 E37.00822
G1 X88.942 Y90.635 E37.03728
G1 X89.238 Y91.147 E37.06679
G1 X89.628 Y91.579 E37.09582
G1 X90.1 Y91.922 E37.12493
G1 X90.64 Y92.162 E37.15441
G1 X91.204 Y92.284 E37.1832
G0 F7500 X91.404 Y92.284
G1 F2700 E30.6832
G0 F7500 X91.404 Y91.784
G0 X128.128 Y91.684
G0 X128.128 Y93.149
G0 X128.884 Y93.148
G0 X129.633 Y92.989
G0 X130.334 Y92.676
G0 X130.954 Y92.225
G0 X131.467 Y91.656
G0 X131.851 Y90.992
G0 X132.088 Y90.263
G0 X132.13 Y89.851
G0 X132.165 Y80.176
G0 X128.674 Y80.359
;TYPE:SKIN
G1 F2700 E37.1832
G1 F1500 X129.204 Y80.233 E37.21038
G1 F1435.4 X129.628 Y79.956 E37.23678
G1 F1321.6 X129.928 Y79.455 E37.26985
G1 F1273.9 X129.93 Y77.915 E37.36032
G1 F1379.3 X129.662 Y77.315 E37.39597
G1 F1500 X129.584 Y77.216 E37.40226
G1 X129.203 Y76.965 E37.42502
G1 X128.67 Y76.841 E37.45232
G1 X128.279 Y76.928 E37.47231
G1 X127.933 Y77.188 E37.4939
G1 X127.585 Y77.7 E37.52479
G1 X127.523 Y78.002 E37.54017
G1 X127.521 Y79.246 E37.60223
G1 X127.624 Y79.573 E37.61934
G1 X127.988 Y80.102 E37.65137
G1 X128.289 Y80.278 E37.66877
G1 X128.674 Y80.359 E37.6884
G1 F2700 E31.1884
G0 F7500 X128.128 Y79.849
G0 X127.782 Y79.488
G0 X132.165 Y79.488
G0 X132.164 Y89.535
G0 X132.088 Y90.263
G0 X131.851 Y90.992
G0 X131.467 Y91.656
G0 X130.954 Y92.225
G0 X130.334 Y92.676
G0 X129.633 Y92.989
G0 X129.027 Y93.117
G0 X127.782 Y93.149
G0 X91.284 Y91.524
G1 F2700 E37.6884
G1 F1500 X90.882 Y91.436 E37.70893
G1 X90.478 Y91.257 E37.73097
G1 X90.142 Y91.013 E37.75169
G1 X89.856 Y90.696 E37.77299
G1 X89.642 Y90.326 E37.79431
G1 X89.511 Y89.92 E37.8156
G1 X89.46 Y89.451 E37.83913
G1 X89.461 Y67.749 E38.92185
G1 X89.511 Y67.281 E38.94533
G1 X89.642 Y66.874 E38.96666
G1 X89.856 Y66.504 E38.98799
G1 X90.142 Y66.187 E39.00929
G1 X90.478 Y65.943 E39.03001
G1 X90.882 Y65.764 E39.05205
G1 X91.284 Y65.677 E39.07257
G1 X128.718 Y65.677 E40.94016
G1 X129.119 Y65.764 E40.96063
G1 X129.522 Y65.943 E40.98263
G1 X129.858 Y66.187 E41.00335
G1 X130.144 Y66.503 E41.02461
G1 X130.359 Y66.874 E41.04601
G1 X130.491 Y67.28 E41.0673
G1 X130.54 Y67.747 E41.09073
G1 X130.54 Y77.159 E41.5603
G1 F1376.1 X130.504 Y77.698 E41.58967
G1 F1185.8 X130.47 Y77.89 E41.60198
G1 F1107 X130.468 Y79.522 E41.71231
G1 F1160.5 X130.495 Y79.667 E41.72182
G1 F1348.3 X130.54 Y80.091 E41.74548
G1 F1500 X130.54 Y89.451 E42.21245
G1 X130.489 Y89.92 E42.23599
G1 X130.358 Y90.326 E42.25727
G1 X130.144 Y90.696 E42.2786
G1 X129.858 Y91.013 E42.2999
G1 X129.522 Y91.257 E42.32062
G1 X129.119 Y91.436 E42.34262
G1 X128.718 Y91.523 E42.36309
G1 X91.284 Y91.524 E44.23068
G0 F7500 X91.229 Y91.777
G0 X90.078 Y91.286
G0 X90.349 Y90.915
G1 F1500 X90.086 Y90.652 E44.24923
G0 F7500 X89.744 Y90.961
G0 X89.288 Y90.078
G0 X89.685 Y89.685
G1 F1500 X91.322 Y91.322 E44.36473
G0 F7500 X91.888 Y91.322
G1 F1500 X89.659 Y89.093 E44.522
G0 F7500 X89.659 Y88.527
G1 F1500 X92.454 Y91.322 E44.7192
G0 F7500 X93.019 Y91.322
G1 F1500 X89.659 Y87.961 E44.9563
G0 F7500 X89.659 Y87.396
G1 F1500 X93.585 Y91.322 E45.2333
G0 F7500 X94.151 Y91.322
G1 F1500 X89.659 Y86.83 E45.55024
G0 F7500 X89.659 Y86.264
G1 F1500 X94.716 Y91.322 E45.90707
G0 F7500 X95.282 Y91.322
G1 F1500 X89.659 Y85.699 E46.30381
G0 F7500 X89.659 Y85.133
G1 F1500 X95.848 Y91.322 E46.74047
G0 F7500 X96.414 Y91.322
G1 F1500 X89.659 Y84.567 E47.21708
G0 F7500 X89.659 Y84.002
G1 F1500 X96.979 Y91.322 E47.73354
G0 F7500 X97.545 Y91.322
G1 F1500 X89.659 Y83.436 E48.28994
G0 F7500 X89.659 Y82.87
G1 F1500 X98.111 Y91.322 E48.88628
G0 F7500 X98.676 Y91.322
G1 F1500 X89.659 Y82.305 E49.52247
G0 F7500 X89.659 Y81.739
G1 F1500 X99.242 Y91.322 E50.19861
G0 F7500 X99.808 Y91.322
G1 F1500 X89.659 Y81.173 E50.91467
G0 F7500 X89.659 Y80.608
G1 F1500 X100.373 Y91.322 E51.6706
G0 F7500 X100.939 Y91.322
G1 F1500 X89.659 Y80.042 E52.46647
G0 F7500 X89.659 Y79.476
G1 F1500 X101.505 Y91.322 E53.30227
G0 F7500 X102.07 Y91.322
G1 F1500 X89.659 Y78.91 E54.17797
G0 F7500 X89.659 Y78.346
G1 F1500 X102.636 Y91.322 E55.09353
G0 F7500 X103.202 Y91.322
G1 F1500 X89.659 Y77.78 E56.04902
G0 F7500 X89.659 Y77.214
G1 F1500 X103.767 Y91.322 E57.04442
G0 F7500 X104.333 Y91.322
G1 F1500 X89.659 Y76.648 E58.07975
G0 F7500 X89.659 Y76.083
G1 F1500 X104.899 Y91.322 E59.15498
G0 F7500 X105.464 Y91.322
G1 F1500 X89.659 Y75.517 E60.27011
G0 F7500 X89.659 Y74.951
G1 F1500 X106.03 Y91.322 E61.42517
G0 F7500 X106.596 Y91.322
G1 F1500 X89.659 Y74.386 E62.62013
G0 F7500 X89.659 Y73.82
G1 F1500 X107.162 Y91.322 E63.85503
G0 F7500 X107.727 Y91.322
G1 F1500 X89.659 Y73.254 E65.12982
G0 F7500 X89.659 Y72.689
G1 F1500 X108.293 Y91.322 E66.44452
G0 F7500 X108.859 Y91.322
G1 F1500 X89.659 Y72.123 E67.79914
G0 F7500 X89.659 Y71.557
G1 F1500 X109.424 Y91.322 E69.19367
G0 F7500 X109.99 Y91.322
G1 F1500 X89.659 Y70.992 E70.6281
G0 F7500 X89.659 Y70.426
G1 F1500 X110.556 Y91.322 E72.10246
G0 F7500 X111.121 Y91.322
G1 F1500 X89.659 Y69.86 E73.61672
G0 F7500 X89.659 Y69.295
G1 F1500 X111.687 Y91.322 E75.17088
G0 F7500 X112.253 Y91.322
G1 F1500 X89.659 Y68.729 E76.76497
G0 F7500 X89.659 Y68.163
G1 F1500 X112.818 Y91.322 E78.39896
G0 F7500 X113.384 Y91.322
G1 F1500 X89.675 Y67.614 E80.07173
G0 F7500 X89.765 Y67.138
G1 F1500 X113.95 Y91.322 E81.77807
G0 F7500 X114.515 Y91.322
G1 F1500 X89.943 Y66.75 E83.51176
G0 F7500 X90.189 Y66.43
G1 F1500 X115.081 Y91.322 E85.26803
G0 F7500 X115.647 Y91.322
G1 F1500 X90.499 Y66.174 E87.04235
G0 F7500 X90.875 Y65.985
G1 F1500 X116.212 Y91.322 E88.83002
G0 F7500 X116.778 Y91.322
G1 F1500 X91.332 Y65.876 E90.62537
G0 F7500 X91.898 Y65.876
G1 F1500 X117.344 Y91.322 E92.42072
G0 F7500 X117.91 Y91.322
G1 F1500 X92.464 Y65.876 E94.21607
G0 F7500 X93.029 Y65.876
G1 F1500 X118.475 Y91.322 E96.01143
G0 F7500 X119.041 Y91.322
G1 F1500 X93.595 Y65.876 E97.80678
G0 F7500 X94.161 Y65.876
G1 F1500 X119.607 Y91.322 E99.60213
G0 F7500 X120.172 Y91.322
G1 F1500 X94.726 Y65.876 E101.39749
G0 F7500 X95.292 Y65.876
G1 F1500 X120.738 Y91.322 E103.19284
G0 F7500 X121.304 Y91.322
G1 F1500 X95.858 Y65.876 E104.98819
G0 F7500 X96.423 Y65.876
G1 F1500 X121.869 Y91.322 E106.78354
G0 F7500 X122.435 Y91.322
G1 F1500 X96.989 Y65.876 E108.5789
G0 F7500 X97.555 Y65.876
G1 F1500 X123.001 Y91.322 E110.37425
G0 F7500 X123.566 Y91.322
G1 F1500 X98.12 Y65.876 E112.1696
G0 F7500 X98.686 Y65.876
G1 F1500 X124.132 Y91.322 E113.96495
G0 F7500 X124.698 Y91.322
G1 F1500 X99.252 Y65.876 E115.76031
G0 F7500 X99.818 Y65.876
G1 F1500 X125.263 Y91.322 E117.55562
G0 F7500 X125.829 Y91.322
G1 F1500 X100.383 Y65.876 E119.35098
G0 F7500 X100.949 Y65.876
G1 F1500 X126.395 Y91.322 E121.14633
G0 F7500 X126.961 Y91.322
G1 F1500 X101.515 Y65.876 E122.94168
G0 F7500 X102.08 Y65.876
G1 F1500 X127.526 Y91.322 E124.73704
G0 F7500 X128.092 Y91.322
G1 F1500 X102.646 Y65.876 E126.53239
G0 F7500 X103.212 Y65.876
G1 F1500 X128.658 Y91.322 E128.32774
G0 F7500 X129.118 Y91.217
G1 F1500 X103.777 Y65.876 E130.11569
G0 F7500 X104.343 Y65.876
G1 F1500 X129.494 Y91.027 E131.89022
G0 F7500 X129.805 Y90.772
G1 F1500 X104.909 Y65.876 E133.64677
G0 F7500 X105.474 Y65.876
G1 F1500 X130.052 Y90.454 E135.38088
G0 F7500 X130.23 Y90.067
G1 F1500 X106.04 Y65.876 E137.08765
G0 F7500 X106.606 Y65.876
G1 F1500 X130.322 Y89.593 E138.76098
G0 F7500 X130.339 Y89.044
G1 F1500 X107.171 Y65.876 E140.39561
G0 F7500 X107.737 Y65.876
G1 F1500 X130.339 Y88.478 E141.9903
G0 F7500 X130.339 Y87.913
G1 F1500 X108.303 Y65.876 E143.54509
G0 F7500 X108.868 Y65.876
G1 F1500 X130.339 Y87.347 E145.05999
G0 F7500 X130.339 Y86.781
