;FLAVOR:Marlin
;TIME:8327
;Filament used: 5.91006m
;Layer height: 0.2
;MINX:84.9
;MINY:74.522
;MINZ:0.3
;MAXX:135.1
;MAXY:145.478
;MAXZ:38.9
;Generated with Cura_SteamEngine 5.4.0
M140 S60
M105
M190 S60
M104 S195
M105
M109 S195
M82 ;absolute extrusion mode
G28 ;Home
G1 Z15.0 F2000 ;Move the platform
G92 E0
G92 E0
G1 F2700 E-6.5
;LAYER_COUNT:194
;LAYER:0
M107
M204 S1000
G0 F7500 X86.753 Y76.555 Z0.3
;TYPE:SKIRT
G1 F2700 E0
G1 F1500 X87.299 Y76.046 E0.03724
G1 X87.785 Y75.679 E0.06762
G1 X88.42 Y75.295 E0.10465
G1 X89.028 Y75.011 E0.13813
G1 X89.706 Y74.777 E0.17391
G1 X90.316 Y74.635 E0.20516
G1 X91.064 Y74.543 E0.24276
G1 X92.17 Y74.522 E0.29794
G1 X126.158 Y74.522 E1.99361
G1 X126.838 Y74.533 E2.02754
G1 X127.434 Y74.596 E2.05744
G1 X128.051 Y74.715 E2.08879
G1 X128.763 Y74.931 E2.12591
G1 X129.337 Y75.172 E2.15697
G1 X130.012 Y75.545 E2.19545
G1 X130.562 Y75.933 E2.22903
G1 X131.062 Y76.368 E2.26209
G1 X131.541 Y76.882 E2.29714
G1 X131.939 Y77.409 E2.33009
G1 X132.295 Y77.997 E2.36438
G1 X132.596 Y78.64 E2.3998
G1 X132.826 Y79.308 E2.43505
G1 X132.983 Y79.99 E2.46997
G1 X133.075 Y80.771 E2.5092
G1 X133.097 Y81.163 E2.52879
G1 X133.1 Y94.502 E3.19427
G1 X133.14 Y97.282 E3.33298
G1 X133.255 Y99.999 E3.46866
G1 X133.448 Y102.723 E3.6049
G1 X133.715 Y105.417 E3.73996
G1 X134.063 Y108.14 E3.87692
G1 X134.486 Y110.827 E4.01262
G1 X134.924 Y113.267 E4.1363
G1 X135.045 Y114.251 E4.18576
G1 X135.085 Y114.687 E4.2076
G1 X135.098 Y114.995 E4.22298
G1 X135.1 Y136.25 E5.2834
G1 X135.089 Y136.971 E5.31938
G1 X135.029 Y137.756 E5.35865
G1 X134.959 Y138.341 E5.38805
G1 X134.835 Y138.927 E5.41793
G1 X134.5 Y140.012 E5.47458
G1 X134.232 Y140.615 E5.5075
G1 X133.795 Y141.402 E5.55241
G1 X133.635 Y141.667 E5.56786
G1 X133.286 Y142.147 E5.59747
G1 X132.712 Y142.809 E5.64118
G1 X132.498 Y143.039 E5.65685
G1 X132.045 Y143.448 E5.6873
G1 X131.326 Y143.988 E5.73216
G1 X131.076 Y144.162 E5.74736
G1 X130.538 Y144.469 E5.77826
G1 X129.597 Y144.901 E5.82992
G1 X128.925 Y145.13 E5.86534
G1 X127.827 Y145.377 E5.92149
G1 X127.147 Y145.457 E5.95565
G1 X126.051 Y145.478 E6.01034
G1 X93.628 Y145.477 E7.62793
G1 X92.945 Y145.466 E7.66201
G1 X92.353 Y145.404 E7.6917
G1 X91.593 Y145.258 E7.73031
G1 X91.161 Y145.158 E7.75244
G1 X90.607 Y144.977 E7.78151
G1 X89.818 Y144.643 E7.82426
G1 X89.515 Y144.502 E7.84093
G1 X88.977 Y144.194 E7.87186
G1 X88.363 Y143.763 E7.90929
G1 X88.02 Y143.505 E7.9307
G1 X87.582 Y143.111 E7.96009
G1 X87.038 Y142.53 E7.9998
G1 X86.76 Y142.212 E8.02087
G1 X86.416 Y141.739 E8.05005
G1 X85.955 Y140.972 E8.0947
G1 X85.812 Y140.714 E8.10941
G1 X85.569 Y140.167 E8.13928
G1 X85.278 Y139.323 E8.18382
G1 X85.189 Y139.032 E8.199
G1 X85.062 Y138.437 E8.22935
G1 X84.954 Y137.551 E8.27388
G1 X84.912 Y137.021 E8.30041
G1 X84.902 Y136.667 E8.31807
G1 X84.9 Y115.561 E9.37106
G1 X84.91 Y114.844 E9.40683
G1 X84.961 Y113.632 E9.46735
G1 X85.001 Y112.915 E9.50318
G1 X85.078 Y110.167 E9.64033
G1 X85.076 Y107.459 E9.77543
G1 X84.996 Y104.677 E9.91428
G1 X84.904 Y102.723 E10.01188
G1 X84.9 Y81.76 E11.05773
G1 X84.911 Y81.042 E11.09355
G1 X84.935 Y80.629 E11.11419
G1 X84.992 Y80.118 E11.13984
G1 X85.125 Y79.482 E11.17226
G1 X85.301 Y78.906 E11.20231
G1 X85.575 Y78.255 E11.23755
G1 X85.928 Y77.615 E11.27401
G1 X86.342 Y77.027 E11.30989
G1 X86.753 Y76.555 E11.34111
G0 F7500 X87.055 Y76.818
G1 F1500 X87.54 Y76.365 E11.37422
G1 X88.026 Y75.998 E11.40461
G1 X88.59 Y75.657 E11.43749
G1 X89.159 Y75.389 E11.46887
G1 X89.797 Y75.167 E11.50257
G1 X90.407 Y75.025 E11.53381
G1 X91.072 Y74.943 E11.56724
G1 X92.178 Y74.922 E11.62243
G1 X126.152 Y74.922 E13.3174
G1 X126.797 Y74.931 E13.34958
G1 X127.358 Y74.989 E13.37772
G1 X127.975 Y75.108 E13.40907
G1 X128.608 Y75.3 E13.44207
G1 X129.182 Y75.541 E13.47313
G1 X129.782 Y75.872 E13.50732
G1 X130.299 Y76.235 E13.53883
G1 X130.799 Y76.67 E13.5719
G1 X131.222 Y77.123 E13.60282
G1 X131.62 Y77.65 E13.63577
G1 X131.933 Y78.167 E13.66592
G1 X132.218 Y78.772 E13.69928
G1 X132.436 Y79.398 E13.73235
G1 X132.593 Y80.08 E13.76727
G1 X132.676 Y80.794 E13.80313
G1 X132.697 Y81.163 E13.82157
G1 X132.7 Y94.502 E14.48706
G1 X132.74 Y97.299 E14.62661
G1 X132.855 Y100.016 E14.76229
G1 X133.05 Y102.762 E14.89963
G1 X133.318 Y105.468 E15.03529
G1 X133.666 Y108.191 E15.17225
G1 X134.092 Y110.898 E15.30896
G1 X134.527 Y113.316 E15.43153
G1 X134.647 Y114.287 E15.48035
G1 X134.685 Y114.705 E15.50129
G1 X134.698 Y114.995 E15.51577
G1 X134.7 Y136.244 E16.57589
G1 X134.69 Y136.941 E16.61066
G1 X134.632 Y137.709 E16.64909
G1 X134.567 Y138.259 E16.67672
G1 X134.452 Y138.81 E16.7048
G1 X134.134 Y139.85 E16.75906
G1 X133.882 Y140.421 E16.7902
G1 X133.452 Y141.197 E16.83446
G1 X133.311 Y141.433 E16.84817
G1 X132.984 Y141.885 E16.87601
G1 X132.418 Y142.538 E16.91912
G1 X132.229 Y142.743 E16.93303
G1 X131.805 Y143.128 E16.9616
G1 X131.096 Y143.661 E17.00585
G1 X130.877 Y143.815 E17.01921
G1 X130.371 Y144.105 E17.04831
G1 X129.43 Y144.537 E17.09997
G1 X128.797 Y144.751 E17.1333
G1 X127.779 Y144.98 E17.18536
G1 X127.139 Y145.057 E17.21752
G1 X126.051 Y145.078 E17.27181
G1 X93.634 Y145.077 E18.8891
G1 X92.986 Y145.068 E18.92143
G1 X92.428 Y145.011 E18.94942
G1 X91.681 Y144.868 E18.98736
G1 X91.284 Y144.778 E19.00767
G1 X90.763 Y144.609 E19.035
G1 X89.984 Y144.279 E19.0772
G1 X89.713 Y144.155 E19.09207
G1 X89.207 Y143.866 E19.12114
G1 X88.602 Y143.442 E19.158
G1 X88.287 Y143.207 E19.17761
G1 X87.874 Y142.837 E19.20527
G1 X87.338 Y142.266 E19.24434
G1 X87.083 Y141.976 E19.26361
G1 X86.759 Y141.533 E19.29099
G1 X86.304 Y140.777 E19.33501
G1 X86.177 Y140.55 E19.34799
G1 X85.947 Y140.037 E19.37604
G1 X85.66 Y139.204 E19.41999
G1 X85.58 Y138.947 E19.43342
G1 X85.459 Y138.389 E19.46191
G1 X85.353 Y137.519 E19.50563
G1 X85.312 Y137.009 E19.53116
G1 X85.302 Y136.667 E19.54823
G1 X85.3 Y115.567 E20.60091
G1 X85.31 Y114.861 E20.63614
G1 X85.36 Y113.654 E20.69641
G1 X85.401 Y112.926 E20.73279
G1 X85.478 Y110.178 E20.86994
G1 X85.476 Y107.459 E21.00559
G1 X85.396 Y104.666 E21.14499
G1 X85.304 Y102.723 E21.24204
G1 X85.3 Y81.766 E22.28758
G1 X85.31 Y81.065 E22.32256
G1 X85.333 Y80.673 E22.34215
G1 X85.39 Y80.162 E22.3678
G1 X85.508 Y79.599 E22.3965
G1 X85.684 Y79.023 E22.42655
G1 X85.943 Y78.411 E22.45971
G1 X86.256 Y77.844 E22.49202
G1 X86.644 Y77.29 E22.52576
G1 X87.055 Y76.818 E22.55699
G1 F2700 E16.05699
;MESH:Box.stl
G0 F7500 X126.884 Y77.458
G0 X127.633 Y77.616
G0 X128.334 Y77.929
G0 X128.954 Y78.38
G0 X129.467 Y78.949
G0 X129.851 Y79.614
G0 X130.088 Y80.344
G0 X130.13 Y80.754
G0 X130.165 Y90.644
G0 X127.357 Y93.118
;TYPE:WALL-INNER
G1 F2700 E22.55699
G1 F1500 X127.077 Y93.302 E22.5737
G1 X126.669 Y93.401 E22.59465
G1 X126.43 Y93.352 E22.60682
G1 X126.207 Y93.187 E22.62066
G1 X125.956 Y92.82 E22.64284
G1 X125.884 Y92.602 E22.65429
G1 X125.882 Y91.446 E22.71197
G1 X125.957 Y91.19 E22.72528
G1 X126.208 Y90.826 E22.74734
G1 X126.429 Y90.661 E22.7611
G1 X126.669 Y90.612 E22.77332
G1 X127.077 Y90.711 E22.79426
G1 X127.357 Y90.895 E22.81098
G1 X127.5 Y91.285 E22.8317
G1 X127.5 Y92.815 E22.90803
G1 X127.357 Y93.118 E22.92475
G1 F2700 E16.42475
G0 F7500 X127.6 Y92.746
G0 X127.308 Y93.369
G0 X130.165 Y93.369
G0 X130.164 Y102.94
G0 X130.088 Y103.667
G0 X129.897 Y104.258
G0 X129.543 Y104.931
G0 X126.755 Y105.289
G1 F2700 E22.92475
G1 F1500 X127.235 Y105.187 E22.94923
G1 X127.699 Y104.98 E22.97458
G1 X128.103 Y104.686 E22.99951
G1 X128.437 Y104.316 E23.02437
G1 X128.69 Y103.877 E23.04965
G1 X128.844 Y103.402 E23.07457
G1 X128.9 Y102.875 E23.10101
G1 X128.9 Y81.135 E24.18562
G1 X128.844 Y80.609 E24.21201
G1 X128.69 Y80.134 E24.23692
G1 X128.437 Y79.695 E24.2622
G1 X128.103 Y79.325 E24.28707
G1 X127.699 Y79.031 E24.312
G1 X127.235 Y78.824 E24.33734
G1 X126.755 Y78.723 E24.36182
G1 X91.245 Y78.722 E26.13342
G1 X90.765 Y78.824 E26.1579
G1 X90.301 Y79.031 E26.18325
G1 X89.897 Y79.325 E26.20817
G1 X89.564 Y79.695 E26.23301
G1 X89.31 Y80.134 E26.25831
G1 X89.156 Y80.609 E26.28322
G1 X89.1 Y81.135 E26.30962
G1 X89.1 Y102.875 E27.39423
G1 X89.156 Y103.402 E27.42067
G1 X89.31 Y103.877 E27.44558
G1 X89.564 Y104.316 E27.47088
G1 X89.897 Y104.686 E27.49572
G1 X90.301 Y104.98 E27.52065
G1 X90.765 Y105.187 E27.54599
G1 X91.245 Y105.289 E27.57048
G1 X126.755 Y105.289 E29.34208
G0 F7500 X126.797 Y105.689
;TYPE:WALL-OUTER
G1 F1500 X127.359 Y105.569 E29.37075
G1 X127.9 Y105.328 E29.4003
G1 X128.372 Y104.985 E29.42941
G1 X128.762 Y104.553 E29.45844
G1 X129.058 Y104.041 E29.48795
G1 X129.238 Y103.486 E29.51706
G1 X129.3 Y102.896 E29.54665
G1 X129.3 Y81.114 E30.63336
G1 X129.238 Y80.525 E30.66291
G1 X129.058 Y79.97 E30.69202
G1 X128.762 Y79.458 E30.72152
G1 X128.372 Y79.026 E30.75056
G1 X127.9 Y78.683 E30.77967
G1 X127.359 Y78.442 E30.80922
G1 X126.797 Y78.323 E30.83788
G1 X91.203 Y78.322 E32.61367
G1 X90.641 Y78.442 E32.64234
G1 X90.1 Y78.683 E32.67189
G1 X89.628 Y79.026 E32.70099
G1 X89.238 Y79.458 E32.73003
G1 X88.942 Y79.97 E32.75954
G1 X88.762 Y80.525 E32.78865
G1 X88.7 Y81.114 E32.81819
G1 X88.7 Y102.896 E33.9049
G1 X88.762 Y103.486 E33.9345
G1 X88.942 Y104.041 E33.96361
G1 X89.238 Y104.553 E33.99311
G1 X89.628 Y104.985 E34.02215
G1 X90.1 Y105.328 E34.05126
G1 X90.641 Y105.569 E34.08081
G1 X91.203 Y105.689 E34.10948
G1 X126.797 Y105.689 E35.88527
G0 F7500 X126.992 Y105.648
G1 F2700 E29.38527
G0 F7500 X127.306 Y105.045
G0 X127.994 Y104.565
G0 X128.303 Y104.171
G0 X129.543 Y104.931
G0 X129.851 Y104.397
G0 X130.088 Y103.667
G0 X130.13 Y103.256
G0 X130.165 Y93.369
G0 X127.032 Y92.9
G1 F2700 E35.88527
G1 F1500 X126.668 Y93.001 E35.90411
G1 X126.501 Y92.914 E35.91351
G1 X126.283 Y92.593 E35.93287
G1 X126.282 Y91.425 E35.99114
G1 X126.525 Y91.065 E36.01281
G1 X126.668 Y91.012 E36.02042
G1 X126.959 Y91.093 E36.03549
G1 X127.052 Y91.155 E36.04106
G1 X127.1 Y91.285 E36.04798
G1 X127.097 Y92.763 E36.12171
G1 X127.032 Y92.9 E36.12928
G0 F7500 X126.839 Y92.953
G1 F2700 E29.62928
G0 F7500 X126.383 Y93.266
G0 X126.669 Y93.582
G0 X130.165 Y93.582
G0 X130.164 Y102.94
G0 X130.088 Y103.667
G0 X129.897 Y104.258
G0 X129.543 Y104.931
G0 X126.719 Y104.929
;TYPE:SKIN
G1 F2700 E36.12928
G1 F1500 X91.281 Y104.929 E37.89729
G1 X90.881 Y104.842 E37.91771
G1 X90.478 Y104.663 E37.93971
G1 X90.142 Y104.419 E37.96043
G1 X89.859 Y104.107 E37.98144
G1 X89.639 Y103.727 E38.00335
G1 X89.509 Y103.326 E38.02438
G1 X89.46 Y102.858 E38.04786
G1 X89.461 Y81.154 E39.13067
G1 X89.511 Y80.686 E39.15416
G1 X89.642 Y80.28 E39.17544
G1 X89.856 Y79.909 E39.19681
G1 X90.142 Y79.592 E39.21811
G1 X90.478 Y79.348 E39.23882
G1 X90.881 Y79.169 E39.26082
G1 X91.281 Y79.083 E39.28124
G1 X126.721 Y79.084 E41.04935
G1 X127.116 Y79.168 E41.06949
G1 X127.522 Y79.348 E41.09165
G1 X127.858 Y79.592 E41.11237
G1 X128.144 Y79.908 E41.13363
G1 X128.359 Y80.279 E41.15502
G1 X128.491 Y80.686 E41.17637
G1 X128.54 Y81.152 E41.19975
G1 X128.54 Y90.565 E41.66936
G1 F1376.1 X128.504 Y91.102 E41.69863
G1 F1185.8 X128.47 Y91.294 E41.71094
G1 F1107 X128.468 Y92.93 E41.82153
G1 F1162.8 X128.496 Y93.08 E41.83135
G1 F1351.4 X128.54 Y93.504 E41.85496
G1 F1500 X128.54 Y102.856 E42.32153
G1 X128.489 Y103.326 E42.34512
G1 X128.358 Y103.732 E42.3664
G1 X128.144 Y104.102 E42.38773
G1 X127.858 Y104.419 E42.40903
G1 X127.522 Y104.663 E42.42974
G1 X127.119 Y104.842 E42.45174
G1 X126.719 Y104.929 E42.47217
G1 F2700 E35.97217
G0 F7500 X127.306 Y105.045
G0 X127.994 Y104.565
G0 X128.303 Y104.171
G0 X129.543 Y104.931
G0 X129.851 Y104.397
G0 X130.088 Y103.667
G0 X130.13 Y103.256
G0 X130.165 Y93.369
G0 X127.93 Y91.294
G1 F2700 E42.47217
G1 F1185.8 X127.882 Y91.212 E42.47816
G1 F1376.1 X127.664 Y90.72 E42.50743
G1 F1500 X127.585 Y90.622 E42.51371
G1 X127.203 Y90.371 E42.53651
G1 X126.67 Y90.247 E42.56381
G1 X126.279 Y90.334 E42.5838
G1 X125.933 Y90.594 E42.60539
G1 X125.585 Y91.106 E42.63627
G1 X125.523 Y91.408 E42.65166
G1 X125.522 Y92.601 E42.71117
G1 X125.587 Y92.917 E42.72727
G1 X125.933 Y93.424 E42.75789
G1 X126.166 Y93.621 E42.77312
G1 X126.42 Y93.725 E42.78681
G1 X126.676 Y93.763 E42.79972
G1 X127.202 Y93.642 E42.82665
G1 F1435.4 X127.622 Y93.365 E42.85288
G1 F1321.6 X127.928 Y92.865 E42.88607
G1 F1185.8 X127.93 Y91.294 E42.98522
G1 F2700 E36.48522
G0 F7500 X127.6 Y91.294
G0 X127.308 Y90.644
G0 X130.165 Y90.644
G0 X130.164 Y81.07
G0 X130.088 Y80.344
G0 X129.851 Y79.614
G0 X129.467 Y78.949
G0 X129.053 Y78.489
G0 X128.458 Y78.019
G0 X126.829 Y79.311
G1 F2700 E42.98522
G1 F1500 X128.299 Y80.782 E43.08897
G0 F7500 X128.339 Y81.387
G1 F1500 X126.235 Y79.283 E43.23742
G0 F7500 X125.669 Y79.283
G1 F1500 X128.339 Y81.952 E43.42577
G0 F7500 X128.339 Y82.518
G1 F1500 X125.104 Y79.283 E43.65401
G0 F7500 X124.538 Y79.283
G1 F1500 X128.339 Y83.084 E43.9222
G0 F7500 X128.339 Y83.65
G1 F1500 X123.972 Y79.283 E44.23031
G0 F7500 X123.407 Y79.283
G1 F1500 X128.339 Y84.215 E44.57829
G0 F7500 X128.339 Y84.781
G1 F1500 X122.841 Y79.283 E44.9662
G0 F7500 X122.275 Y79.283
G1 F1500 X128.339 Y85.347 E45.39405
G0 F7500 X128.339 Y85.912
G1 F1500 X121.71 Y79.283 E45.86176
G0 F7500 X121.144 Y79.283
G1 F1500 X128.339 Y86.478 E46.36941
G0 F7500 X128.339 Y87.044
G1 F1500 X120.578 Y79.283 E46.91699
G0 F7500 X120.012 Y79.283
G1 F1500 X128.339 Y87.609 E47.50447
G0 F7500 X128.339 Y88.175
G1 F1500 X119.447 Y79.283 E48.13185
G0 F7500 X118.881 Y79.283
G1 F1500 X128.339 Y88.741 E48.79916
G0 F7500 X128.339 Y89.306
G1 F1500 X118.315 Y79.283 E49.50637
G0 F7500 X117.75 Y79.283
G1 F1500 X128.339 Y89.872 E50.25348
G0 F7500 X128.339 Y90.438
G1 F1500 X117.184 Y79.283 E51.04053
G0 F7500 X116.618 Y79.283
G1 F1500 X128.288 Y90.953 E51.86391
G1 F2700 E45.36391
G0 F7500 X127.6 Y91.382
G0 X127.308 Y90.644
G0 X126.705 Y90.431
G0 X126.852 Y90.083
G1 F2700 E51.86391
G1 F1500 X116.053 Y79.283 E52.62587
G0 F7500 X115.487 Y79.283
G1 F1500 X126.318 Y90.115 E53.3901
G0 F7500 X125.959 Y90.32
G1 F1500 X114.921 Y79.283 E54.16885
G0 F7500 X114.356 Y79.283
G1 F1500 X125.681 Y90.608 E54.96789
G0 F7500 X125.449 Y90.943
G1 F1500 X113.79 Y79.283 E55.79053
G0 F7500 X113.224 Y79.283
G1 F1500 X125.326 Y91.385 E56.64439
G0 F7500 X125.321 Y91.945
G1 F1500 X112.659 Y79.283 E57.53777
G0 F7500 X112.093 Y79.283
G1 F1500 X125.321 Y92.511 E58.47107
G0 F7500 X125.781 Y92.512
G0 X126.122 Y93.239
G0 X125.742 Y93.498
G1 F1500 X111.527 Y79.283 E59.47402
G0 F7500 X110.962 Y79.283
G1 F1500 X128.339 Y96.66 E60.70006
G0 F7500 X128.339 Y96.095
G1 F1500 X125.9 Y93.656 E60.87214
G0 F7500 X126.758 Y93.949
G1 F1500 X128.339 Y95.529 E60.98366
G0 F7500 X128.339 Y94.963
G1 F1500 X127.219 Y93.843 E61.06268
G0 F7500 X127.576 Y93.635
G1 F1500 X128.339 Y94.398 E61.11651
G0 F7500 X128.339 Y93.832
G1 F1500 X127.864 Y93.357 E61.15003
G0 F7500 X128.11 Y93.038
G1 F1500 X128.276 Y93.203 E61.1617
G1 F2700 E54.6617
G0 F7500 X127.6 Y92.746
G0 X127.308 Y93.369
G0 X128.7 Y93.369
G0 X128.339 Y97.226
G1 F2700 E61.1617
G1 F1500 X110.396 Y79.283 E62.42768
G0 F7500 X109.83 Y79.283
G1 F1500 X128.339 Y97.792 E63.73359
G0 F7500 X128.339 Y98.357
G1 F1500 X109.264 Y79.283 E65.0794
G0 F7500 X108.699 Y79.283
G1 F1500 X128.339 Y98.923 E66.46511
G0 F7500 X128.339 Y99.489
G1 F1500 X108.133 Y79.283 E67.89075
G0 F7500 X107.567 Y79.283
G1 F1500 X128.339 Y100.054 E69.35629
G0 F7500 X128.339 Y100.62
G1 F1500 X107.002 Y79.283 E70.86173
G0 F7500 X106.436 Y79.283
G1 F1500 X128.339 Y101.186 E72.4071
G0 F7500 X128.339 Y101.751
G1 F1500 X105.87 Y79.283 E73.99238
G0 F7500 X105.305 Y79.283
G1 F1500 X128.339 Y102.317 E75.61755
G0 F7500 X128.335 Y102.879
G1 F1500 X104.739 Y79.283 E77.28238
G0 F7500 X104.173 Y79.283
G1 F1500 X128.262 Y103.372 E78.98199
G0 F7500 X128.1 Y103.776
G1 F1500 X103.608 Y79.283 E80.71006
G0 F7500 X103.042 Y79.283
G1 F1500 X127.868 Y104.109 E82.46167
G0 F7500 X127.571 Y104.378
G1 F1500 X102.476 Y79.283 E84.23226
G0 F7500 X101.911 Y79.283
G1 F1500 X127.209 Y104.582 E86.01721
G0 F7500 X126.773 Y104.711
G1 F1500 X101.345 Y79.283 E87.81129
G0 F7500 X100.779 Y79.283
G1 F1500 X126.224 Y104.728 E89.60657
G0 F7500 X125.658 Y104.728
G1 F1500 X100.214 Y79.283 E91.40182
G0 F7500 X99.648 Y79.283
G1 F1500 X125.092 Y104.728 E93.19706
G0 F7500 X124.527 Y104.728
G1 F1500 X99.082 Y79.283 E94.99235
G0 F7500 X98.516 Y79.283
G1 F1500 X123.961 Y104.728 E96.78763
G0 F7500 X123.395 Y104.728
