;FLAVOR:Marlin
;TIME:7567
;Filament used: 5.40848m
;Layer height: 0.2
;MINX:86.9
;MINY:75.522
;MINZ:0.3
;MAXX:133.1
;MAXY:144.478
;MAXZ:38.9
;Generated with Cura_SteamEngine 5.4.0
M140 S60
M105
M190 S60
M104 S195
M105
M109 S195
M82 ;absolute extrusion mode
G28 ;Home
G1 Z15.0 F2000 ;Move the platform
G92 E0
G92 E0
G1 F2700 E-6.5
;LAYER_COUNT:194
;LAYER:0
M107
M204 S1000
G0 F7500 X88.753 Y77.555 Z0.3
;TYPE:SKIRT
G1 F2700 E0
G1 F1500 X89.299 Y77.046 E0.03724
G1 X89.785 Y76.679 E0.06762
G1 X90.42 Y76.295 E0.10465
G1 X91.028 Y76.011 E0.13813
G1 X91.706 Y75.777 E0.17391
G1 X92.316 Y75.635 E0.20516
G1 X93.064 Y75.543 E0.24276
G1 X94.17 Y75.522 E0.29794
G1 X124.158 Y75.522 E1.79405
G1 X124.838 Y75.533 E1.82798
G1 X125.434 Y75.596 E1.85788
G1 X126.051 Y75.715 E1.88923
G1 X126.763 Y75.931 E1.92635
G1 X127.337 Y76.172 E1.95741
G1 X128.012 Y76.545 E1.99589
G1 X128.562 Y76.933 E2.02947
G1 X129.062 Y77.368 E2.06253
G1 X129.541 Y77.882 E2.09758
G1 X129.939 Y78.409 E2.13053
G1 X130.295 Y78.997 E2.16482
G1 X130.596 Y79.64 E2.20024
G1 X130.826 Y80.308 E2.23549
G1 X130.983 Y80.99 E2.27041
G1 X131.075 Y81.771 E2.30964
G1 X131.097 Y82.163 E2.32923
G1 X131.1 Y94.502 E2.94482
G1 X131.14 Y97.282 E3.08353
G1 X131.255 Y99.999 E3.2192
G1 X131.448 Y102.723 E3.35545
G1 X131.715 Y105.417 E3.49051
G1 X132.063 Y108.14 E3.62746
G1 X132.486 Y110.827 E3.76317
G1 X132.924 Y113.267 E3.88685
G1 X133.045 Y114.251 E3.93631
G1 X133.085 Y114.687 E3.95815
G1 X133.098 Y114.995 E3.97353
G1 X133.1 Y135.25 E4.98406
G1 X133.089 Y135.971 E5.02003
G1 X133.029 Y136.756 E5.05931
G1 X132.959 Y137.341 E5.08871
G1 X132.835 Y137.927 E5.11859
G1 X132.5 Y139.012 E5.17524
G1 X132.232 Y139.615 E5.20816
G1 X131.795 Y140.402 E5.25307
G1 X131.635 Y140.667 E5.26852
G1 X131.286 Y141.147 E5.29813
G1 X130.712 Y141.809 E5.34184
G1 X130.498 Y142.039 E5.35751
G1 X130.045 Y142.448 E5.38796
G1 X129.326 Y142.988 E5.43282
G1 X129.076 Y143.162 E5.44802
G1 X128.538 Y143.469 E5.47892
G1 X127.597 Y143.901 E5.53058
G1 X126.925 Y144.13 E5.566
G1 X125.827 Y144.377 E5.62215
G1 X125.147 Y144.457 E5.65631
G1 X124.052 Y144.478 E5.71095
G1 X95.629 Y144.477 E7.12898
G1 X94.945 Y144.466 E7.16311
G1 X94.35 Y144.403 E7.19296
G1 X93.482 Y144.234 E7.23707
G1 X93.169 Y144.161 E7.25311
G1 X92.64 Y143.99 E7.28084
G1 X91.818 Y143.643 E7.32536
G1 X91.515 Y143.502 E7.34203
G1 X90.977 Y143.194 E7.37296
G1 X90.363 Y142.763 E7.41039
G1 X90.02 Y142.505 E7.4318
G1 X89.582 Y142.111 E7.46119
G1 X89.038 Y141.53 E7.5009
G1 X88.76 Y141.212 E7.52197
G1 X88.416 Y140.739 E7.55115
G1 X87.955 Y139.972 E7.5958
G1 X87.812 Y139.714 E7.61051
G1 X87.569 Y139.167 E7.64038
G1 X87.278 Y138.323 E7.68492
G1 X87.189 Y138.032 E7.7001
G1 X87.062 Y137.437 E7.73045
G1 X86.954 Y136.551 E7.77498
G1 X86.912 Y136.021 E7.80151
G1 X86.902 Y135.667 E7.81917
G1 X86.9 Y115.561 E8.82227
G1 X86.91 Y114.844 E8.85804
G1 X86.961 Y113.632 E8.91856
G1 X87.001 Y112.915 E8.95439
G1 X87.078 Y110.167 E9.09154
G1 X87.076 Y107.459 E9.22664
G1 X86.996 Y104.677 E9.3655
G1 X86.904 Y102.723 E9.46309
G1 X86.9 Y82.76 E10.45905
G1 X86.911 Y82.042 E10.49487
G1 X86.935 Y81.629 E10.51551
G1 X86.992 Y81.118 E10.54116
G1 X87.125 Y80.482 E10.57358
G1 X87.301 Y79.906 E10.60363
G1 X87.575 Y79.255 E10.63887
G1 X87.928 Y78.615 E10.67533
G1 X88.342 Y78.027 E10.71121
G1 X88.753 Y77.555 E10.74243
G0 F7500 X89.055 Y77.818
G1 F1500 X89.54 Y77.365 E10.77554
G1 X90.026 Y76.998 E10.80593
G1 X90.59 Y76.657 E10.83881
G1 X91.159 Y76.389 E10.87019
G1 X91.797 Y76.167 E10.90389
G1 X92.407 Y76.025 E10.93513
G1 X93.072 Y75.943 E10.96856
G1 X94.178 Y75.922 E11.02375
G1 X124.152 Y75.922 E12.51916
G1 X124.797 Y75.931 E12.55134
G1 X125.358 Y75.989 E12.57948
G1 X125.975 Y76.108 E12.61083
G1 X126.608 Y76.3 E12.64383
G1 X127.182 Y76.541 E12.67489
G1 X127.782 Y76.872 E12.70908
G1 X128.299 Y77.235 E12.74059
G1 X128.799 Y77.67 E12.77366
G1 X129.222 Y78.123 E12.80458
G1 X129.62 Y78.65 E12.83753
G1 X129.933 Y79.167 E12.86768
G1 X130.218 Y79.772 E12.90104
G1 X130.436 Y80.398 E12.93411
G1 X130.593 Y81.08 E12.96903
G1 X130.676 Y81.794 E13.00489
G1 X130.697 Y82.163 E13.02333
G1 X130.7 Y94.502 E13.63892
G1 X130.74 Y97.299 E13.77848
G1 X130.855 Y100.016 E13.91416
G1 X131.05 Y102.762 E14.0515
G1 X131.318 Y105.468 E14.18716
G1 X131.666 Y108.191 E14.32412
G1 X132.092 Y110.898 E14.46083
G1 X132.527 Y113.316 E14.5834
G1 X132.647 Y114.287 E14.63222
G1 X132.685 Y114.705 E14.65316
G1 X132.698 Y114.995 E14.66764
G1 X132.7 Y135.244 E15.67787
G1 X132.69 Y135.941 E15.71264
G1 X132.632 Y136.709 E15.75107
G1 X132.567 Y137.259 E15.7787
G1 X132.452 Y137.81 E15.80678
G1 X132.134 Y138.85 E15.86104
G1 X131.882 Y139.421 E15.89217
G1 X131.452 Y140.197 E15.93644
G1 X131.311 Y140.433 E15.95015
G1 X130.984 Y140.885 E15.97798
G1 X130.418 Y141.538 E16.0211
G1 X130.229 Y141.743 E16.03501
G1 X129.805 Y142.128 E16.06358
G1 X129.096 Y142.661 E16.10783
G1 X128.877 Y142.815 E16.12119
G1 X128.371 Y143.105 E16.15029
G1 X127.43 Y143.537 E16.20194
G1 X126.797 Y143.751 E16.23528
G1 X125.779 Y143.98 E16.28734
G1 X125.139 Y144.057 E16.3195
G1 X124.052 Y144.078 E16.37374
G1 X95.635 Y144.077 E17.79147
G1 X94.986 Y144.068 E17.82385
G1 X94.426 Y144.01 E17.85194
G1 X93.571 Y143.844 E17.89539
G1 X93.292 Y143.78 E17.90967
G1 X92.763 Y143.609 E17.93741
G1 X91.984 Y143.279 E17.97962
G1 X91.713 Y143.155 E17.99449
G1 X91.207 Y142.866 E18.02356
G1 X90.602 Y142.442 E18.06042
G1 X90.287 Y142.207 E18.08002
G1 X89.874 Y141.837 E18.10769
G1 X89.338 Y141.266 E18.14676
G1 X89.083 Y140.976 E18.16602
G1 X88.759 Y140.533 E18.19341
G1 X88.304 Y139.777 E18.23743
G1 X88.177 Y139.55 E18.2504
G1 X87.947 Y139.037 E18.27845
G1 X87.66 Y138.204 E18.32241
G1 X87.58 Y137.947 E18.33584
G1 X87.459 Y137.389 E18.36432
G1 X87.353 Y136.519 E18.40805
G1 X87.312 Y136.009 E18.43357
G1 X87.302 Y135.667 E18.45064
G1 X87.3 Y115.567 E19.45344
G1 X87.31 Y114.861 E19.48866
G1 X87.36 Y113.654 E19.54893
G1 X87.401 Y112.926 E19.58531
G1 X87.478 Y110.178 E19.72246
G1 X87.476 Y107.459 E19.85811
G1 X87.396 Y104.666 E19.99751
G1 X87.304 Y102.723 E20.09456
G1 X87.3 Y82.766 E21.09022
G1 X87.31 Y82.065 E21.12519
G1 X87.333 Y81.673 E21.14478
G1 X87.39 Y81.162 E21.17044
G1 X87.508 Y80.599 E21.19914
G1 X87.684 Y80.023 E21.22918
G1 X87.943 Y79.411 E21.26234
G1 X88.256 Y78.844 E21.29465
G1 X88.644 Y78.29 E21.32839
G1 X89.055 Y77.818 E21.35962
G1 F2700 E14.85962
;MESH:Box.stl
G0 F7500 X124.884 Y78.458
G0 X125.633 Y78.616
G0 X126.334 Y78.929
G0 X126.954 Y79.38
G0 X127.467 Y79.949
G0 X127.851 Y80.614
G0 X128.088 Y81.344
G0 X128.13 Y81.754
G0 X128.165 Y91.936
G0 X124.639 Y93.9
;TYPE:WALL-INNER
G1 F2700 E21.35962
G1 F1500 X124.383 Y93.829 E21.37287
G1 X124.223 Y93.715 E21.38267
G1 X123.927 Y93.284 E21.40876
G1 X123.884 Y93.102 E21.41809
G1 X123.885 Y91.908 E21.47766
G1 X123.957 Y91.69 E21.48911
G1 X124.21 Y91.323 E21.51135
G1 X124.383 Y91.183 E21.52245
G1 X124.639 Y91.113 E21.53569
G1 X125.077 Y91.211 E21.55809
G1 X125.357 Y91.395 E21.5748
G1 X125.5 Y91.785 E21.59553
G1 X125.5 Y93.315 E21.67186
G1 X125.357 Y93.618 E21.68857
G1 X125.077 Y93.802 E21.70529
G1 X124.639 Y93.9 E21.72768
G1 F2700 E15.22768
G0 F7500 X124.104 Y93.72
G0 X124.631 Y94.081
G0 X128.165 Y94.081
G0 X128.164 Y102.94
G0 X128.088 Y103.667
G0 X127.851 Y104.397
G0 X127.541 Y104.935
G0 X127.058 Y105.516
G0 X124.755 Y105.289
G1 F2700 E21.72768
G1 F1500 X125.235 Y105.187 E21.75216
G1 X125.699 Y104.98 E21.77751
G1 X126.103 Y104.686 E21.80244
G1 X126.437 Y104.316 E21.82731
G1 X126.69 Y103.877 E21.85259
G1 X126.844 Y103.402 E21.8775
G1 X126.9 Y102.875 E21.90394
G1 X126.9 Y82.135 E22.93866
G1 X126.844 Y81.609 E22.96505
G1 X126.69 Y81.134 E22.98996
G1 X126.437 Y80.695 E23.01524
G1 X126.103 Y80.325 E23.04011
G1 X125.699 Y80.031 E23.06504
G1 X125.235 Y79.824 E23.09039
G1 X124.755 Y79.723 E23.11486
G1 X93.245 Y79.722 E24.6869
G1 X92.765 Y79.824 E24.71138
G1 X92.301 Y80.031 E24.73673
G1 X91.897 Y80.325 E24.76166
G1 X91.564 Y80.695 E24.78649
G1 X91.31 Y81.134 E24.81179
G1 X91.156 Y81.609 E24.83671
G1 X91.1 Y82.135 E24.8631
G1 X91.1 Y102.875 E25.89782
G1 X91.156 Y103.402 E25.92426
G1 X91.31 Y103.877 E25.94917
G1 X91.564 Y104.316 E25.97448
G1 X91.897 Y104.686 E25.99931
G1 X92.301 Y104.98 E26.02424
G1 X92.765 Y105.187 E26.04959
G1 X93.245 Y105.289 E26.07407
G1 X124.755 Y105.289 E27.64611
G0 F7500 X124.797 Y105.689
;TYPE:WALL-OUTER
G1 F1500 X125.359 Y105.569 E27.67478
G1 X125.9 Y105.328 E27.70433
G1 X126.372 Y104.985 E27.73344
G1 X126.762 Y104.553 E27.76247
G1 X127.058 Y104.041 E27.79198
G1 X127.238 Y103.486 E27.82109
G1 X127.3 Y102.896 E27.85068
G1 X127.3 Y82.114 E28.8875
G1 X127.238 Y81.525 E28.91705
G1 X127.058 Y80.97 E28.94616
G1 X126.762 Y80.458 E28.97566
G1 X126.372 Y80.026 E29.0047
G1 X125.9 Y79.683 E29.03381
G1 X125.359 Y79.442 E29.06336
G1 X124.797 Y79.323 E29.09202
G1 X93.203 Y79.322 E30.66825
G1 X92.641 Y79.442 E30.69692
G1 X92.1 Y79.683 E30.72647
G1 X91.628 Y80.026 E30.75557
G1 X91.238 Y80.458 E30.78461
G1 X90.942 Y80.97 E30.81412
G1 X90.762 Y81.525 E30.84322
G1 X90.7 Y82.114 E30.87277
G1 X90.7 Y102.896 E31.90959
G1 X90.762 Y103.486 E31.93919
G1 X90.942 Y104.041 E31.9683
G1 X91.238 Y104.553 E31.9978
G1 X91.628 Y104.985 E32.02684
G1 X92.1 Y105.328 E32.05595
G1 X92.641 Y105.569 E32.0855
G1 X93.203 Y105.689 E32.11417
G1 X124.797 Y105.689 E33.6904
G0 F7500 X124.992 Y105.648
G1 F2700 E27.1904
G0 F7500 X125.306 Y105.045
G0 X125.968 Y104.536
G0 X127.058 Y105.516
G0 X127.467 Y105.062
G0 X127.851 Y104.397
G0 X128.088 Y103.667
G0 X128.13 Y103.256
G0 X128.165 Y94.081
G0 X124.537 Y93.467
G1 F2700 E33.6904
G1 F1500 X124.283 Y93.089 E33.71312
G1 X124.284 Y91.917 E33.77159
G1 X124.53 Y91.566 E33.79297
G1 X124.657 Y91.513 E33.79984
G1 X124.959 Y91.593 E33.81542
G1 X125.052 Y91.655 E33.821
G1 X125.1 Y91.785 E33.82791
G1 X125.097 Y93.263 E33.90165
G1 X125.052 Y93.358 E33.9069
G1 X124.959 Y93.42 E33.91247
G1 X124.657 Y93.5 E33.92806
G1 X124.537 Y93.467 E33.93427
G0 F7500 X124.426 Y93.301
G1 F2700 E27.43427
G0 F7500 X124.012 Y93.587
G0 X124.631 Y94.081
G0 X128.165 Y94.081
G0 X128.164 Y102.94
G0 X128.088 Y103.667
G0 X127.851 Y104.397
G0 X127.541 Y104.935
G0 X127.058 Y105.516
G0 X124.719 Y104.929
;TYPE:SKIN
G1 F2700 E33.93427
G1 F1500 X93.281 Y104.929 E35.50272
G1 X92.881 Y104.842 E35.52314
G1 X92.478 Y104.663 E35.54514
G1 X92.142 Y104.419 E35.56586
G1 X91.859 Y104.107 E35.58687
G1 X91.639 Y103.727 E35.60878
G1 X91.509 Y103.326 E35.62981
G1 X91.46 Y102.858 E35.65329
G1 X91.461 Y82.154 E36.68621
G1 X91.511 Y81.686 E36.70969
G1 X91.642 Y81.28 E36.73098
G1 X91.856 Y80.909 E36.75234
G1 X92.142 Y80.592 E36.77365
G1 X92.478 Y80.348 E36.79436
G1 X92.881 Y80.169 E36.81636
G1 X93.281 Y80.083 E36.83677
G1 X124.721 Y80.084 E38.40532
G1 X125.116 Y80.168 E38.42547
G1 X125.522 Y80.348 E38.44763
G1 X125.858 Y80.592 E38.46834
G1 X126.144 Y80.908 E38.48961
G1 X126.359 Y81.279 E38.511
G1 X126.491 Y81.686 E38.53235
G1 X126.54 Y82.152 E38.55572
G1 X126.54 Y91.065 E39.00039
G1 F1376.1 X126.504 Y91.604 E39.02977
G1 F1185.8 X126.47 Y91.796 E39.04208
G1 F1107 X126.468 Y93.43 E39.15254
G1 F1162.8 X126.496 Y93.58 E39.16236
G1 F1351.4 X126.54 Y94.004 E39.18596
G1 F1500 X126.54 Y102.856 E39.62759
G1 X126.489 Y103.326 E39.65118
G1 X126.358 Y103.732 E39.67246
G1 X126.144 Y104.102 E39.69379
G1 X125.858 Y104.419 E39.71509
G1 X125.522 Y104.663 E39.7358
G1 X125.119 Y104.842 E39.7578
G1 X124.719 Y104.929 E39.77823
G1 F2700 E33.27823
G0 F7500 X125.306 Y105.045
G0 X125.968 Y104.536
G0 X127.058 Y105.516
G0 X127.467 Y105.062
G0 X127.851 Y104.397
G0 X128.088 Y103.667
G0 X128.13 Y103.256
G0 X128.165 Y94.081
G0 X124.619 Y94.263
G1 F2700 E39.77823
G1 F1500 X124.957 Y94.218 E39.79524
G1 X125.202 Y94.142 E39.80804
G1 F1435.4 X125.623 Y93.863 E39.83437
G1 F1321.6 X125.928 Y93.365 E39.86743
G1 F1273.9 X125.93 Y91.821 E39.95814
G1 F1379.3 X125.662 Y91.221 E39.99379
G1 F1500 X125.584 Y91.123 E40.00004
G1 X125.179 Y90.864 E40.02402
G1 X124.923 Y90.788 E40.03735
G1 X124.621 Y90.75 E40.05253
G1 X124.358 Y90.806 E40.06595
G1 X124.092 Y90.941 E40.08083
G1 X123.939 Y91.084 E40.09128
G1 X123.584 Y91.599 E40.12248
G1 X123.523 Y91.908 E40.1382
G1 X123.525 Y93.178 E40.20156
G1 X123.615 Y93.459 E40.21628
G1 X123.968 Y93.972 E40.24735
G1 X124.215 Y94.147 E40.26245
G1 X124.619 Y94.263 E40.28342
G1 F2700 E33.78342
G0 F7500 X124.104 Y93.72
G0 X124.042 Y93.163
G0 X124.043 Y91.848
G0 X124.629 Y90.932
G0 X128.165 Y90.932
G0 X128.164 Y82.07
G0 X128.088 Y81.344
G0 X127.851 Y80.614
G0 X127.541 Y80.076
G0 X127.057 Y79.494
G0 X125.046 Y80.357
G1 F2700 E40.28342
G1 F1500 X126.234 Y81.544 E40.3672
G0 F7500 X126.339 Y82.216
G1 F1500 X124.407 Y80.284 E40.50352
G0 F7500 X123.841 Y80.284
G1 F1500 X126.339 Y82.781 E40.67973
G0 F7500 X126.339 Y83.347
G1 F1500 X123.276 Y80.284 E40.89584
G0 F7500 X122.71 Y80.284
G1 F1500 X126.339 Y83.913 E41.15189
G0 F7500 X126.339 Y84.478
G1 F1500 X122.144 Y80.284 E41.44783
G0 F7500 X121.579 Y80.284
G1 F1500 X126.339 Y85.044 E41.78367
G0 F7500 X126.339 Y85.61
G1 F1500 X121.013 Y80.284 E42.15945
G0 F7500 X120.447 Y80.284
G1 F1500 X126.339 Y86.175 E42.57513
G0 F7500 X126.339 Y86.741
G1 F1500 X119.882 Y80.284 E43.03071
G0 F7500 X119.316 Y80.284
G1 F1500 X126.339 Y87.307 E43.52622
G0 F7500 X126.339 Y87.872
G1 F1500 X118.75 Y80.284 E44.06163
G0 F7500 X118.185 Y80.284
G1 F1500 X126.339 Y88.438 E44.63693
G0 F7500 X126.339 Y89.004
G1 F1500 X117.619 Y80.284 E45.25218
G0 F7500 X117.053 Y80.284
G1 F1500 X126.339 Y89.569 E45.90732
G0 F7500 X126.339 Y90.135
G1 F1500 X116.488 Y80.284 E46.60236
G0 F7500 X115.922 Y80.284
G1 F1500 X126.339 Y90.701 E47.33734
G0 F7500 X126.316 Y91.243
G1 F1500 X115.356 Y80.284 E48.11059
G0 F7500 X114.791 Y80.284
G1 F1500 X125.155 Y90.648 E48.84182
G0 F7500 X124.51 Y90.569
G1 F1500 X114.225 Y80.284 E49.56749
G0 F7500 X113.659 Y80.284
G1 F1500 X124.092 Y90.717 E50.30359
G0 F7500 X123.776 Y90.967
G1 F1500 X113.093 Y80.284 E51.05733
G0 F7500 X112.528 Y80.284
G1 F1500 X123.545 Y91.301 E51.83464
G0 F7500 X123.365 Y91.687
G1 F1500 X111.962 Y80.284 E52.63919
G0 F7500 X111.396 Y80.284
G1 F1500 X123.321 Y92.208 E53.48052
G0 F7500 X123.321 Y92.774
G1 F1500 X110.831 Y80.284 E54.36176
G0 F7500 X110.265 Y80.284
G1 F1500 X123.389 Y93.408 E55.28773
G0 F7500 X123.899 Y93.422
G0 X124.104 Y93.72
G0 X124.383 Y94.402
G1 F1500 X126.339 Y96.358 E55.42574
G0 F7500 X126.339 Y96.923
G1 F1500 X109.699 Y80.284 E56.59974
G0 F7500 X109.134 Y80.284
G1 F1500 X126.339 Y97.489 E57.81365
G0 F7500 X126.339 Y98.055
G1 F1500 X108.568 Y80.284 E59.06749
G0 F7500 X108.002 Y80.284
G1 F1500 X126.339 Y98.62 E60.36123
G0 F7500 X126.339 Y99.186
G1 F1500 X107.437 Y80.284 E61.69487
G0 F7500 X106.871 Y80.284
G1 F1500 X126.339 Y99.752 E63.06844
G0 F7500 X126.339 Y100.317
G1 F1500 X106.305 Y80.284 E64.48191
G0 F7500 X105.74 Y80.284
G1 F1500 X126.339 Y100.883 E65.93528
G0 F7500 X126.339 Y101.449
G1 F1500 X105.174 Y80.284 E67.42859
G0 F7500 X104.608 Y80.284
G1 F1500 X126.339 Y102.015 E68.96183
G0 F7500 X126.339 Y102.58
G1 F1500 X104.042 Y80.284 E70.53496
G0 F7500 X103.477 Y80.284
G1 F1500 X126.309 Y103.116 E72.14589
G0 F7500 X126.199 Y103.572
G1 F1500 X102.911 Y80.284 E73.78898
G0 F7500 X102.345 Y80.284
G1 F1500 X126.004 Y103.942 E75.45821
G0 F7500 X125.743 Y104.247
G1 F1500 X101.78 Y80.284 E77.14893
G0 F7500 X101.214 Y80.284
G1 F1500 X125.418 Y104.488 E78.85666
G0 F7500 X125.022 Y104.658
G1 F1500 X100.648 Y80.284 E80.57637
G0 F7500 X100.083 Y80.284
G1 F1500 X124.527 Y104.728 E82.30103
G0 F7500 X123.962 Y104.728
G1 F1500 X99.517 Y80.284 E84.02572
G0 F7500 X98.951 Y80.284
G1 F1500 X123.396 Y104.728 E85.75041
G0 F7500 X122.83 Y104.728
G1 F1500 X98.386 Y80.284 E87.47507
G0 F7500 X97.82 Y80.284
G1 F1500 X122.265 Y104.728 E89.19976
G0 F7500 X121.699 Y104.728
G1 F1500 X97.254 Y80.284 E90.92445
G0 F7500 X96.689 Y80.284
G1 F1500 X121.133 Y104.728 E92.64911
G0 F7500 X120.568 Y104.728
G1 F1500 X96.123 Y80.284 E94.3738
G0 F7500 X95.557 Y80.284
G1 F1500 X120.002 Y104.728 E96.09849
G0 F7500 X119.436 Y104.728
G1 F1500 X94.992 Y80.284 E97.82315
G0 F7500 X94.426 Y80.284
G1 F1500 X118.871 Y104.728 E99.54784
G0 F7500 X118.305 Y104.728
G1 F1500 X93.86 Y80.284 E101.27253
G0 F7500 X93.295 Y80.284
G1 F1500 X117.739 Y104.728 E102.99719
G0 F7500 X117.173 Y104.728
