;FLAVOR:Marlin
;TIME:8909
;Filament used: 6.32726m
;Layer height: 0.2
;MINX:83.9
;MINY:74.522
;MINZ:0.3
;MAXX:136.1
;MAXY:145.478
;MAXZ:40.9
;Generated with Cura_SteamEngine 5.4.0
M140 S60
M105
M190 S60
M104 S195
M105
M109 S195
M82 ;absolute extrusion mode
G28 ;Home
G1 Z15.0 F2000 ;Move the platform
G92 E0
G92 E0
G1 F2700 E-6.5
;LAYER_COUNT:204
;LAYER:0
M107
M204 S1000
G0 F7500 X85.753 Y76.555 Z0.3
;TYPE:SKIRT
G1 F2700 E0
G1 F1500 X86.299 Y76.046 E0.03724
G1 X86.785 Y75.679 E0.06762
G1 X87.42 Y75.295 E0.10465
G1 X88.028 Y75.011 E0.13813
G1 X88.706 Y74.777 E0.17391
G1 X89.316 Y74.635 E0.20516
G1 X90.064 Y74.543 E0.24276
G1 X91.17 Y74.522 E0.29794
G1 X127.158 Y74.522 E2.09339
G1 X127.838 Y74.533 E2.12732
G1 X128.434 Y74.596 E2.15722
G1 X129.051 Y74.715 E2.18857
G1 X129.763 Y74.931 E2.22569
G1 X130.337 Y75.172 E2.25675
G1 X131.012 Y75.545 E2.29523
G1 X131.562 Y75.933 E2.32881
G1 X132.062 Y76.368 E2.36187
G1 X132.541 Y76.882 E2.39692
G1 X132.939 Y77.409 E2.42987
G1 X133.295 Y77.997 E2.46416
G1 X133.596 Y78.64 E2.49958
G1 X133.826 Y79.308 E2.53483
G1 X133.983 Y79.99 E2.56975
G1 X134.075 Y80.771 E2.60898
G1 X134.097 Y81.163 E2.62857
G1 X134.1 Y94.502 E3.29405
G1 X134.14 Y97.282 E3.43276
G1 X134.255 Y99.999 E3.56844
G1 X134.448 Y102.723 E3.70468
G1 X134.715 Y105.417 E3.83974
G1 X135.063 Y108.14 E3.9767
G1 X135.486 Y110.827 E4.1124
G1 X135.924 Y113.267 E4.23608
G1 X136.045 Y114.251 E4.28554
G1 X136.085 Y114.687 E4.30738
G1 X136.098 Y114.995 E4.32276
G1 X136.1 Y136.25 E5.38318
G1 X136.089 Y136.971 E5.41916
G1 X136.029 Y137.756 E5.45843
G1 X135.959 Y138.341 E5.48783
G1 X135.835 Y138.927 E5.51771
G1 X135.5 Y140.012 E5.57436
G1 X135.232 Y140.615 E5.60728
G1 X134.795 Y141.402 E5.65219
G1 X134.635 Y141.667 E5.66764
G1 X134.286 Y142.147 E5.69725
G1 X133.712 Y142.809 E5.74096
G1 X133.498 Y143.039 E5.75663
G1 X133.046 Y143.447 E5.78701
G1 X132.416 Y143.923 E5.82641
G1 X132.083 Y144.158 E5.84674
G1 X131.538 Y144.47 E5.87807
G1 X130.594 Y144.903 E5.92988
G1 X129.948 Y145.125 E5.96396
G1 X128.806 Y145.388 E6.02243
G1 X128.152 Y145.456 E6.05523
G1 X127.031 Y145.478 E6.11117
G1 X92.633 Y145.478 E7.82729
G1 X91.956 Y145.467 E7.86107
G1 X91.365 Y145.405 E7.89072
G1 X90.56 Y145.25 E7.93162
G1 X90.176 Y145.163 E7.95126
G1 X89.606 Y144.978 E7.98116
G1 X88.806 Y144.638 E8.02453
G1 X88.505 Y144.498 E8.04109
G1 X87.977 Y144.194 E8.07149
G1 X87.363 Y143.763 E8.10891
G1 X87.02 Y143.505 E8.13033
G1 X86.582 Y143.111 E8.15972
G1 X86.038 Y142.53 E8.19943
G1 X85.76 Y142.212 E8.2205
G1 X85.416 Y141.739 E8.24968
G1 X84.955 Y140.972 E8.29432
G1 X84.812 Y140.714 E8.30904
G1 X84.569 Y140.167 E8.3389
G1 X84.278 Y139.323 E8.38344
G1 X84.189 Y139.032 E8.39862
G1 X84.062 Y138.437 E8.42898
G1 X83.954 Y137.551 E8.47351
G1 X83.912 Y137.021 E8.50003
G1 X83.902 Y136.667 E8.5177
G1 X83.9 Y115.561 E9.57068
G1 X83.91 Y114.844 E9.60646
G1 X83.961 Y113.632 E9.66698
G1 X84.001 Y112.915 E9.70281
G1 X84.078 Y110.167 E9.83996
G1 X84.076 Y107.459 E9.97506
G1 X83.996 Y104.677 E10.11391
G1 X83.904 Y102.723 E10.21151
G1 X83.9 Y81.76 E11.25735
G1 X83.911 Y81.042 E11.29318
G1 X83.935 Y80.629 E11.31382
G1 X83.992 Y80.118 E11.33947
G1 X84.125 Y79.482 E11.37189
G1 X84.301 Y78.906 E11.40194
G1 X84.575 Y78.255 E11.43717
G1 X84.928 Y77.615 E11.47364
G1 X85.342 Y77.027 E11.50952
G1 X85.753 Y76.555 E11.54074
G0 F7500 X86.055 Y76.818
G1 F1500 X86.54 Y76.365 E11.57385
G1 X87.026 Y75.998 E11.60423
G1 X87.59 Y75.657 E11.63711
G1 X88.159 Y75.389 E11.66849
G1 X88.797 Y75.167 E11.70219
G1 X89.407 Y75.025 E11.73344
G1 X90.072 Y74.943 E11.76687
G1 X91.178 Y74.922 E11.82206
G1 X127.152 Y74.922 E13.61681
G1 X127.797 Y74.931 E13.64899
G1 X128.358 Y74.989 E13.67713
G1 X128.975 Y75.108 E13.70848
G1 X129.608 Y75.3 E13.74148
G1 X130.182 Y75.541 E13.77254
G1 X130.782 Y75.872 E13.80673
G1 X131.299 Y76.235 E13.83824
G1 X131.799 Y76.67 E13.87131
G1 X132.222 Y77.123 E13.90223
G1 X132.62 Y77.65 E13.93517
G1 X132.933 Y78.167 E13.96533
G1 X133.218 Y78.772 E13.99869
G1 X133.436 Y79.398 E14.03176
G1 X133.593 Y80.08 E14.06668
G1 X133.676 Y80.794 E14.10254
G1 X133.697 Y81.163 E14.12098
G1 X133.7 Y94.502 E14.78646
G1 X133.74 Y97.299 E14.92602
G1 X133.855 Y100.016 E15.06169
G1 X134.05 Y102.762 E15.19904
G1 X134.318 Y105.468 E15.3347
G1 X134.666 Y108.191 E15.47166
G1 X135.092 Y110.898 E15.60837
G1 X135.527 Y113.316 E15.73094
G1 X135.647 Y114.287 E15.77975
G1 X135.685 Y114.705 E15.80069
G1 X135.698 Y114.995 E15.81518
G1 X135.7 Y136.244 E16.87529
G1 X135.69 Y136.941 E16.91007
G1 X135.632 Y137.709 E16.9485
G1 X135.567 Y138.259 E16.97613
G1 X135.452 Y138.81 E17.00421
G1 X135.134 Y139.85 E17.05847
G1 X134.882 Y140.421 E17.0896
G1 X134.452 Y141.197 E17.13386
G1 X134.311 Y141.433 E17.14758
G1 X133.984 Y141.885 E17.17541
G1 X133.418 Y142.538 E17.21853
G1 X133.229 Y142.743 E17.23244
G1 X132.805 Y143.128 E17.26101
G1 X132.184 Y143.597 E17.29983
G1 X131.883 Y143.811 E17.31826
G1 X131.371 Y144.106 E17.34774
G1 X130.427 Y144.539 E17.39955
G1 X129.819 Y144.746 E17.4316
G1 X128.764 Y144.99 E17.48562
G1 X128.144 Y145.056 E17.51673
G1 X127.023 Y145.078 E17.57267
G1 X92.639 Y145.078 E19.28809
G1 X91.997 Y145.069 E19.32012
G1 X91.44 Y145.012 E19.34806
G1 X90.647 Y144.86 E19.38834
G1 X90.298 Y144.782 E19.40618
G1 X89.762 Y144.61 E19.43427
G1 X88.973 Y144.275 E19.47703
G1 X88.704 Y144.151 E19.49181
G1 X88.207 Y143.866 E19.52039
G1 X87.602 Y143.442 E19.55725
G1 X87.287 Y143.207 E19.57686
G1 X86.874 Y142.837 E19.60452
G1 X86.338 Y142.266 E19.64359
G1 X86.083 Y141.976 E19.66286
G1 X85.759 Y141.533 E19.69024
G1 X85.304 Y140.777 E19.73426
G1 X85.177 Y140.55 E19.74724
G1 X84.947 Y140.037 E19.77529
G1 X84.66 Y139.204 E19.81924
G1 X84.58 Y138.947 E19.83267
G1 X84.459 Y138.389 E19.86116
G1 X84.353 Y137.519 E19.90488
G1 X84.312 Y137.009 E19.93041
G1 X84.302 Y136.667 E19.94748
G1 X84.3 Y115.567 E21.00016
G1 X84.31 Y114.861 E21.03539
G1 X84.36 Y113.654 E21.09566
G1 X84.401 Y112.926 E21.13203
G1 X84.478 Y110.178 E21.26919
G1 X84.476 Y107.459 E21.40484
G1 X84.396 Y104.666 E21.54424
G1 X84.304 Y102.723 E21.64128
G1 X84.3 Y81.766 E22.68683
G1 X84.31 Y81.065 E22.72181
G1 X84.333 Y80.673 E22.7414
G1 X84.39 Y80.162 E22.76705
G1 X84.508 Y79.599 E22.79575
G1 X84.684 Y79.023 E22.8258
G1 X84.943 Y78.411 E22.85895
G1 X85.256 Y77.844 E22.89126
G1 X85.644 Y77.29 E22.92501
G1 X86.055 Y76.818 E22.95623
G1 F2700 E16.45623
;MESH:Box.stl
G0 F7500 X127.884 Y77.458
G0 X128.633 Y77.616
G0 X129.334 Y77.929
G0 X129.954 Y78.38
G0 X130.467 Y78.949
G0 X130.851 Y79.614
G0 X131.088 Y80.344
G0 X131.13 Y80.754
G0 X131.165 Y90.644
G0 X128.357 Y93.118
;TYPE:WALL-INNER
G1 F2700 E22.95623
G1 F1500 X128.077 Y93.302 E22.97295
G1 X127.669 Y93.401 E22.99389
G1 X127.43 Y93.352 E23.00607
G1 X127.207 Y93.187 E23.01991
G1 X126.956 Y92.82 E23.04209
G1 X126.884 Y92.602 E23.05354
G1 X126.882 Y91.446 E23.11121
G1 X126.957 Y91.19 E23.12452
G1 X127.208 Y90.826 E23.14658
G1 X127.429 Y90.661 E23.16034
G1 X127.669 Y90.612 E23.17256
G1 X128.077 Y90.711 E23.19351
G1 X128.357 Y90.895 E23.21022
G1 X128.5 Y91.285 E23.23095
G1 X128.5 Y92.815 E23.30728
G1 X128.357 Y93.118 E23.324
G1 F2700 E16.824
G0 F7500 X128.6 Y92.746
G0 X128.308 Y93.369
G0 X131.165 Y93.369
G0 X131.164 Y102.94
G0 X131.088 Y103.667
G0 X130.851 Y104.397
G0 X130.541 Y104.935
G0 X130.058 Y105.516
G0 X127.755 Y105.289
G1 F2700 E23.324
G1 F1500 X128.235 Y105.187 E23.34848
G1 X128.699 Y104.98 E23.37383
G1 X129.103 Y104.686 E23.39875
G1 X129.437 Y104.316 E23.42362
G1 X129.69 Y103.877 E23.4489
G1 X129.844 Y103.402 E23.47381
G1 X129.9 Y102.875 E23.50025
G1 X129.9 Y81.135 E24.58487
G1 X129.844 Y80.609 E24.61126
G1 X129.69 Y80.134 E24.63617
G1 X129.437 Y79.695 E24.66145
G1 X129.103 Y79.325 E24.68632
G1 X128.699 Y79.031 E24.71124
G1 X128.235 Y78.824 E24.73659
G1 X127.755 Y78.723 E24.76106
G1 X90.245 Y78.722 E26.63244
G1 X89.765 Y78.824 E26.65693
G1 X89.301 Y79.031 E26.68227
G1 X88.897 Y79.325 E26.7072
G1 X88.564 Y79.695 E26.73204
G1 X88.31 Y80.134 E26.75734
G1 X88.156 Y80.609 E26.78225
G1 X88.1 Y81.135 E26.80864
G1 X88.1 Y102.875 E27.89326
G1 X88.156 Y103.402 E27.9197
G1 X88.31 Y103.877 E27.94461
G1 X88.564 Y104.316 E27.96991
G1 X88.897 Y104.686 E27.99475
G1 X89.301 Y104.98 E28.01967
G1 X89.765 Y105.187 E28.04502
G1 X90.245 Y105.289 E28.0695
G1 X127.755 Y105.289 E29.94089
G0 F7500 X127.797 Y105.689
;TYPE:WALL-OUTER
G1 F1500 X128.359 Y105.569 E29.96956
G1 X128.9 Y105.328 E29.9991
G1 X129.372 Y104.985 E30.02821
G1 X129.762 Y104.553 E30.05725
G1 X130.058 Y104.041 E30.08675
G1 X130.238 Y103.486 E30.11586
G1 X130.3 Y102.896 E30.14546
G1 X130.3 Y81.114 E31.23217
G1 X130.238 Y80.525 E31.26172
G1 X130.058 Y79.97 E31.29083
G1 X129.762 Y79.458 E31.32033
G1 X129.372 Y79.026 E31.34937
G1 X128.9 Y78.683 E31.37848
G1 X128.359 Y78.442 E31.40802
G1 X127.797 Y78.323 E31.43668
G1 X90.203 Y78.322 E33.31226
G1 X89.641 Y78.442 E33.34093
G1 X89.1 Y78.683 E33.37047
G1 X88.628 Y79.026 E33.39958
G1 X88.238 Y79.458 E33.42862
G1 X87.942 Y79.97 E33.45812
G1 X87.762 Y80.525 E33.48723
G1 X87.7 Y81.114 E33.51678
G1 X87.7 Y102.896 E34.60349
G1 X87.762 Y103.486 E34.63309
G1 X87.942 Y104.041 E34.6622
G1 X88.238 Y104.553 E34.6917
G1 X88.628 Y104.985 E34.72074
G1 X89.1 Y105.328 E34.74985
G1 X89.641 Y105.569 E34.77939
G1 X90.203 Y105.689 E34.80806
G1 X127.797 Y105.689 E36.68364
G0 F7500 X127.992 Y105.648
G1 F2700 E30.18364
G0 F7500 X128.306 Y105.045
G0 X128.968 Y104.536
G0 X130.058 Y105.516
G0 X130.467 Y105.062
G0 X130.851 Y104.397
G0 X131.088 Y103.667
G0 X131.13 Y103.256
G0 X131.165 Y93.369
G0 X128.032 Y92.9
G1 F2700 E36.68364
G1 F1500 X127.668 Y93.001 E36.70248
G1 X127.501 Y92.914 E36.71188
G1 X127.283 Y92.593 E36.73124
G1 X127.282 Y91.421 E36.78971
G1 X127.525 Y91.065 E36.81121
G1 X127.668 Y91.012 E36.81882
G1 X127.959 Y91.093 E36.83389
G1 X128.052 Y91.155 E36.83947
G1 X128.1 Y91.285 E36.84638
G1 X128.097 Y92.763 E36.92012
G1 X128.032 Y92.9 E36.92768
G0 F7500 X127.839 Y92.953
G1 F2700 E30.42768
G0 F7500 X127.383 Y93.266
G0 X127.669 Y93.582
G0 X131.165 Y93.582
G0 X131.164 Y102.94
G0 X131.088 Y103.667
G0 X130.851 Y104.397
G0 X130.541 Y104.935
G0 X130.058 Y105.516
G0 X127.719 Y104.929
;TYPE:SKIN
G1 F2700 E36.92768
G1 F1500 X90.281 Y104.929 E38.79547
G1 X89.881 Y104.842 E38.8159
G1 X89.478 Y104.663 E38.8379
G1 X89.142 Y104.419 E38.85861
G1 X88.859 Y104.107 E38.87963
G1 X88.639 Y103.727 E38.90153
G1 X88.509 Y103.326 E38.92256
G1 X88.46 Y102.858 E38.94604
G1 X88.461 Y81.154 E40.02886
G1 X88.511 Y80.686 E40.05234
G1 X88.642 Y80.28 E40.07362
G1 X88.856 Y79.909 E40.09499
G1 X89.142 Y79.592 E40.11629
G1 X89.478 Y79.348 E40.13701
G1 X89.881 Y79.169 E40.15901
G1 X90.281 Y79.083 E40.17942
G1 X127.721 Y79.084 E42.04731
G1 X128.116 Y79.168 E42.06746
G1 X128.522 Y79.348 E42.08961
G1 X128.858 Y79.592 E42.11033
G1 X129.144 Y79.908 E42.13159
G1 X129.359 Y80.279 E42.15299
G1 X129.491 Y80.686 E42.17433
G1 X129.54 Y81.152 E42.19771
G1 X129.54 Y90.565 E42.66733
G1 F1376.1 X129.504 Y91.102 E42.69659
G1 F1185.8 X129.47 Y91.294 E42.7089
G1 F1107 X129.468 Y92.93 E42.8195
G1 F1162.8 X129.496 Y93.08 E42.82932
G1 F1351.4 X129.54 Y93.504 E42.85292
G1 F1500 X129.54 Y102.856 E43.3195
G1 X129.489 Y103.326 E43.34308
G1 X129.358 Y103.732 E43.36437
G1 X129.144 Y104.102 E43.38569
G1 X128.858 Y104.419 E43.40699
G1 X128.522 Y104.663 E43.42771
G1 X128.119 Y104.842 E43.44971
G1 X127.719 Y104.929 E43.47013
G1 F2700 E36.97013
G0 F7500 X128.306 Y105.045
G0 X128.968 Y104.536
G0 X130.058 Y105.516
G0 X130.467 Y105.062
G0 X130.851 Y104.397
G0 X131.088 Y103.667
G0 X131.13 Y103.256
G0 X131.165 Y93.369
G0 X128.93 Y91.294
G1 F2700 E43.47013
G1 F1185.8 X128.882 Y91.212 E43.47613
G1 F1376.1 X128.664 Y90.72 E43.50539
G1 F1500 X128.585 Y90.622 E43.51167
G1 X128.203 Y90.371 E43.53447
G1 X127.67 Y90.247 E43.56178
G1 X127.279 Y90.334 E43.58176
G1 X126.933 Y90.594 E43.60335
G1 X126.585 Y91.106 E43.63424
G1 X126.523 Y91.408 E43.64962
G1 X126.522 Y92.601 E43.70914
G1 X126.587 Y92.917 E43.72523
G1 X126.933 Y93.424 E43.75586
G1 X127.166 Y93.621 E43.77108
G1 X127.42 Y93.725 E43.78477
G1 X127.676 Y93.763 E43.79768
G1 X128.202 Y93.642 E43.82461
G1 F1435.4 X128.622 Y93.365 E43.85084
G1 F1321.6 X128.928 Y92.865 E43.88404
G1 F1185.8 X128.93 Y91.294 E43.98318
G1 F2700 E37.48318
G0 F7500 X128.6 Y91.294
G0 X128.308 Y90.644
G0 X131.165 Y90.644
G0 X131.164 Y81.07
G0 X131.088 Y80.344
G0 X130.851 Y79.614
G0 X130.541 Y79.076
G0 X130.057 Y78.494
G0 X127.996 Y79.347
G1 F2700 E43.98318
G1 F1500 X129.253 Y80.604 E44.07187
G0 F7500 X129.339 Y81.256
G1 F1500 X127.366 Y79.283 E44.21108
G0 F7500 X126.801 Y79.283
G1 F1500 X129.339 Y81.822 E44.39018
G0 F7500 X129.339 Y82.387
G1 F1500 X126.235 Y79.283 E44.60919
G0 F7500 X125.669 Y79.283
G1 F1500 X129.339 Y82.953 E44.86813
G0 F7500 X129.339 Y83.519
G1 F1500 X125.104 Y79.283 E45.16696
G0 F7500 X124.538 Y79.283
G1 F1500 X129.339 Y84.084 E45.5057
G0 F7500 X129.339 Y84.65
G1 F1500 X123.972 Y79.283 E45.88437
G0 F7500 X123.407 Y79.283
G1 F1500 X129.339 Y85.216 E46.30294
G0 F7500 X129.339 Y85.781
G1 F1500 X122.841 Y79.283 E46.76141
G0 F7500 X122.275 Y79.283
G1 F1500 X129.339 Y86.347 E47.25981
G0 F7500 X129.339 Y86.913
G1 F1500 X121.71 Y79.283 E47.79811
G0 F7500 X121.144 Y79.283
G1 F1500 X129.339 Y87.479 E48.37635
G0 F7500 X129.339 Y88.044
G1 F1500 X120.578 Y79.283 E48.99449
G0 F7500 X120.012 Y79.283
G1 F1500 X129.339 Y88.61 E49.65256
G0 F7500 X129.339 Y89.176
G1 F1500 X119.447 Y79.283 E50.35053
G0 F7500 X118.881 Y79.283
G1 F1500 X129.339 Y89.741 E51.0884
G0 F7500 X129.339 Y90.307
G1 F1500 X118.315 Y79.283 E51.8662
G0 F7500 X117.75 Y79.283
G1 F1500 X129.303 Y90.837 E52.68136
G0 F7500 X128.6 Y91.382
G0 X128.308 Y90.644
G0 X128.024 Y90.123
G1 F1500 X117.184 Y79.283 E53.44618
G0 F7500 X116.618 Y79.283
G1 F1500 X127.427 Y90.092 E54.20881
G0 F7500 X127.035 Y90.265
G1 F1500 X116.053 Y79.283 E54.98365
G0 F7500 X115.487 Y79.283
G1 F1500 X126.734 Y90.53 E55.77719
G0 F7500 X126.503 Y90.865
G1 F1500 X114.921 Y79.283 E56.59436
G0 F7500 X114.356 Y79.283
G1 F1500 X126.348 Y91.276 E57.4405
G0 F7500 X126.321 Y91.814
G1 F1500 X113.79 Y79.283 E58.32463
G0 F7500 X113.224 Y79.283
G1 F1500 X126.321 Y92.379 E59.24866
G0 F7500 X126.451 Y93.075
G1 F1500 X112.659 Y79.283 E60.22176
G0 F7500 X112.093 Y79.283
G1 F1500 X129.339 Y96.529 E61.43855
G0 F7500 X129.339 Y97.094
G1 F1500 X111.527 Y79.283 E62.69525
G0 F7500 X110.962 Y79.283
G1 F1500 X129.339 Y97.66 E63.99185
G0 F7500 X129.339 Y98.226
G1 F1500 X110.396 Y79.283 E65.32838
G0 F7500 X109.83 Y79.283
G1 F1500 X129.339 Y98.792 E66.70485
G0 F7500 X129.339 Y99.357
G1 F1500 X109.264 Y79.283 E68.12121
G0 F7500 X108.699 Y79.283
G1 F1500 X129.339 Y99.923 E69.57747
G0 F7500 X129.339 Y100.489
G1 F1500 X108.133 Y79.283 E71.07367
G0 F7500 X107.567 Y79.283
G1 F1500 X129.339 Y101.054 E72.60977
G0 F7500 X129.339 Y101.62
G1 F1500 X107.002 Y79.283 E74.18576
G0 F7500 X106.436 Y79.283
G1 F1500 X129.339 Y102.186 E75.80169
G0 F7500 X129.339 Y102.751
G1 F1500 X105.87 Y79.283 E77.45752
G0 F7500 X105.305 Y79.283
G1 F1500 X129.293 Y103.271 E79.15001
G0 F7500 X129.148 Y103.692
G1 F1500 X104.739 Y79.283 E80.87219
G0 F7500 X104.173 Y79.283
G1 F1500 X128.93 Y104.04 E82.61893
G0 F7500 X128.647 Y104.322
G1 F1500 X103.608 Y79.283 E84.38557
G0 F7500 X103.042 Y79.283
G1 F1500 X128.3 Y104.542 E86.16769
G0 F7500 X127.881 Y104.688
G1 F1500 X102.476 Y79.283 E87.96015
G0 F7500 X101.911 Y79.283
G1 F1500 X127.355 Y104.728 E89.7554
G0 F7500 X126.789 Y104.728
G1 F1500 X101.345 Y79.283 E91.55065
G0 F7500 X100.779 Y79.283
G1 F1500 X126.224 Y104.728 E93.34593
G0 F7500 X125.658 Y104.728
G1 F1500 X100.214 Y79.283 E95.14118
G0 F7500 X99.648 Y79.283
G1 F1500 X125.092 Y104.728 E96.93642
G0 F7500 X124.527 Y104.728
G1 F1500 X99.082 Y79.283 E98.73171
G0 F7500 X98.516 Y79.283
G1 F1500 X123.961 Y104.728 E100.52699
G0 F7500 X123.395 Y104.728
G1 F1500 X97.951 Y79.283 E102.32223
G0 F7500 X97.385 Y79.283
G1 F1500 X122.83 Y104.728 E104.11752
G0 F7500 X122.264 Y104.728
G1 F1500 X96.819 Y79.283 E105.9128
G0 F7500 X96.254 Y79.283
G1 F1500 X121.698 Y104.728 E107.70805
G0 F7500 X121.133 Y104.728
G1 F1500 X95.688 Y79.283 E109.50333
G0 F7500 X95.122 Y79.283
G1 F1500 X120.567 Y104.728 E111.29861
G0 F7500 X120.001 Y104.728
