;FLAVOR:Marlin
;TIME:9515
;Filament used: 6.8413m
;Layer height: 0.15
;MINX:82.4
;MINY:74.508
;MINZ:0.3
;MAXX:137.6
;MAXY:145.492
;MAXZ:44.25
;Generated with Cura_SteamEngine 5.4.0
M140 S60
M105
M190 S60
M104 S195
M105
M109 S195
M82 ;absolute extrusion mode
G28 ;Home
G1 Z15.0 F2000 ;Move the platform
G92 E0
G92 E0
G1 F2700 E-6.5
;LAYER_COUNT:294
;LAYER:0
M107
M204 S1000
G0 F7500 X85.773 Y76.519 Z0.3
;TYPE:SKIRT
G1 F2700 E0
G1 F1500 X86.268 Y76.058 E0.03375
G1 X86.836 Y75.632 E0.06917
G1 X87.398 Y75.294 E0.10189
G1 X88.04 Y74.993 E0.13726
G1 X88.717 Y74.761 E0.17297
G1 X89.312 Y74.623 E0.20344
G1 X90.051 Y74.531 E0.24059
G1 X91.178 Y74.508 E0.29683
G1 X127.158 Y74.508 E2.09188
G1 X127.835 Y74.519 E2.12566
G1 X128.423 Y74.58 E2.15515
G1 X129.079 Y74.707 E2.18849
G1 X129.729 Y74.904 E2.22237
G1 X130.388 Y75.183 E2.25808
G1 X131.012 Y75.531 E2.29372
G1 X131.52 Y75.887 E2.32467
G1 X132.047 Y76.342 E2.35941
G1 X132.531 Y76.856 E2.39463
G1 X132.943 Y77.399 E2.42863
G1 X133.308 Y78.006 E2.46397
G1 X133.589 Y78.609 E2.49716
G1 X133.825 Y79.292 E2.53321
G1 X133.979 Y79.959 E2.56737
G1 X134.067 Y80.686 E2.6039
G1 X134.089 Y81.024 E2.6208
G1 X134.1 Y81.619 E2.65049
G1 X134.1 Y83.642 E2.75142
G1 X134.14 Y86.422 E2.89013
G1 X134.255 Y89.139 E3.0258
G1 X134.448 Y91.863 E3.16204
G1 X134.715 Y94.557 E3.2971
G1 X135.063 Y97.28 E3.43406
G1 X135.484 Y99.959 E3.56935
G1 X135.985 Y102.656 E3.70621
G1 X136.548 Y105.274 E3.83981
G1 X137.244 Y108.105 E3.98525
G1 X137.482 Y109.026 E4.03271
G1 X137.589 Y109.783 E4.07085
G1 X137.599 Y110.125 E4.08792
G1 X137.6 Y141.201 E5.63831
G1 X137.591 Y141.928 E5.67459
G1 X137.533 Y142.525 E5.70451
G1 X137.387 Y143.075 E5.7329
G1 X137.157 Y143.594 E5.76122
G1 X136.848 Y144.072 E5.78962
G1 X136.467 Y144.495 E5.81802
G1 X136.026 Y144.852 E5.84633
G1 X135.532 Y145.136 E5.87476
G1 X135.001 Y145.337 E5.90308
G1 X134.455 Y145.453 E5.93093
G1 X134.092 Y145.482 E5.9491
G1 X133.76 Y145.491 E5.96567
G1 X86.661 Y145.492 E8.31545
G1 X85.963 Y145.483 E8.35027
G1 X85.365 Y145.424 E8.38025
G1 X84.815 Y145.278 E8.40864
G1 X84.295 Y145.047 E8.43703
G1 X83.819 Y144.739 E8.46531
G1 X83.396 Y144.358 E8.49372
G1 X83.039 Y143.915 E8.5221
G1 X82.756 Y143.423 E8.55042
G1 X82.554 Y142.891 E8.57881
G1 X82.439 Y142.345 E8.60665
G1 X82.41 Y141.98 E8.62491
G1 X82.401 Y141.636 E8.64208
G1 X82.4 Y110.543 E10.19332
G1 X82.411 Y109.833 E10.22874
G1 X82.455 Y109.332 E10.25384
G1 X82.628 Y108.226 E10.30968
G1 X82.74 Y107.574 E10.34269
G1 X83.119 Y104.907 E10.47708
G1 X83.432 Y102.141 E10.61596
G1 X83.66 Y99.476 E10.7494
G1 X83.812 Y96.751 E10.88557
G1 X83.9 Y92.655 E11.08996
G1 X83.9 Y81.741 E11.63446
G1 X83.911 Y81.028 E11.67004
G1 X83.929 Y80.724 E11.68523
G1 X83.996 Y80.103 E11.7164
G1 X84.127 Y79.463 E11.74899
G1 X84.304 Y78.883 E11.77924
G1 X84.578 Y78.233 E11.81443
G1 X84.923 Y77.607 E11.85009
G1 X85.309 Y77.054 E11.88374
G1 X85.773 Y76.519 E11.91907
G0 F7500 X86.046 Y76.812
G1 F1500 X86.541 Y76.351 E11.95282
G1 X87.042 Y75.975 E11.98407
G1 X87.604 Y75.637 E12.01679
G1 X88.171 Y75.371 E12.04803
G1 X88.807 Y75.151 E12.08161
G1 X89.402 Y75.013 E12.11208
G1 X90.059 Y74.931 E12.14511
G1 X91.186 Y74.908 E12.20135
G1 X127.152 Y74.908 E13.9957
G1 X127.795 Y74.917 E14.02778
G1 X128.348 Y74.973 E14.05551
G1 X128.963 Y75.09 E14.08675
G1 X129.613 Y75.287 E14.12063
G1 X130.194 Y75.533 E14.15211
G1 X130.782 Y75.859 E14.18565
G1 X131.29 Y76.215 E14.2166
G1 X131.785 Y76.644 E14.24928
G1 X132.212 Y77.098 E14.28037
G1 X132.624 Y77.641 E14.31438
G1 X132.945 Y78.175 E14.34546
G1 X133.226 Y78.778 E14.37865
G1 X133.435 Y79.382 E14.41054
G1 X133.589 Y80.049 E14.44469
G1 X133.668 Y80.712 E14.478
G1 X133.689 Y81.031 E14.49395
G1 X133.7 Y81.626 E14.52364
G1 X133.7 Y83.642 E14.62422
G1 X133.74 Y86.439 E14.76378
G1 X133.855 Y89.156 E14.89945
G1 X134.05 Y91.902 E15.0368
G1 X134.318 Y94.608 E15.17246
G1 X134.666 Y97.331 E15.30941
G1 X135.091 Y100.032 E15.44583
G1 X135.594 Y102.74 E15.58324
G1 X136.157 Y105.358 E15.71684
G1 X136.857 Y108.206 E15.86315
G1 X137.086 Y109.083 E15.90838
G1 X137.189 Y109.795 E15.94427
G1 X137.199 Y110.125 E15.96074
G1 X137.2 Y141.196 E17.51088
G1 X137.191 Y141.923 E17.54715
G1 X137.145 Y142.426 E17.57235
G1 X137.02 Y142.916 E17.59758
G1 X136.819 Y143.38 E17.62281
G1 X136.548 Y143.807 E17.64804
G1 X136.213 Y144.186 E17.67327
G1 X135.823 Y144.507 E17.69847
G1 X135.387 Y144.763 E17.7237
G1 X134.916 Y144.946 E17.74891
G1 X134.422 Y145.054 E17.77414
G1 X134.081 Y145.082 E17.79121
G1 X133.76 Y145.091 E17.80723
G1 X86.666 Y145.092 E20.15676
G1 X85.968 Y145.083 E20.19158
G1 X85.464 Y145.036 E20.21684
G1 X84.974 Y144.911 E20.24206
G1 X84.51 Y144.71 E20.26729
G1 X84.084 Y144.439 E20.29248
G1 X83.705 Y144.104 E20.31772
G1 X83.384 Y143.713 E20.34296
G1 X83.129 Y143.277 E20.36816
G1 X82.945 Y142.806 E20.39338
G1 X82.838 Y142.312 E20.4186
G1 X82.81 Y141.969 E20.43577
G1 X82.801 Y141.636 E20.45239
G1 X82.8 Y110.549 E22.00333
G1 X82.811 Y109.839 E22.03875
G1 X82.85 Y109.394 E22.06104
G1 X83.022 Y108.294 E22.11659
G1 X83.134 Y107.642 E22.14959
G1 X83.515 Y104.963 E22.28459
G1 X83.831 Y102.175 E22.42458
G1 X84.058 Y99.51 E22.55801
G1 X84.212 Y96.76 E22.69543
G1 X84.3 Y92.664 E22.89982
G1 X84.3 Y81.747 E23.44448
G1 X84.31 Y81.052 E23.47915
G1 X84.327 Y80.766 E23.49345
G1 X84.388 Y80.182 E23.52274
G1 X84.51 Y79.58 E23.55339
G1 X84.687 Y79 E23.58364
G1 X84.946 Y78.389 E23.61675
G1 X85.251 Y77.836 E23.64826
G1 X85.637 Y77.283 E23.6819
G1 X86.046 Y76.812 E23.71302
G1 F2700 E17.21302
;MESH:Box.stl
G0 F7500 X94.689 Y120.65
G0 X94.726 Y120.8
;TYPE:WALL-OUTER
G1 F2700 E23.71302
G1 F1485.1 X94.43 Y120.858 E23.72822
G1 X94.141 Y120.887 E23.74286
G1 F1488.8 X93.845 Y120.885 E23.75774
G1 X93.566 Y120.857 E23.77183
G1 F1492.5 X93.255 Y120.794 E23.78774
G1 F1488.8 X92.983 Y120.712 E23.80202
G1 X92.71 Y120.599 E23.81687
G1 X92.38 Y120.418 E23.83579
G1 F1496.3 X92.13 Y120.236 E23.85126
G1 X91.887 Y120.018 E23.86758
G1 F1488.8 X91.685 Y119.796 E23.88267
G1 F1485.1 X91.478 Y119.519 E23.90009
G1 X91.296 Y119.18 E23.91948
G1 F1488.8 X91.15 Y118.831 E23.9385
G1 F1496.3 X91.057 Y118.475 E23.9569
G1 F1492.5 X91.019 Y118.203 E23.97067
G1 X91 Y117.897 E23.98604
G1 F1500 X91.017 Y117.582 E24.00178
G1 F1496.3 X91.055 Y117.325 E24.01477
G1 X91.15 Y116.953 E24.03398
G1 F1492.5 X91.287 Y116.62 E24.05203
G1 F1485.1 X91.471 Y116.277 E24.07165
G1 X91.652 Y116.027 E24.0872
G1 F1492.5 X91.881 Y115.771 E24.10442
G1 F1507.5 X92.097 Y115.571 E24.11903
G1 F1511.3 X92.341 Y115.395 E24.13393
G1 F1496.3 X92.554 Y115.264 E24.14644
G1 F1492.5 X92.85 Y115.124 E24.16285
G1 X93.149 Y115.017 E24.17878
G1 X93.411 Y114.954 E24.19229
G1 X93.703 Y114.907 E24.20712
G1 F1496.3 X94 Y114.895 E24.22198
G1 F1503.8 X94.387 Y114.911 E24.24126
G1 F1500 X94.827 Y115.009 E24.26375
G1 F1481.5 X95.226 Y115.151 E24.28514
G1 F1488.8 X95.624 Y115.368 E24.30793
G1 F1496.3 X95.915 Y115.584 E24.32605
G1 X96.113 Y115.766 E24.3395
G1 F1492.5 X96.322 Y115.994 E24.35501
G1 F1496.3 X96.483 Y116.207 E24.36837
G1 X96.687 Y116.552 E24.38841
G1 X96.811 Y116.845 E24.40432
G1 X96.932 Y117.242 E24.42508
G1 F1485.1 X96.981 Y117.572 E24.44189
G1 F1496.3 X97 Y117.859 E24.45628
G1 F1503.8 X96.984 Y118.194 E24.47297
G1 F1492.5 X96.944 Y118.464 E24.48665
G1 X96.85 Y118.831 E24.50565
G1 F1503.8 X96.715 Y119.165 E24.52358
G1 F1496.3 X96.53 Y119.507 E24.54303
G1 F1485.1 X96.328 Y119.781 E24.56018
G1 F1488.8 X96.118 Y120.013 E24.57591
G1 F1503.8 X95.895 Y120.216 E24.59091
G1 F1507.5 X95.666 Y120.387 E24.6051
G1 F1488.8 X95.347 Y120.572 E24.62364
G1 F1481.5 X95.009 Y120.713 E24.64214
G1 F1485.1 X94.726 Y120.8 E24.65706
G0 F7500 X94.917 Y120.742
G0 X95.032 Y120.283
G1 F1530.6 X95.554 Y119.989 E24.68635
G1 F1526.7 X95.926 Y119.639 E24.71138
G1 F1522.8 X96.286 Y119.162 E24.74075
G1 X96.49 Y118.64 E24.76829
G1 F1515.2 X96.573 Y118.27 E24.78702
G1 F1511.3 X96.601 Y117.878 E24.80648
G1 F1503.8 X96.549 Y117.373 E24.83175
G1 F1500 X96.453 Y117.029 E24.84956
G1 F1522.8 X96.239 Y116.55 E24.87535
G1 F1526.7 X95.925 Y116.146 E24.90043
G1 F1507.5 X95.651 Y115.884 E24.91925
G1 X95.323 Y115.653 E24.93916
G1 F1511.3 X94.975 Y115.481 E24.95838
G1 F1488.8 X94.714 Y115.399 E24.97213
G1 F1500 X94.353 Y115.304 E24.99076
G1 F1515.2 X93.722 Y115.306 E25.02192
G1 F1503.8 X93.226 Y115.41 E25.04714
G1 X92.757 Y115.607 E25.07246
G1 F1515.2 X92.338 Y115.881 E25.09719
G1 F1511.3 X91.983 Y116.251 E25.12258
G1 F1500 X91.706 Y116.667 E25.14751
G1 F1507.5 X91.508 Y117.15 E25.17342
G1 F1503.8 X91.427 Y117.511 E25.19183
G1 X91.4 Y117.89 E25.21074
G1 F1500 X91.446 Y118.387 E25.23564
G1 X91.556 Y118.779 E25.25596
G1 X91.763 Y119.218 E25.28017
G1 F1503.8 X92.074 Y119.638 E25.30618
G1 X92.349 Y119.9 E25.32508
G1 X92.677 Y120.13 E25.34502
G1 F1500 X93.015 Y120.298 E25.36385
G1 F1503.8 X93.499 Y120.444 E25.38901
G1 X94.036 Y120.491 E25.41583
G1 X94.519 Y120.439 E25.44001
G1 F1515.2 X95.032 Y120.283 E25.46649
G0 F7500 X94.841 Y120.341
G1 F2700 E18.96649
G0 F7500 X94.889 Y120.491
G0 X102.934 Y120.523
G0 X103.102 Y120.257
G1 F2700 E25.46649
G1 F1522.8 X103.548 Y119.98 E25.49229
G1 F1511.3 X103.928 Y119.636 E25.51767
G1 F1522.8 X104.285 Y119.162 E25.54683
G1 X104.49 Y118.64 E25.57439
G1 F1515.2 X104.573 Y118.27 E25.59312
G1 F1511.3 X104.601 Y117.878 E25.61258
G1 F1503.8 X104.549 Y117.373 E25.63785
G1 F1500 X104.446 Y117.008 E25.65677
G1 F1522.8 X104.238 Y116.547 E25.68162
G1 X103.936 Y116.157 E25.70586
G1 F1519 X103.458 Y115.726 E25.73757
G1 F1526.7 X102.955 Y115.468 E25.76528
G1 F1522.8 X102.372 Y115.308 E25.79499
G1 F1519 X101.722 Y115.306 E25.82701
G1 F1503.8 X101.226 Y115.41 E25.85223
G1 X100.757 Y115.607 E25.87755
G1 F1515.2 X100.328 Y115.888 E25.90288
G1 X99.912 Y116.341 E25.93326
G1 F1507.5 X99.708 Y116.665 E25.95226
G1 F1503.8 X99.509 Y117.144 E25.97807
G1 F1500 X99.427 Y117.511 E25.99684
G1 F1503.8 X99.4 Y117.89 E26.01574
G1 F1500 X99.446 Y118.387 E26.04065
G1 X99.556 Y118.779 E26.06096
G1 X99.763 Y119.218 E26.08517
G1 F1503.8 X100.074 Y119.638 E26.11118
G1 X100.366 Y119.915 E26.13121
G1 X100.67 Y120.125 E26.1496
G1 X101.015 Y120.298 E26.1688
G1 X101.521 Y120.447 E26.19506
G1 F1507.5 X102.036 Y120.491 E26.22071
G1 F1503.8 X102.518 Y120.439 E26.24484
G1 F1519 X103.102 Y120.257 E26.27498
G0 F7500 X102.911 Y120.316
G0 X102.141 Y120.887
G1 F1488.8 X101.836 Y120.885 E26.29031
G1 X101.567 Y120.857 E26.3039
G1 F1492.5 X101.255 Y120.794 E26.31986
G1 F1488.8 X100.983 Y120.712 E26.33414
G1 F1485.1 X100.643 Y120.569 E26.35273
G1 F1488.8 X100.32 Y120.375 E26.37166
G1 F1500 X100.087 Y120.201 E26.38617
G1 X99.888 Y120.018 E26.39966
G1 F1488.8 X99.685 Y119.796 E26.41478
G1 F1485.1 X99.478 Y119.519 E26.43221
G1 X99.296 Y119.18 E26.45159
G1 F1488.8 X99.15 Y118.831 E26.47061
G1 F1496.3 X99.057 Y118.475 E26.48901
G1 F1492.5 X99.019 Y118.203 E26.50278
G1 X99 Y117.897 E26.51815
G1 F1500 X99.017 Y117.582 E26.53389
G1 F1496.3 X99.055 Y117.325 E26.54689
G1 X99.15 Y116.953 E26.56609
G1 F1492.5 X99.287 Y116.62 E26.58414
G1 F1485.1 X99.47 Y116.277 E26.60373
G1 X99.678 Y115.995 E26.62139
G1 F1488.8 X99.881 Y115.771 E26.63659
G1 F1507.5 X100.067 Y115.596 E26.64926
G1 F1511.3 X100.341 Y115.394 E26.66612
G1 F1500 X100.577 Y115.251 E26.67989
G1 F1492.5 X100.849 Y115.124 E26.69494
G1 X101.149 Y115.017 E26.71091
G1 X101.411 Y114.954 E26.72442
G1 X101.703 Y114.907 E26.73925
G1 F1496.3 X102.001 Y114.895 E26.75416
G1 F1500 X102.317 Y114.908 E26.76994
G1 F1507.5 X102.582 Y114.949 E26.78325
G1 F1492.5 X102.89 Y115.03 E26.79922
G1 F1488.8 X103.226 Y115.151 E26.81717
G1 F1503.8 X103.625 Y115.364 E26.83968
G1 X103.905 Y115.579 E26.85725
G1 F1488.8 X104.113 Y115.766 E26.87131
G1 X104.316 Y115.987 E26.88639
G1 F1500 X104.483 Y116.207 E26.90017
G1 X104.686 Y116.551 E26.9201
G1 F1496.3 X104.811 Y116.846 E26.93612
G1 X104.932 Y117.242 E26.95683
G1 F1485.1 X104.981 Y117.572 E26.97364
G1 F1496.3 X105 Y117.859 E26.98803
G1 F1503.8 X104.984 Y118.194 E27.00472
G1 F1492.5 X104.944 Y118.464 E27.01841
G1 X104.85 Y118.831 E27.0374
G1 F1503.8 X104.715 Y119.165 E27.05533
G1 F1496.3 X104.53 Y119.507 E27.07478
G1 F1485.1 X104.328 Y119.781 E27.09193
G1 X104.111 Y120.02 E27.1082
G1 F1488.8 X103.893 Y120.214 E27.12286
G1 X103.665 Y120.385 E27.13719
G1 F1496.3 X103.349 Y120.576 E27.15566
G1 X103.007 Y120.714 E27.1741
G1 F1485.1 X102.728 Y120.799 E27.1888
G1 X102.428 Y120.858 E27.2042
G1 X102.141 Y120.887 E27.21874
G0 F7500 X102.34 Y120.867
G1 F2700 E20.71874
G0 F7500 X102.923 Y121.645
G0 X109.794 Y121.751
G0 X110.141 Y120.887
G1 F2700 E27.21874
G1 F1488.8 X109.836 Y120.885 E27.23407
G1 X109.567 Y120.857 E27.24767
G1 F1492.5 X109.255 Y120.794 E27.26362
G1 F1488.8 X108.983 Y120.712 E27.2779
G1 X108.71 Y120.599 E27.29276
G1 F1492.5 X108.392 Y120.424 E27.31095
G1 F1496.3 X108.085 Y120.2 E27.32996
G1 X107.887 Y120.018 E27.34341
G1 F1485.1 X107.685 Y119.796 E27.35854
G1 X107.478 Y119.519 E27.37596
G1 X107.296 Y119.18 E27.39535
G1 F1488.8 X107.15 Y118.831 E27.41437
G1 F1496.3 X107.057 Y118.475 E27.43277
G1 F1492.5 X107.019 Y118.203 E27.44654
G1 X107 Y117.897 E27.46191
G1 F1500 X107.017 Y117.582 E27.47765
G1 F1496.3 X107.055 Y117.325 E27.49064
G1 X107.15 Y116.953 E27.50985
G1 F1492.5 X107.287 Y116.62 E27.5279
G1 F1485.1 X107.471 Y116.277 E27.54751
G1 X107.652 Y116.027 E27.56307
G1 F1492.5 X107.881 Y115.771 E27.58029
G1 F1507.5 X108.097 Y115.571 E27.5949
G1 F1511.3 X108.341 Y115.395 E27.6098
G1 F1496.3 X108.554 Y115.264 E27.6223
G1 F1492.5 X108.85 Y115.124 E27.63872
G1 X109.149 Y115.017 E27.65464
G1 X109.411 Y114.954 E27.66816
G1 X109.703 Y114.907 E27.68298
G1 F1496.3 X110.001 Y114.895 E27.6979
G1 F1500 X110.317 Y114.908 E27.71368
G1 F1507.5 X110.582 Y114.949 E27.72699
G1 F1492.5 X110.89 Y115.03 E27.74296
G1 F1488.8 X111.226 Y115.151 E27.76091
G1 F1503.8 X111.625 Y115.364 E27.78342
G1 X111.905 Y115.579 E27.80099
G1 F1488.8 X112.113 Y115.766 E27.81505
G1 X112.316 Y115.987 E27.83013
G1 F1500 X112.483 Y116.207 E27.84391
G1 F1496.3 X112.687 Y116.552 E27.86395
G1 X112.811 Y116.846 E27.87991
G1 X112.932 Y117.242 E27.90062
G1 F1485.1 X112.981 Y117.572 E27.91743
G1 F1496.3 X113 Y117.859 E27.93182
G1 F1503.8 X112.984 Y118.194 E27.94851
G1 F1492.5 X112.944 Y118.464 E27.9622
G1 X112.85 Y118.831 E27.98119
G1 F1503.8 X112.715 Y119.165 E27.99912
G1 F1496.3 X112.53 Y119.507 E28.01857
G1 F1485.1 X112.328 Y119.781 E28.03572
G1 X112.111 Y120.02 E28.05199
G1 F1488.8 X111.893 Y120.214 E28.06665
G1 X111.665 Y120.385 E28.08098
G1 F1496.3 X111.349 Y120.576 E28.09945
G1 X111.007 Y120.714 E28.11789
G1 F1485.1 X110.728 Y120.799 E28.13259
G1 X110.428 Y120.858 E28.14799
G1 X110.141 Y120.887 E28.16253
G0 F7500 X110.34 Y120.867
G0 X110.036 Y120.491
G1 F1503.8 X110.518 Y120.439 E28.18666
G1 F1519 X111.102 Y120.257 E28.21679
G1 F1522.8 X111.548 Y119.98 E28.24259
G1 F1511.3 X111.928 Y119.636 E28.26797
G1 F1522.8 X112.285 Y119.162 E28.29713
G1 X112.49 Y118.64 E28.32469
G1 F1515.2 X112.573 Y118.27 E28.34342
G1 F1511.3 X112.601 Y117.878 E28.36288
G1 F1503.8 X112.549 Y117.373 E28.38815
G1 F1500 X112.446 Y117.008 E28.40707
G1 F1519 X112.238 Y116.547 E28.43199
G1 F1522.8 X111.936 Y116.157 E28.45622
G1 F1519 X111.458 Y115.726 E28.48793
G1 F1526.7 X110.955 Y115.468 E28.51564
G1 F1522.8 X110.372 Y115.308 E28.54535
G1 F1519 X109.722 Y115.306 E28.57738
G1 F1503.8 X109.226 Y115.41 E28.6026
G1 X108.757 Y115.607 E28.62791
G1 F1515.2 X108.338 Y115.881 E28.65264
G1 F1511.3 X107.983 Y116.251 E28.67803
G1 F1500 X107.706 Y116.667 E28.70296
G1 F1503.8 X107.509 Y117.144 E28.72865
G1 F1500 X107.427 Y117.511 E28.74741
G1 F1503.8 X107.4 Y117.89 E28.76632
G1 F1500 X107.446 Y118.387 E28.79122
G1 X107.556 Y118.779 E28.81153
G1 X107.763 Y119.218 E28.83574
G1 F1503.8 X108.076 Y119.641 E28.86193
G1 X108.349 Y119.899 E28.88062
G1 F1500 X108.678 Y120.13 E28.90068
G1 X109.015 Y120.298 E28.91947
G1 F1503.8 X109.521 Y120.447 E28.94572
G1 F1507.5 X110.036 Y120.491 E28.97138
G0 F7500 X109.837 Y120.474
G1 F2700 E22.47138
G0 F7500 X109.824 Y120.635
G0 X110.138 Y128.731
G0 X110.141 Y128.887
G1 F2700 E28.97138
G1 F1485.1 X109.836 Y128.885 E28.98674
G1 F1488.8 X109.567 Y128.857 E29.00034
G1 F1496.3 X109.255 Y128.795 E29.01625
G1 X108.972 Y128.71 E29.03103
G1 F1485.1 X108.642 Y128.568 E29.04913
