;FLAVOR:Marlin
;TIME:9969
;Filament used: 7.16369m
;Layer height: 0.2
;MINX:76.439
;MINY:77.589
;MINZ:0.3
;MAXX:131.639
;MAXY:148.573
;MAXZ:44.1
;Generated with Cura_SteamEngine 5.4.0
M140 S60
M105
M190 S60
M104 S195
M105
M109 S195
M82 ;absolute extrusion mode
G28 ;Home
G1 Z15.0 F2000 ;Move the platform
G92 E0
G92 E0
G1 F2700 E-6.5
;LAYER_COUNT:220
;LAYER:0
M107
M204 S1000
G0 F7500 X79.773 Y79.639 Z0.3
;TYPE:SKIRT
G1 F2700 E0
G1 F1500 X80.323 Y79.125 E0.03756
G1 X80.864 Y78.719 E0.0713
G1 X81.439 Y78.372 E0.10481
G1 X82.074 Y78.075 E0.13978
G1 X82.696 Y77.86 E0.17262
G1 X83.39 Y77.697 E0.20818
G1 X84.103 Y77.61 E0.24402
G1 X85.209 Y77.589 E0.29921
G1 X121.195 Y77.589 E2.09455
G1 X121.879 Y77.6 E2.12868
G1 X122.478 Y77.663 E2.15873
G1 X123.088 Y77.781 E2.18973
G1 X123.799 Y77.997 E2.2268
G1 X124.416 Y78.259 E2.26025
G1 X125.011 Y78.588 E2.29417
G1 X125.563 Y78.972 E2.32771
G1 X126.098 Y79.433 E2.36295
G1 X126.574 Y79.942 E2.39772
G1 X127.002 Y80.511 E2.43324
G1 X127.328 Y81.052 E2.46475
G1 X127.646 Y81.733 E2.50225
G1 X127.863 Y82.367 E2.53568
G1 X128.016 Y83.033 E2.56977
G1 X128.105 Y83.765 E2.60656
G1 X128.128 Y84.105 E2.62356
G1 X128.139 Y84.7 E2.65325
G1 X128.139 Y86.723 E2.75418
G1 X128.179 Y89.503 E2.89289
G1 X128.294 Y92.22 E3.02856
G1 X128.487 Y94.944 E3.1648
G1 X128.754 Y97.638 E3.29986
G1 X129.102 Y100.361 E3.43682
G1 X129.523 Y103.04 E3.57212
G1 X130.024 Y105.737 E3.70897
G1 X130.587 Y108.355 E3.84257
G1 X131.283 Y111.186 E3.98802
G1 X131.521 Y112.107 E4.03547
G1 X131.628 Y112.864 E4.07362
G1 X131.638 Y113.206 E4.09069
G1 X131.639 Y144.282 E5.64107
G1 X131.63 Y145.009 E5.67735
G1 X131.572 Y145.606 E5.70727
G1 X131.426 Y146.156 E5.73566
G1 X131.196 Y146.675 E5.76398
G1 X130.887 Y147.153 E5.79238
G1 X130.506 Y147.576 E5.82078
G1 X130.065 Y147.933 E5.84909
G1 X129.571 Y148.217 E5.87752
G1 X129.04 Y148.418 E5.90584
G1 X128.494 Y148.534 E5.93369
G1 X128.131 Y148.563 E5.95186
G1 X127.799 Y148.572 E5.96843
G1 X80.7 Y148.573 E8.31821
G1 X80.002 Y148.564 E8.35303
G1 X79.404 Y148.505 E8.38301
G1 X78.854 Y148.359 E8.4114
G1 X78.334 Y148.128 E8.43979
G1 X77.858 Y147.82 E8.46808
G1 X77.435 Y147.439 E8.49648
G1 X77.078 Y146.996 E8.52486
G1 X76.795 Y146.504 E8.55318
G1 X76.593 Y145.972 E8.58157
G1 X76.478 Y145.426 E8.60941
G1 X76.449 Y145.061 E8.62767
G1 X76.44 Y144.717 E8.64484
G1 X76.439 Y113.624 E10.19608
G1 X76.45 Y112.914 E10.23151
G1 X76.494 Y112.413 E10.2566
G1 X76.667 Y111.307 E10.31245
G1 X76.779 Y110.655 E10.34545
G1 X77.158 Y107.988 E10.47984
G1 X77.471 Y105.222 E10.61872
G1 X77.699 Y102.557 E10.75217
G1 X77.851 Y99.832 E10.88833
G1 X77.939 Y95.736 E11.09272
G1 X77.939 Y84.828 E11.63693
G1 X77.95 Y84.113 E11.6726
G1 X77.974 Y83.7 E11.69324
G1 X78.036 Y83.157 E11.72051
G1 X78.162 Y82.563 E11.7508
G1 X78.357 Y81.929 E11.7839
G1 X78.616 Y81.314 E11.81719
G1 X78.966 Y80.68 E11.85332
G1 X79.35 Y80.13 E11.88678
G1 X79.773 Y79.639 E11.91912
G0 F7500 X80.075 Y79.901
G1 F1500 X80.564 Y79.444 E11.95251
G1 X81.071 Y79.061 E11.98421
G1 X81.646 Y78.714 E12.01771
G1 X82.205 Y78.453 E12.04849
G1 X82.827 Y78.238 E12.08133
G1 X83.44 Y78.094 E12.11274
G1 X84.111 Y78.01 E12.14648
G1 X85.217 Y77.989 E12.20167
G1 X121.189 Y77.989 E13.99632
G1 X121.838 Y77.998 E14.0287
G1 X122.402 Y78.056 E14.05699
G1 X123.012 Y78.174 E14.08798
G1 X123.644 Y78.366 E14.12094
G1 X124.222 Y78.609 E14.15222
G1 X124.817 Y78.938 E14.18614
G1 X125.334 Y79.3 E14.21763
G1 X125.836 Y79.735 E14.25077
G1 X126.255 Y80.183 E14.28137
G1 X126.659 Y80.717 E14.31478
G1 X126.985 Y81.258 E14.34629
G1 X127.268 Y81.864 E14.37966
G1 X127.473 Y82.457 E14.41096
G1 X127.626 Y83.123 E14.44505
G1 X127.706 Y83.792 E14.47867
G1 X127.728 Y84.112 E14.49467
G1 X127.739 Y84.707 E14.52436
G1 X127.739 Y86.723 E14.62494
G1 X127.779 Y89.52 E14.76449
G1 X127.894 Y92.237 E14.90017
G1 X128.089 Y94.983 E15.03751
G1 X128.357 Y97.689 E15.17317
G1 X128.705 Y100.412 E15.31013
G1 X129.13 Y103.113 E15.44654
G1 X129.633 Y105.821 E15.58395
G1 X130.196 Y108.439 E15.71755
G1 X130.896 Y111.287 E15.86387
G1 X131.125 Y112.164 E15.90909
G1 X131.228 Y112.876 E15.94498
G1 X131.238 Y113.206 E15.96145
G1 X131.239 Y144.277 E17.51159
G1 X131.23 Y145.004 E17.54786
G1 X131.184 Y145.507 E17.57306
G1 X131.059 Y145.997 E17.59829
G1 X130.858 Y146.461 E17.62352
G1 X130.587 Y146.888 E17.64875
G1 X130.252 Y147.267 E17.67399
G1 X129.862 Y147.588 E17.69919
G1 X129.426 Y147.844 E17.72441
G1 X128.955 Y148.027 E17.74962
G1 X128.461 Y148.135 E17.77485
G1 X128.12 Y148.163 E17.79192
G1 X127.799 Y148.172 E17.80794
G1 X80.705 Y148.173 E20.15747
G1 X80.007 Y148.164 E20.1923
G1 X79.503 Y148.117 E20.21755
G1 X79.013 Y147.992 E20.24278
G1 X78.549 Y147.791 E20.26801
G1 X78.123 Y147.52 E20.2932
G1 X77.744 Y147.185 E20.31843
G1 X77.423 Y146.794 E20.34367
G1 X77.168 Y146.358 E20.36887
G1 X76.984 Y145.887 E20.3941
G1 X76.877 Y145.393 E20.41932
G1 X76.849 Y145.05 E20.43648
G1 X76.84 Y144.717 E20.4531
G1 X76.839 Y113.63 E22.00404
G1 X76.85 Y112.92 E22.03947
G1 X76.889 Y112.475 E22.06175
G1 X77.061 Y111.375 E22.1173
G1 X77.173 Y110.723 E22.1503
G1 X77.554 Y108.044 E22.2853
G1 X77.87 Y105.256 E22.42529
G1 X78.097 Y102.591 E22.55873
G1 X78.251 Y99.841 E22.69614
G1 X78.339 Y95.745 E22.90054
G1 X78.339 Y84.834 E23.44489
G1 X78.349 Y84.136 E23.47972
G1 X78.372 Y83.744 E23.49931
G1 X78.428 Y83.239 E23.52466
G1 X78.545 Y82.679 E23.5532
G1 X78.726 Y82.084 E23.58423
G1 X78.985 Y81.469 E23.61752
G1 X79.294 Y80.909 E23.64943
G1 X79.678 Y80.359 E23.68289
G1 X80.075 Y79.901 E23.71313
G1 F2700 E17.21313
;MESH:Box.stl
G0 F7500 X88.525 Y123.778
G0 X88.542 Y123.933
;TYPE:WALL-OUTER
G1 F2700 E23.71313
G1 F1492.5 X88.178 Y123.968 E23.73147
G1 X87.884 Y123.967 E23.74621
G1 F1496.3 X87.604 Y123.94 E23.76028
G1 F1500 X87.216 Y123.86 E23.78004
G1 F1488.8 X86.889 Y123.739 E23.79757
G1 F1492.5 X86.615 Y123.612 E23.81271
G1 X86.367 Y123.458 E23.82735
G1 F1496.3 X86.133 Y123.288 E23.84181
G1 F1500 X85.925 Y123.098 E23.85587
G1 F1492.5 X85.724 Y122.879 E23.87077
G1 F1488.8 X85.496 Y122.568 E23.89016
G1 F1500 X85.294 Y122.198 E23.91119
G1 X85.169 Y121.837 E23.93025
G1 F1492.5 X85.069 Y121.452 E23.95019
G1 F1481.5 X85.038 Y121.052 E23.97046
G1 F1488.8 X85.055 Y120.663 E23.99003
G1 F1492.5 X85.096 Y120.405 E24.00313
G1 F1488.8 X85.162 Y120.125 E24.01759
G1 F1492.5 X85.291 Y119.759 E24.03704
G1 X85.462 Y119.44 E24.05519
G1 F1488.8 X85.678 Y119.121 E24.07456
G1 X85.946 Y118.825 E24.09463
G1 F1496.3 X86.139 Y118.657 E24.10743
G1 X86.388 Y118.468 E24.12306
G1 F1492.5 X86.624 Y118.33 E24.13677
G1 F1496.3 X86.884 Y118.203 E24.15124
G1 X87.245 Y118.077 E24.17036
G1 F1488.8 X87.608 Y118.004 E24.18897
G1 X87.889 Y117.979 E24.20315
G1 F1492.5 X88.194 Y117.977 E24.21845
G1 X88.482 Y118.009 E24.23298
G1 F1485.1 X88.861 Y118.086 E24.25246
G1 F1492.5 X89.193 Y118.205 E24.27015
G1 F1496.3 X89.454 Y118.33 E24.28462
G1 F1492.5 X89.719 Y118.489 E24.30012
G1 F1500 X89.953 Y118.663 E24.31466
G1 X90.153 Y118.847 E24.32822
G1 F1511.3 X90.365 Y119.072 E24.34353
G1 F1503.8 X90.571 Y119.361 E24.36119
G1 F1488.8 X90.751 Y119.69 E24.38004
G1 F1503.8 X90.859 Y119.946 E24.39387
G1 F1496.3 X90.946 Y120.235 E24.40897
G1 F1488.8 X91.007 Y120.548 E24.42499
G1 X91.034 Y120.83 E24.43923
G1 X91.034 Y121.122 E24.45391
G1 F1496.3 X91.012 Y121.372 E24.46646
G1 F1492.5 X90.947 Y121.701 E24.48328
G1 F1496.3 X90.861 Y121.994 E24.49855
G1 F1507.5 X90.762 Y122.232 E24.51135
G1 F1496.3 X90.609 Y122.513 E24.52735
G1 X90.464 Y122.737 E24.54069
G1 F1492.5 X90.21 Y123.044 E24.56067
G1 F1485.1 X89.933 Y123.295 E24.57951
G1 F1500 X89.707 Y123.465 E24.59362
G1 F1492.5 X89.445 Y123.618 E24.60883
G1 F1496.3 X89.188 Y123.744 E24.62314
G1 F1503.8 X88.904 Y123.845 E24.63815
G1 F1492.5 X88.542 Y123.933 E24.65682
G0 F7500 X88.736 Y123.886
G0 X88.943 Y123.421
G1 F1522.8 X89.477 Y123.138 E24.68652
G1 F1511.3 X89.792 Y122.893 E24.70628
G1 X90.122 Y122.53 E24.73058
G1 F1492.5 X90.257 Y122.313 E24.74339
G1 F1511.3 X90.453 Y121.969 E24.76299
G1 F1526.7 X90.611 Y121.363 E24.79369
G1 F1511.3 X90.639 Y120.949 E24.81424
G1 X90.59 Y120.468 E24.83818
G1 F1526.7 X90.447 Y119.966 E24.86376
G1 F1503.8 X90.224 Y119.574 E24.88621
G1 X90.059 Y119.319 E24.90132
G1 F1519 X89.693 Y118.966 E24.92637
G1 F1511.3 X89.369 Y118.739 E24.94596
G1 F1507.5 X89.015 Y118.563 E24.96559
G1 F1500 X88.655 Y118.447 E24.98446
G1 F1496.3 X88.146 Y118.375 E25.01017
G1 F1500 X87.637 Y118.404 E25.0356
G1 F1515.2 X87.133 Y118.525 E25.0612
G1 F1503.8 X86.824 Y118.682 E25.07845
G1 F1492.5 X86.575 Y118.822 E25.09278
G1 F1503.8 X86.212 Y119.123 E25.11624
G1 X85.875 Y119.529 E25.1425
G1 F1507.5 X85.694 Y119.849 E25.16075
G1 F1500 X85.548 Y120.223 E25.18078
G1 X85.453 Y120.701 E25.2051
G1 F1488.8 X85.447 Y121.047 E25.22249
G1 F1500 X85.454 Y121.335 E25.23686
G1 F1522.8 X85.623 Y121.962 E25.26877
G1 F1511.3 X85.886 Y122.43 E25.29536
G1 F1503.8 X86.1 Y122.705 E25.3127
G1 X86.403 Y122.994 E25.33354
G1 X86.831 Y123.275 E25.35902
G1 F1500 X87.314 Y123.47 E25.385
G1 X87.661 Y123.546 E25.40272
G1 F1503.8 X88.049 Y123.572 E25.42208
G1 F1500 X88.444 Y123.542 E25.44184
G1 F1519 X88.943 Y123.421 E25.46714
G0 F7500 X88.749 Y123.468
G1 F2700 E18.96714
G0 F7500 X88.782 Y123.619
G0 X88.525 Y131.778
G0 X88.542 Y131.933
G1 F2700 E25.46714
G1 F1492.5 X88.178 Y131.968 E25.48547
G1 X87.884 Y131.967 E25.50021
G1 F1496.3 X87.604 Y131.94 E25.51428
G1 F1500 X87.216 Y131.86 E25.53405
G1 F1488.8 X86.889 Y131.739 E25.55157
G1 F1492.5 X86.615 Y131.612 E25.56671
G1 X86.367 Y131.458 E25.58135
G1 F1496.3 X86.133 Y131.288 E25.59582
G1 F1500 X85.925 Y131.098 E25.60987
G1 F1492.5 X85.724 Y130.879 E25.62478
G1 F1488.8 X85.496 Y130.568 E25.64416
G1 F1500 X85.294 Y130.198 E25.66519
G1 X85.169 Y129.837 E25.68425
G1 F1492.5 X85.069 Y129.452 E25.70419
G1 F1481.5 X85.038 Y129.052 E25.72446
G1 F1488.8 X85.055 Y128.663 E25.74403
G1 F1492.5 X85.096 Y128.405 E25.75713
G1 F1488.8 X85.162 Y128.125 E25.77159
G1 F1492.5 X85.291 Y127.759 E25.79105
G1 X85.462 Y127.44 E25.8092
G1 F1488.8 X85.678 Y127.121 E25.82856
G1 X85.92 Y126.851 E25.84678
G1 F1492.5 X86.146 Y126.651 E25.86192
G1 X86.381 Y126.474 E25.87667
G1 X86.624 Y126.33 E25.89083
G1 X86.892 Y126.2 E25.90576
G1 F1488.8 X87.245 Y126.078 E25.92454
G1 F1485.1 X87.607 Y126.005 E25.94315
G1 F1496.3 X87.898 Y125.976 E25.95777
G1 F1500 X88.194 Y125.978 E25.97254
G1 F1511.3 X88.454 Y125.999 E25.98546
G1 F1500 X88.861 Y126.088 E26.00624
G1 F1492.5 X89.193 Y126.205 E26.02389
G1 F1500 X89.454 Y126.33 E26.03833
G1 F1492.5 X89.719 Y126.489 E26.05382
G1 F1500 X89.953 Y126.663 E26.06837
G1 X90.153 Y126.847 E26.08193
G1 F1511.3 X90.365 Y127.072 E26.09724
G1 F1503.8 X90.571 Y127.361 E26.1149
G1 F1488.8 X90.747 Y127.682 E26.1333
G1 F1500 X90.865 Y127.97 E26.14883
G1 F1496.3 X90.946 Y128.235 E26.16269
G1 F1488.8 X91.007 Y128.548 E26.17872
G1 X91.034 Y128.831 E26.19301
G1 X91.034 Y129.122 E26.20763
G1 F1496.3 X91.012 Y129.372 E26.22019
G1 F1492.5 X90.947 Y129.701 E26.237
G1 F1496.3 X90.861 Y129.994 E26.25227
G1 F1507.5 X90.762 Y130.232 E26.26507
G1 F1496.3 X90.609 Y130.513 E26.28107
G1 X90.464 Y130.737 E26.29442
G1 F1492.5 X90.21 Y131.044 E26.31439
G1 F1485.1 X89.933 Y131.295 E26.33323
G1 F1500 X89.707 Y131.465 E26.34734
G1 F1492.5 X89.445 Y131.618 E26.36255
G1 F1496.3 X89.188 Y131.744 E26.37687
G1 F1503.8 X88.904 Y131.845 E26.39187
G1 F1492.5 X88.542 Y131.933 E26.41055
G0 F7500 X88.736 Y131.886
G0 X88.943 Y131.421
G1 F1522.8 X89.477 Y131.138 E26.44025
G1 F1511.3 X89.792 Y130.893 E26.46001
G1 X90.122 Y130.53 E26.4843
G1 F1492.5 X90.257 Y130.313 E26.49711
G1 F1511.3 X90.453 Y129.969 E26.51672
G1 F1526.7 X90.611 Y129.363 E26.54741
G1 F1511.3 X90.639 Y128.949 E26.56796
G1 X90.59 Y128.468 E26.5919
G1 F1526.7 X90.446 Y127.967 E26.61745
G1 F1503.8 X90.224 Y127.574 E26.63991
G1 X90.059 Y127.319 E26.65503
G1 F1519 X89.693 Y126.966 E26.68008
G1 F1511.3 X89.369 Y126.739 E26.69967
G1 F1507.5 X89.014 Y126.562 E26.71936
G1 F1488.8 X88.748 Y126.478 E26.73338
G1 F1500 X88.413 Y126.389 E26.75068
G1 F1511.3 X87.911 Y126.376 E26.77554
G1 F1503.8 X87.52 Y126.425 E26.79515
G1 X87.025 Y126.577 E26.82092
G1 X86.579 Y126.821 E26.84622
G1 F1500 X86.209 Y127.126 E26.87014
G1 F1503.8 X85.875 Y127.529 E26.89619
G1 F1507.5 X85.694 Y127.849 E26.91444
G1 F1500 X85.548 Y128.223 E26.93447
G1 X85.453 Y128.701 E26.95879
G1 F1488.8 X85.447 Y129.047 E26.97618
G1 F1500 X85.454 Y129.335 E26.99055
G1 F1522.8 X85.623 Y129.962 E27.02246
G1 F1511.3 X85.886 Y130.43 E27.04905
G1 F1503.8 X86.1 Y130.705 E27.06639
G1 X86.403 Y130.994 E27.08723
G1 X86.831 Y131.275 E27.11271
G1 F1500 X87.314 Y131.47 E27.13869
G1 X87.661 Y131.546 E27.15641
G1 F1503.8 X88.049 Y131.572 E27.17577
G1 F1500 X88.444 Y131.542 E27.19553
G1 F1519 X88.943 Y131.421 E27.22083
G0 F7500 X88.749 Y131.468
G1 F2700 E20.72083
G0 F7500 X88.782 Y131.619
G0 X88.525 Y139.778
G0 X88.542 Y139.933
G1 F2700 E27.22083
G1 F1492.5 X88.178 Y139.968 E27.23916
G1 X87.884 Y139.967 E27.2539
G1 F1496.3 X87.604 Y139.94 E27.26797
G1 F1500 X87.216 Y139.86 E27.28774
G1 F1488.8 X86.889 Y139.739 E27.30526
G1 F1492.5 X86.615 Y139.612 E27.3204
G1 X86.367 Y139.458 E27.33504
G1 F1496.3 X86.133 Y139.288 E27.34951
G1 F1500 X85.925 Y139.098 E27.36356
G1 F1492.5 X85.724 Y138.879 E27.37847
G1 F1488.8 X85.496 Y138.568 E27.39785
G1 F1500 X85.294 Y138.198 E27.41888
G1 X85.169 Y137.837 E27.43794
G1 F1492.5 X85.069 Y137.452 E27.45788
G1 F1481.5 X85.038 Y137.052 E27.47815
G1 F1488.8 X85.055 Y136.663 E27.49772
G1 F1492.5 X85.096 Y136.405 E27.51082
G1 F1488.8 X85.162 Y136.125 E27.52528
G1 F1492.5 X85.291 Y135.759 E27.54474
G1 X85.462 Y135.44 E27.56289
G1 F1488.8 X85.678 Y135.121 E27.58225
G1 X85.92 Y134.851 E27.60047
G1 F1492.5 X86.146 Y134.651 E27.61561
G1 X86.381 Y134.474 E27.63036
G1 X86.624 Y134.33 E27.64452
G1 X86.892 Y134.2 E27.65945
G1 F1488.8 X87.245 Y134.078 E27.67823
G1 F1485.1 X87.607 Y134.005 E27.69684
G1 F1496.3 X87.898 Y133.976 E27.71146
G1 F1500 X88.194 Y133.978 E27.72623
G1 F1511.3 X88.454 Y133.999 E27.73915
G1 F1500 X88.861 Y134.088 E27.75993
G1 F1492.5 X89.193 Y134.205 E27.77758
G1 F1500 X89.454 Y134.33 E27.79202
G1 F1492.5 X89.719 Y134.489 E27.80751
G1 F1500 X89.953 Y134.663 E27.82206
G1 X90.153 Y134.847 E27.83562
G1 F1511.3 X90.365 Y135.072 E27.85093
G1 F1503.8 X90.571 Y135.361 E27.86859
G1 F1488.8 X90.747 Y135.682 E27.88699
G1 F1500 X90.865 Y135.97 E27.90252
G1 F1496.3 X90.946 Y136.235 E27.91638
G1 F1488.8 X91.007 Y136.548 E27.93241
G1 X91.034 Y136.831 E27.9467
G1 X91.034 Y137.122 E27.96132
G1 F1496.3 X91.012 Y137.372 E27.97388
G1 F1492.5 X90.947 Y137.701 E27.99069
G1 F1496.3 X90.861 Y137.994 E28.00596
G1 F1507.5 X90.762 Y138.232 E28.01876
G1 F1496.3 X90.609 Y138.513 E28.03476
G1 X90.464 Y138.737 E28.04811
G1 F1492.5 X90.21 Y139.044 E28.06808
G1 F1485.1 X89.933 Y139.295 E28.08692
G1 F1500 X89.707 Y139.465 E28.10103
G1 F1492.5 X89.445 Y139.618 E28.11624
G1 F1496.3 X89.188 Y139.744 E28.13056
G1 F1503.8 X88.904 Y139.845 E28.14556
G1 F1492.5 X88.542 Y139.933 E28.16424
G0 F7500 X88.736 Y139.886
G0 X88.943 Y139.421
G1 F1522.8 X89.477 Y139.138 E28.19394
G1 F1511.3 X89.792 Y138.893 E28.2137
G1 X90.122 Y138.53 E28.23799
G1 F1492.5 X90.257 Y138.313 E28.2508
G1 F1511.3 X90.453 Y137.969 E28.27041
G1 F1526.7 X90.611 Y137.363 E28.3011
G1 F1511.3 X90.639 Y136.949 E28.32165
G1 X90.59 Y136.468 E28.34559
G1 F1526.7 X90.446 Y135.967 E28.37114
G1 F1503.8 X90.224 Y135.574 E28.3936
G1 X90.059 Y135.319 E28.40872
G1 F1519 X89.693 Y134.966 E28.43377
G1 F1511.3 X89.369 Y134.739 E28.45336
G1 F1507.5 X89.014 Y134.562 E28.47305
G1 F1488.8 X88.748 Y134.478 E28.48707
G1 F1500 X88.413 Y134.389 E28.50437
G1 F1511.3 X87.911 Y134.376 E28.52923
G1 F1503.8 X87.52 Y134.425 E28.54884
G1 X87.025 Y134.577 E28.57461
G1 X86.579 Y134.821 E28.59991
G1 F1500 X86.209 Y135.126 E28.62383
G1 F1503.8 X85.875 Y135.529 E28.64988
G1 F1507.5 X85.694 Y135.849 E28.66813
G1 F1500 X85.548 Y136.223 E28.68816
G1 X85.453 Y136.701 E28.71248
G1 F1488.8 X85.447 Y137.047 E28.72987
G1 F1500 X85.454 Y137.335 E28.74424
G1 F1522.8 X85.623 Y137.962 E28.77615
G1 F1511.3 X85.886 Y138.43 E28.80274
G1 F1503.8 X86.1 Y138.705 E28.82008
G1 X86.403 Y138.994 E28.84092
G1 X86.831 Y139.275 E28.8664
G1 F1500 X87.314 Y139.47 E28.89238
