;FLAVOR:Marlin
;TIME:10176
;Filament used: 7.14398m
;Layer height: 0.2
;MINX:82.4
;MINY:74.508
;MINZ:0.3
;MAXX:137.6
;MAXY:145.492
;MAXZ:44.1
;Generated with Cura_SteamEngine 5.4.0
M140 S60
M105
M190 S60
M104 S195
M105
M109 S195
M82 ;absolute extrusion mode
G28 ;Home
G1 Z15.0 F2000 ;Move the platform
G92 E0
G92 E0
G1 F2700 E-6.5
;LAYER_COUNT:220
;LAYER:0
M107
M204 S1000
G0 F7500 X85.773 Y76.519 Z0.3
;TYPE:SKIRT
G1 F2700 E0
G1 F1500 X86.268 Y76.058 E0.03375
G1 X86.836 Y75.632 E0.06917
G1 X87.398 Y75.294 E0.10189
G1 X88.04 Y74.993 E0.13726
G1 X88.717 Y74.761 E0.17297
G1 X89.312 Y74.623 E0.20344
G1 X90.051 Y74.531 E0.24059
G1 X91.178 Y74.508 E0.29683
G1 X127.158 Y74.508 E2.09188
G1 X127.835 Y74.519 E2.12566
G1 X128.423 Y74.58 E2.15515
G1 X129.079 Y74.707 E2.18849
G1 X129.729 Y74.904 E2.22237
G1 X130.388 Y75.183 E2.25808
G1 X131.012 Y75.531 E2.29372
G1 X131.52 Y75.887 E2.32467
G1 X132.047 Y76.342 E2.35941
G1 X132.531 Y76.856 E2.39463
G1 X132.943 Y77.399 E2.42863
G1 X133.308 Y78.006 E2.46397
G1 X133.589 Y78.609 E2.49716
G1 X133.825 Y79.292 E2.53321
G1 X133.979 Y79.959 E2.56737
G1 X134.067 Y80.686 E2.6039
G1 X134.089 Y81.024 E2.6208
G1 X134.1 Y81.619 E2.65049
G1 X134.1 Y83.642 E2.75142
G1 X134.14 Y86.422 E2.89013
G1 X134.255 Y89.139 E3.0258
G1 X134.448 Y91.863 E3.16204
G1 X134.715 Y94.557 E3.2971
G1 X135.063 Y97.28 E3.43406
G1 X135.484 Y99.959 E3.56935
G1 X135.985 Y102.656 E3.70621
G1 X136.548 Y105.274 E3.83981
G1 X137.244 Y108.105 E3.98525
G1 X137.482 Y109.026 E4.03271
G1 X137.589 Y109.783 E4.07085
G1 X137.599 Y110.125 E4.08792
G1 X137.6 Y141.201 E5.63831
G1 X137.591 Y141.928 E5.67459
G1 X137.533 Y142.525 E5.70451
G1 X137.387 Y143.075 E5.7329
G1 X137.157 Y143.594 E5.76122
G1 X136.848 Y144.072 E5.78962
G1 X136.467 Y144.495 E5.81802
G1 X136.026 Y144.852 E5.84633
G1 X135.532 Y145.136 E5.87476
G1 X135.001 Y145.337 E5.90308
G1 X134.455 Y145.453 E5.93093
G1 X134.092 Y145.482 E5.9491
G1 X133.76 Y145.491 E5.96567
G1 X86.661 Y145.492 E8.31545
G1 X85.963 Y145.483 E8.35027
G1 X85.365 Y145.424 E8.38025
G1 X84.815 Y145.278 E8.40864
G1 X84.295 Y145.047 E8.43703
G1 X83.819 Y144.739 E8.46531
G1 X83.396 Y144.358 E8.49372
G1 X83.039 Y143.915 E8.5221
G1 X82.756 Y143.423 E8.55042
G1 X82.554 Y142.891 E8.57881
G1 X82.439 Y142.345 E8.60665
G1 X82.41 Y141.98 E8.62491
G1 X82.401 Y141.636 E8.64208
G1 X82.4 Y110.543 E10.19332
G1 X82.411 Y109.833 E10.22874
G1 X82.455 Y109.332 E10.25384
G1 X82.628 Y108.226 E10.30968
G1 X82.74 Y107.574 E10.34269
G1 X83.119 Y104.907 E10.47708
G1 X83.432 Y102.141 E10.61596
G1 X83.66 Y99.476 E10.7494
G1 X83.812 Y96.751 E10.88557
G1 X83.9 Y92.655 E11.08996
G1 X83.9 Y81.741 E11.63446
G1 X83.911 Y81.028 E11.67004
G1 X83.929 Y80.724 E11.68523
G1 X83.996 Y80.103 E11.7164
G1 X84.127 Y79.463 E11.74899
G1 X84.304 Y78.883 E11.77924
G1 X84.578 Y78.233 E11.81443
G1 X84.923 Y77.607 E11.85009
G1 X85.309 Y77.054 E11.88374
G1 X85.773 Y76.519 E11.91907
G0 F7500 X86.046 Y76.812
G1 F1500 X86.541 Y76.351 E11.95282
G1 X87.042 Y75.975 E11.98407
G1 X87.604 Y75.637 E12.01679
G1 X88.171 Y75.371 E12.04803
G1 X88.807 Y75.151 E12.08161
G1 X89.402 Y75.013 E12.11208
G1 X90.059 Y74.931 E12.14511
G1 X91.186 Y74.908 E12.20135
G1 X127.152 Y74.908 E13.9957
G1 X127.795 Y74.917 E14.02778
G1 X128.348 Y74.973 E14.05551
G1 X128.963 Y75.09 E14.08675
G1 X129.613 Y75.287 E14.12063
G1 X130.194 Y75.533 E14.15211
G1 X130.782 Y75.859 E14.18565
G1 X131.29 Y76.215 E14.2166
G1 X131.785 Y76.644 E14.24928
G1 X132.212 Y77.098 E14.28037
G1 X132.624 Y77.641 E14.31438
G1 X132.945 Y78.175 E14.34546
G1 X133.226 Y78.778 E14.37865
G1 X133.435 Y79.382 E14.41054
G1 X133.589 Y80.049 E14.44469
G1 X133.668 Y80.712 E14.478
G1 X133.689 Y81.031 E14.49395
G1 X133.7 Y81.626 E14.52364
G1 X133.7 Y83.642 E14.62422
G1 X133.74 Y86.439 E14.76378
G1 X133.855 Y89.156 E14.89945
G1 X134.05 Y91.902 E15.0368
G1 X134.318 Y94.608 E15.17246
G1 X134.666 Y97.331 E15.30941
G1 X135.091 Y100.032 E15.44583
G1 X135.594 Y102.74 E15.58324
G1 X136.157 Y105.358 E15.71684
G1 X136.857 Y108.206 E15.86315
G1 X137.086 Y109.083 E15.90838
G1 X137.189 Y109.795 E15.94427
G1 X137.199 Y110.125 E15.96074
G1 X137.2 Y141.196 E17.51088
G1 X137.191 Y141.923 E17.54715
G1 X137.145 Y142.426 E17.57235
G1 X137.02 Y142.916 E17.59758
G1 X136.819 Y143.38 E17.62281
G1 X136.548 Y143.807 E17.64804
G1 X136.213 Y144.186 E17.67327
G1 X135.823 Y144.507 E17.69847
G1 X135.387 Y144.763 E17.7237
G1 X134.916 Y144.946 E17.74891
G1 X134.422 Y145.054 E17.77414
G1 X134.081 Y145.082 E17.79121
G1 X133.76 Y145.091 E17.80723
G1 X86.666 Y145.092 E20.15676
G1 X85.968 Y145.083 E20.19158
G1 X85.464 Y145.036 E20.21684
G1 X84.974 Y144.911 E20.24206
G1 X84.51 Y144.71 E20.26729
G1 X84.084 Y144.439 E20.29248
G1 X83.705 Y144.104 E20.31772
G1 X83.384 Y143.713 E20.34296
G1 X83.129 Y143.277 E20.36816
G1 X82.945 Y142.806 E20.39338
G1 X82.838 Y142.312 E20.4186
G1 X82.81 Y141.969 E20.43577
G1 X82.801 Y141.636 E20.45239
G1 X82.8 Y110.549 E22.00333
G1 X82.811 Y109.839 E22.03875
G1 X82.85 Y109.394 E22.06104
G1 X83.022 Y108.294 E22.11659
G1 X83.134 Y107.642 E22.14959
G1 X83.515 Y104.963 E22.28459
G1 X83.831 Y102.175 E22.42458
G1 X84.058 Y99.51 E22.55801
G1 X84.212 Y96.76 E22.69543
G1 X84.3 Y92.664 E22.89982
G1 X84.3 Y81.747 E23.44448
G1 X84.31 Y81.052 E23.47915
G1 X84.327 Y80.766 E23.49345
G1 X84.388 Y80.182 E23.52274
G1 X84.51 Y79.58 E23.55339
G1 X84.687 Y79 E23.58364
G1 X84.946 Y78.389 E23.61675
G1 X85.251 Y77.836 E23.64826
G1 X85.637 Y77.283 E23.6819
G1 X86.046 Y76.812 E23.71302
G1 F2700 E17.21302
;MESH:Box.stl
G0 F7500 X94.689 Y120.65
G0 X94.726 Y120.8
;TYPE:WALL-OUTER
G1 F2700 E23.71302
G1 F1485.1 X94.43 Y120.858 E23.72822
G1 X94.141 Y120.887 E23.74286
G1 F1488.8 X93.845 Y120.885 E23.75774
G1 X93.566 Y120.857 E23.77183
G1 F1492.5 X93.255 Y120.794 E23.78774
G1 F1488.8 X92.983 Y120.712 E23.80202
G1 X92.71 Y120.599 E23.81687
G1 X92.38 Y120.418 E23.83579
G1 F1496.3 X92.13 Y120.236 E23.85126
G1 X91.887 Y120.018 E23.86758
G1 F1488.8 X91.685 Y119.796 E23.88267
G1 F1485.1 X91.478 Y119.519 E23.90009
G1 X91.296 Y119.18 E23.91948
G1 F1488.8 X91.15 Y118.831 E23.9385
G1 F1496.3 X91.057 Y118.475 E23.9569
G1 X91.019 Y118.203 E23.97064
G1 X91 Y117.901 E23.98577
G1 F1500 X91.017 Y117.582 E24.00171
G1 F1496.3 X91.055 Y117.325 E24.0147
G1 X91.15 Y116.953 E24.0339
G1 F1492.5 X91.287 Y116.62 E24.05196
G1 F1485.1 X91.471 Y116.277 E24.07157
G1 X91.652 Y116.027 E24.08712
G1 F1492.5 X91.881 Y115.771 E24.10435
G1 F1507.5 X92.097 Y115.571 E24.11896
G1 F1511.3 X92.341 Y115.395 E24.13386
G1 F1496.3 X92.554 Y115.264 E24.14636
G1 F1492.5 X92.85 Y115.124 E24.16278
G1 X93.149 Y115.017 E24.1787
G1 X93.411 Y114.954 E24.19221
G1 X93.703 Y114.907 E24.20704
G1 F1496.3 X94 Y114.895 E24.22191
G1 F1503.8 X94.387 Y114.911 E24.24119
G1 F1500 X94.827 Y115.009 E24.26368
G1 F1481.5 X95.226 Y115.151 E24.28507
G1 F1488.8 X95.624 Y115.368 E24.30785
G1 F1496.3 X95.915 Y115.584 E24.32598
G1 X96.113 Y115.766 E24.33943
G1 F1492.5 X96.322 Y115.994 E24.35494
G1 F1496.3 X96.483 Y116.207 E24.36829
G1 X96.687 Y116.552 E24.38834
G1 X96.811 Y116.845 E24.40425
G1 X96.932 Y117.242 E24.42501
G1 F1500 X96.987 Y117.591 E24.44264
G1 X97.001 Y117.953 E24.46071
G1 F1488.8 X96.96 Y118.394 E24.48297
G1 F1492.5 X96.851 Y118.829 E24.50546
G1 F1500 X96.715 Y119.165 E24.52354
G1 F1496.3 X96.53 Y119.507 E24.54299
G1 F1485.1 X96.328 Y119.781 E24.56014
G1 F1488.8 X96.118 Y120.013 E24.57587
G1 F1503.8 X95.895 Y120.216 E24.59088
G1 F1507.5 X95.666 Y120.387 E24.60507
G1 F1488.8 X95.347 Y120.572 E24.6236
G1 F1481.5 X95.009 Y120.713 E24.6421
G1 F1485.1 X94.726 Y120.8 E24.65702
G0 F7500 X94.917 Y120.742
G0 X95.032 Y120.283
G1 F1530.6 X95.554 Y119.989 E24.68631
G1 F1526.7 X95.926 Y119.639 E24.71135
G1 F1522.8 X96.285 Y119.162 E24.74069
G1 X96.491 Y118.638 E24.76835
G1 X96.594 Y118.15 E24.79286
G1 F1530.6 X96.586 Y117.542 E24.82259
G1 F1515.2 X96.446 Y117.008 E24.84986
G1 F1519 X96.239 Y116.55 E24.87462
G1 F1526.7 X95.925 Y116.146 E24.8997
G1 F1507.5 X95.651 Y115.884 E24.91852
G1 X95.323 Y115.653 E24.93844
G1 F1511.3 X94.975 Y115.481 E24.95766
G1 F1488.8 X94.714 Y115.399 E24.97141
G1 F1500 X94.353 Y115.304 E24.99003
G1 F1515.2 X93.722 Y115.306 E25.0212
G1 F1503.8 X93.226 Y115.41 E25.04642
G1 X92.757 Y115.607 E25.07173
G1 F1515.2 X92.338 Y115.881 E25.09646
G1 F1511.3 X91.983 Y116.251 E25.12185
G1 F1500 X91.706 Y116.667 E25.14678
G1 F1503.8 X91.509 Y117.144 E25.17247
G1 F1500 X91.427 Y117.511 E25.19123
G1 F1503.8 X91.4 Y117.893 E25.21029
G1 F1500 X91.446 Y118.387 E25.23504
G1 X91.556 Y118.779 E25.25535
G1 X91.763 Y119.218 E25.27957
G1 F1503.8 X92.074 Y119.638 E25.30557
G1 X92.349 Y119.9 E25.32448
G1 X92.677 Y120.13 E25.34441
G1 F1500 X93.015 Y120.298 E25.36324
G1 F1503.8 X93.499 Y120.444 E25.3884
G1 X94.036 Y120.491 E25.41523
G1 X94.519 Y120.439 E25.4394
G1 F1515.2 X95.032 Y120.283 E25.46589
G0 F7500 X94.841 Y120.341
G1 F2700 E18.96589
G0 F7500 X94.889 Y120.491
G0 X102.934 Y120.523
G0 X103.102 Y120.257
G1 F2700 E25.46589
G1 F1522.8 X103.548 Y119.98 E25.49169
G1 F1511.3 X103.928 Y119.636 E25.51707
G1 F1522.8 X104.285 Y119.162 E25.54623
G1 X104.491 Y118.638 E25.5739
G1 X104.594 Y118.15 E25.59841
G1 F1530.6 X104.586 Y117.542 E25.62814
G1 F1515.2 X104.446 Y117.008 E25.6554
G1 F1522.8 X104.238 Y116.547 E25.68026
G1 X103.936 Y116.157 E25.7045
G1 F1519 X103.458 Y115.726 E25.73621
G1 F1526.7 X102.955 Y115.468 E25.76391
G1 F1522.8 X102.372 Y115.308 E25.79362
G1 F1519 X101.722 Y115.306 E25.82565
G1 F1503.8 X101.226 Y115.41 E25.85087
G1 X100.757 Y115.607 E25.87618
G1 F1515.2 X100.328 Y115.888 E25.90151
G1 X99.912 Y116.341 E25.93189
G1 F1507.5 X99.708 Y116.665 E25.9509
G1 F1503.8 X99.509 Y117.144 E25.97671
G1 F1500 X99.427 Y117.511 E25.99547
G1 F1503.8 X99.4 Y117.893 E26.01453
G1 F1500 X99.446 Y118.387 E26.03928
G1 X99.556 Y118.779 E26.05959
G1 X99.763 Y119.218 E26.08381
G1 F1503.8 X100.074 Y119.638 E26.10982
G1 X100.366 Y119.915 E26.12985
G1 X100.67 Y120.125 E26.14823
G1 X101.015 Y120.298 E26.16744
G1 X101.521 Y120.447 E26.19369
G1 F1507.5 X102.036 Y120.491 E26.21935
G1 F1503.8 X102.518 Y120.439 E26.24347
G1 F1519 X103.102 Y120.257 E26.27361
G0 F7500 X102.911 Y120.316
G0 X102.141 Y120.887
G1 F1488.8 X101.836 Y120.885 E26.28894
G1 X101.567 Y120.857 E26.30254
G1 F1492.5 X101.255 Y120.794 E26.3185
G1 F1488.8 X100.983 Y120.712 E26.33277
G1 F1485.1 X100.643 Y120.569 E26.35136
G1 F1488.8 X100.32 Y120.375 E26.3703
G1 F1500 X100.087 Y120.201 E26.38481
G1 X99.888 Y120.018 E26.3983
G1 F1488.8 X99.685 Y119.796 E26.41342
G1 F1485.1 X99.478 Y119.519 E26.43084
G1 X99.296 Y119.18 E26.45023
G1 F1488.8 X99.15 Y118.831 E26.46924
G1 F1496.3 X99.057 Y118.475 E26.48765
G1 X99.019 Y118.203 E26.50138
G1 X99 Y117.901 E26.51652
G1 F1500 X99.017 Y117.582 E26.53245
G1 F1496.3 X99.055 Y117.325 E26.54545
G1 X99.15 Y116.953 E26.56465
G1 F1492.5 X99.287 Y116.62 E26.58271
G1 F1485.1 X99.47 Y116.277 E26.60229
G1 X99.678 Y115.995 E26.61995
G1 F1488.8 X99.881 Y115.771 E26.63515
G1 F1507.5 X100.067 Y115.596 E26.64782
G1 F1511.3 X100.341 Y115.394 E26.66468
G1 F1500 X100.577 Y115.251 E26.67845
G1 F1492.5 X100.849 Y115.124 E26.6935
G1 X101.149 Y115.017 E26.70947
G1 X101.411 Y114.954 E26.72298
G1 X101.703 Y114.907 E26.73781
G1 F1496.3 X102.001 Y114.895 E26.75273
G1 F1500 X102.317 Y114.908 E26.7685
G1 F1507.5 X102.582 Y114.949 E26.78182
G1 F1492.5 X102.89 Y115.03 E26.79778
G1 F1488.8 X103.226 Y115.151 E26.81573
G1 F1503.8 X103.625 Y115.364 E26.83824
G1 X103.905 Y115.579 E26.85581
G1 F1488.8 X104.113 Y115.766 E26.86987
G1 X104.316 Y115.987 E26.88495
G1 F1500 X104.483 Y116.207 E26.89873
G1 X104.686 Y116.551 E26.91866
G1 F1496.3 X104.816 Y116.858 E26.93534
G1 X104.932 Y117.242 E26.9554
G1 F1500 X104.987 Y117.591 E26.97302
G1 X105.001 Y117.953 E26.9911
G1 F1488.8 X104.96 Y118.394 E27.01336
G1 F1492.5 X104.851 Y118.829 E27.03585
G1 F1500 X104.715 Y119.165 E27.05393
G1 F1496.3 X104.53 Y119.507 E27.07338
G1 F1485.1 X104.328 Y119.781 E27.09053
G1 X104.111 Y120.02 E27.1068
G1 F1488.8 X103.893 Y120.214 E27.12146
G1 X103.665 Y120.385 E27.13579
G1 F1496.3 X103.349 Y120.576 E27.15426
G1 X103.007 Y120.714 E27.1727
G1 F1485.1 X102.728 Y120.799 E27.1874
G1 X102.428 Y120.858 E27.20281
G1 X102.141 Y120.887 E27.21734
G0 F7500 X102.34 Y120.867
G1 F2700 E20.71734
G0 F7500 X102.923 Y121.645
G0 X109.794 Y121.751
G0 X110.141 Y120.887
G1 F2700 E27.21734
G1 F1488.8 X109.836 Y120.885 E27.23267
G1 X109.567 Y120.857 E27.24627
G1 F1492.5 X109.255 Y120.794 E27.26223
G1 F1488.8 X108.983 Y120.712 E27.27651
G1 X108.71 Y120.599 E27.29136
G1 F1492.5 X108.392 Y120.424 E27.30956
G1 F1496.3 X108.085 Y120.2 E27.32856
G1 X107.887 Y120.018 E27.34201
G1 F1485.1 X107.685 Y119.796 E27.35714
G1 X107.478 Y119.519 E27.37456
G1 X107.296 Y119.18 E27.39395
G1 F1488.8 X107.15 Y118.831 E27.41297
G1 F1496.3 X107.057 Y118.475 E27.43137
G1 X107.019 Y118.203 E27.44511
G1 X107 Y117.901 E27.46024
G1 F1500 X107.017 Y117.582 E27.47618
G1 F1496.3 X107.055 Y117.325 E27.48917
G1 X107.15 Y116.953 E27.50837
G1 F1492.5 X107.287 Y116.62 E27.52643
G1 F1485.1 X107.471 Y116.277 E27.54604
G1 X107.652 Y116.027 E27.56159
G1 F1492.5 X107.881 Y115.771 E27.57882
G1 F1507.5 X108.097 Y115.571 E27.59343
G1 F1511.3 X108.341 Y115.395 E27.60832
G1 F1496.3 X108.554 Y115.264 E27.62083
G1 F1492.5 X108.85 Y115.124 E27.63725
G1 X109.149 Y115.017 E27.65317
G1 X109.411 Y114.954 E27.66668
G1 X109.703 Y114.907 E27.68151
G1 F1496.3 X110.001 Y114.895 E27.69643
G1 F1500 X110.317 Y114.908 E27.71221
G1 F1507.5 X110.582 Y114.949 E27.72552
G1 F1492.5 X110.89 Y115.03 E27.74149
G1 F1488.8 X111.226 Y115.151 E27.75944
G1 F1503.8 X111.625 Y115.364 E27.78195
G1 X111.905 Y115.579 E27.79951
G1 F1488.8 X112.113 Y115.766 E27.81357
G1 X112.316 Y115.987 E27.82866
G1 F1500 X112.483 Y116.207 E27.84244
G1 F1496.3 X112.687 Y116.552 E27.86248
G1 X112.811 Y116.845 E27.8784
G1 X112.932 Y117.242 E27.89915
G1 F1500 X112.987 Y117.591 E27.91678
G1 X113.001 Y117.953 E27.93485
G1 F1488.8 X112.96 Y118.394 E27.95712
G1 F1492.5 X112.851 Y118.829 E27.9796
G1 F1500 X112.715 Y119.165 E27.99769
G1 F1496.3 X112.53 Y119.507 E28.01713
G1 F1485.1 X112.328 Y119.781 E28.03429
G1 X112.111 Y120.02 E28.05055
G1 F1488.8 X111.893 Y120.214 E28.06522
G1 X111.665 Y120.385 E28.07955
G1 F1496.3 X111.349 Y120.576 E28.09801
G1 X111.007 Y120.714 E28.11646
G1 F1485.1 X110.728 Y120.799 E28.13115
G1 X110.428 Y120.858 E28.14656
G1 X110.141 Y120.887 E28.1611
G0 F7500 X110.34 Y120.867
G0 X110.036 Y120.491
G1 F1503.8 X110.518 Y120.439 E28.18522
G1 F1519 X111.102 Y120.257 E28.21536
G1 F1522.8 X111.548 Y119.98 E28.24116
G1 F1511.3 X111.928 Y119.636 E28.26654
G1 F1522.8 X112.285 Y119.162 E28.2957
G1 X112.491 Y118.638 E28.32337
G1 X112.594 Y118.15 E28.34788
G1 F1530.6 X112.586 Y117.542 E28.37761
G1 F1515.2 X112.446 Y117.008 E28.40487
G1 F1519 X112.238 Y116.547 E28.42979
G1 F1522.8 X111.936 Y116.157 E28.45403
G1 F1519 X111.458 Y115.726 E28.48574
G1 F1526.7 X110.955 Y115.468 E28.51345
G1 F1522.8 X110.372 Y115.308 E28.54316
G1 F1519 X109.722 Y115.306 E28.57518
G1 F1503.8 X109.226 Y115.41 E28.6004
G1 X108.757 Y115.607 E28.62572
G1 F1515.2 X108.338 Y115.881 E28.65045
G1 F1511.3 X107.983 Y116.251 E28.67584
G1 F1500 X107.706 Y116.667 E28.70077
G1 F1503.8 X107.509 Y117.144 E28.72645
G1 F1500 X107.427 Y117.511 E28.74521
G1 F1503.8 X107.4 Y117.893 E28.76427
G1 F1500 X107.446 Y118.387 E28.78902
G1 X107.556 Y118.779 E28.80934
G1 X107.763 Y119.218 E28.83355
G1 F1503.8 X108.076 Y119.641 E28.85974
G1 X108.349 Y119.899 E28.87843
G1 F1500 X108.678 Y120.13 E28.89849
G1 X109.015 Y120.298 E28.91727
G1 F1503.8 X109.521 Y120.447 E28.94352
G1 F1507.5 X110.036 Y120.491 E28.96918
G0 F7500 X109.837 Y120.474
G1 F2700 E22.46918
G0 F7500 X109.824 Y120.635
G0 X110.138 Y128.731
G0 X110.141 Y128.887
G1 F2700 E28.96918
G1 F1485.1 X109.836 Y128.885 E28.98455
G1 F1488.8 X109.567 Y128.857 E28.99814
G1 F1496.3 X109.255 Y128.795 E29.01405
G1 X108.972 Y128.71 E29.02883
G1 F1485.1 X108.642 Y128.568 E29.04694
G1 X108.324 Y128.378 E29.0656
G1 F1500 X108.086 Y128.201 E29.0804
G1 X107.887 Y128.017 E29.09392
G1 F1492.5 X107.679 Y127.789 E29.1094
G1 F1485.1 X107.478 Y127.519 E29.12636
G1 X107.296 Y127.18 E29.14574
G1 F1488.8 X107.15 Y126.831 E29.16476
