;FLAVOR:Marlin
;TIME:11818
;Filament used: 8.51749m
;Layer height: 0.15
;MINX:79.4
;MINY:74.508
;MINZ:0.3
;MAXX:140.6
;MAXY:145.492
;MAXZ:46.2
;Generated with Cura_SteamEngine 5.4.0
M140 S60
M105
M190 S60
M104 S195
M105
M109 S195
M82 ;absolute extrusion mode
G28 ;Home
G1 Z15.0 F2000 ;Move the platform
G92 E0
G92 E0
G1 F2700 E-6.5
;LAYER_COUNT:307
;LAYER:0
M107
M204 S1000
G0 F7500 X88.309 Y77.054 Z0.3
;TYPE:SKIRT
G1 F2700 E0
G1 F1500 X88.773 Y76.519 E0.03533
G1 X89.268 Y76.058 E0.06908
G1 X89.836 Y75.632 E0.1045
G1 X90.398 Y75.294 E0.13722
G1 X91.04 Y74.993 E0.17259
G1 X91.717 Y74.761 E0.2083
G1 X92.312 Y74.623 E0.23877
G1 X93.051 Y74.531 E0.27592
G1 X94.178 Y74.508 E0.33216
G1 X130.158 Y74.508 E2.12721
G1 X130.835 Y74.519 E2.16099
G1 X131.423 Y74.58 E2.19048
G1 X132.079 Y74.707 E2.22382
G1 X132.729 Y74.904 E2.25771
G1 X133.388 Y75.183 E2.29341
G1 X134.012 Y75.531 E2.32905
G1 X134.52 Y75.887 E2.36
G1 X135.047 Y76.342 E2.39474
G1 X135.531 Y76.856 E2.42996
G1 X135.943 Y77.399 E2.46397
G1 X136.308 Y78.006 E2.4993
G1 X136.589 Y78.609 E2.53249
G1 X136.825 Y79.292 E2.56854
G1 X136.979 Y79.959 E2.6027
G1 X137.067 Y80.686 E2.63923
G1 X137.089 Y81.024 E2.65613
G1 X137.1 Y81.619 E2.68582
G1 X137.1 Y83.642 E2.78675
G1 X137.14 Y86.422 E2.92546
G1 X137.255 Y89.139 E3.06113
G1 X137.448 Y91.863 E3.19737
G1 X137.715 Y94.557 E3.33243
G1 X138.063 Y97.28 E3.46939
G1 X138.484 Y99.959 E3.60469
G1 X138.985 Y102.656 E3.74154
G1 X139.548 Y105.274 E3.87514
G1 X140.244 Y108.105 E4.02059
G1 X140.482 Y109.026 E4.06804
G1 X140.589 Y109.783 E4.10619
G1 X140.599 Y110.125 E4.12326
G1 X140.6 Y141.201 E5.67364
G1 X140.591 Y141.928 E5.70992
G1 X140.533 Y142.525 E5.73984
G1 X140.387 Y143.075 E5.76823
G1 X140.157 Y143.594 E5.79655
G1 X139.848 Y144.072 E5.82495
G1 X139.467 Y144.495 E5.85335
G1 X139.026 Y144.852 E5.88166
G1 X138.532 Y145.136 E5.91009
G1 X138.001 Y145.337 E5.93841
G1 X137.455 Y145.453 E5.96626
G1 X137.092 Y145.482 E5.98443
G1 X136.76 Y145.491 E6.001
G1 X89.661 Y145.492 E8.35078
G1 X88.963 Y145.483 E8.3856
G1 X88.365 Y145.424 E8.41558
G1 X87.815 Y145.278 E8.44397
G1 X87.295 Y145.047 E8.47236
G1 X86.819 Y144.739 E8.50065
G1 X86.396 Y144.358 E8.52905
G1 X86.039 Y143.915 E8.55743
G1 X85.756 Y143.423 E8.58575
G1 X85.558 Y142.917 E8.61286
G1 X85.42 Y142.137 E8.65238
G1 X85.37 Y141.307 E8.69386
G1 X85.174 Y138.577 E8.83041
G1 X84.903 Y135.88 E8.96564
G1 X84.551 Y133.157 E9.10262
G1 X84.123 Y130.449 E9.2394
G1 X83.629 Y127.808 E9.37345
G1 X83.056 Y125.151 E9.50905
G1 X82.398 Y122.483 E9.64615
G1 X81.672 Y119.855 E9.78217
G1 X80.877 Y117.269 E9.91715
G1 X79.981 Y114.622 E10.05657
G1 X79.606 Y113.558 E10.11285
G1 X79.476 Y113.07 E10.13805
G1 X79.413 Y112.53 E10.16517
G1 X79.401 Y112.16 E10.18364
G1 X79.4 Y108.043 E10.38904
G1 X79.411 Y107.337 E10.42426
G1 X79.465 Y106.761 E10.45313
G1 X79.692 Y105.999 E10.49279
G1 X80.906 Y103.108 E10.64923
G1 X81.898 Y100.535 E10.7868
G1 X82.799 Y97.982 E10.92187
G1 X83.62 Y95.427 E11.05576
G1 X84.394 Y92.768 E11.19393
G1 X85.082 Y90.126 E11.33013
G1 X85.687 Y87.496 E11.46477
G1 X86.23 Y84.786 E11.60266
G1 X86.688 Y82.124 E11.73742
G1 X86.802 Y81.315 E11.77818
G1 X86.827 Y81.202 E11.78395
G1 X87.007 Y79.993 E11.84494
G1 X87.125 Y79.471 E11.87163
G1 X87.305 Y78.882 E11.90236
G1 X87.578 Y78.233 E11.93749
G1 X87.923 Y77.607 E11.97315
G1 X88.309 Y77.054 E12.00679
G0 F7500 X88.637 Y77.283
G1 F1500 X89.046 Y76.812 E12.03792
G1 X89.541 Y76.351 E12.07166
G1 X90.042 Y75.975 E12.10291
G1 X90.604 Y75.637 E12.13563
G1 X91.171 Y75.371 E12.16688
G1 X91.807 Y75.151 E12.20045
G1 X92.402 Y75.013 E12.23093
G1 X93.059 Y74.931 E12.26396
G1 X94.186 Y74.908 E12.3202
G1 X130.152 Y74.908 E14.11455
G1 X130.795 Y74.917 E14.14663
G1 X131.348 Y74.973 E14.17436
G1 X131.963 Y75.09 E14.20559
G1 X132.613 Y75.287 E14.23948
G1 X133.194 Y75.533 E14.27096
G1 X133.782 Y75.859 E14.3045
G1 X134.29 Y76.215 E14.33545
G1 X134.785 Y76.644 E14.36813
G1 X135.212 Y77.098 E14.39922
G1 X135.624 Y77.641 E14.43323
G1 X135.945 Y78.175 E14.46431
G1 X136.226 Y78.778 E14.4975
G1 X136.435 Y79.382 E14.52939
G1 X136.589 Y80.049 E14.56354
G1 X136.668 Y80.712 E14.59685
G1 X136.689 Y81.031 E14.6128
G1 X136.7 Y81.626 E14.64249
G1 X136.7 Y83.642 E14.74307
G1 X136.74 Y86.439 E14.88262
G1 X136.855 Y89.156 E15.0183
G1 X137.05 Y91.902 E15.15564
G1 X137.318 Y94.608 E15.2913
G1 X137.666 Y97.331 E15.42826
G1 X138.091 Y100.032 E15.56467
G1 X138.594 Y102.74 E15.70209
G1 X139.157 Y105.358 E15.83568
G1 X139.857 Y108.206 E15.982
G1 X140.086 Y109.083 E16.02722
G1 X140.189 Y109.795 E16.06311
G1 X140.199 Y110.125 E16.07958
G1 X140.2 Y141.196 E17.62972
G1 X140.191 Y141.923 E17.666
G1 X140.145 Y142.426 E17.69119
G1 X140.02 Y142.916 E17.71642
G1 X139.819 Y143.38 E17.74165
G1 X139.548 Y143.807 E17.76688
G1 X139.213 Y144.186 E17.79212
G1 X138.823 Y144.507 E17.81732
G1 X138.387 Y144.763 E17.84254
G1 X137.916 Y144.946 E17.86775
G1 X137.422 Y145.054 E17.89298
G1 X137.081 Y145.082 E17.91005
G1 X136.76 Y145.091 E17.92607
G1 X89.666 Y145.092 E20.2756
G1 X88.968 Y145.083 E20.31043
G1 X88.464 Y145.036 E20.33568
G1 X87.974 Y144.911 E20.36091
G1 X87.51 Y144.71 E20.38614
G1 X87.084 Y144.439 E20.41133
G1 X86.705 Y144.104 E20.43656
G1 X86.384 Y143.713 E20.4618
G1 X86.129 Y143.277 E20.487
G1 X85.945 Y142.806 E20.51223
G1 X85.814 Y142.067 E20.54967
G1 X85.769 Y141.284 E20.5888
G1 X85.573 Y138.548 E20.72565
G1 X85.301 Y135.84 E20.86143
G1 X84.948 Y133.106 E20.99897
G1 X84.518 Y130.387 E21.1363
G1 X84.022 Y127.734 E21.27095
G1 X83.447 Y125.067 E21.40707
G1 X82.784 Y122.376 E21.54534
G1 X82.057 Y119.748 E21.68137
G1 X81.256 Y117.141 E21.81744
G1 X80.36 Y114.494 E21.95686
G1 X79.993 Y113.455 E22.01183
G1 X79.863 Y112.967 E22.03703
G1 X79.811 Y112.487 E22.06112
G1 X79.801 Y112.16 E22.07744
G1 X79.8 Y108.049 E22.28254
G1 X79.811 Y107.343 E22.31776
G1 X79.859 Y106.84 E22.34297
G1 X80.061 Y106.154 E22.37865
G1 X81.275 Y103.263 E22.53508
G1 X82.271 Y100.679 E22.67324
G1 X83.176 Y98.115 E22.8089
G1 X84.001 Y95.549 E22.94337
G1 X84.778 Y92.88 E23.08205
G1 X85.469 Y90.227 E23.21883
G1 X86.077 Y87.586 E23.35404
G1 X86.622 Y84.865 E23.49248
G1 X87.082 Y82.192 E23.6278
G1 X87.193 Y81.401 E23.66765
G1 X87.221 Y81.274 E23.67414
G1 X87.403 Y80.052 E23.73578
G1 X87.508 Y79.588 E23.75951
G1 X87.688 Y78.999 E23.79024
G1 X87.946 Y78.389 E23.82328
G1 X88.251 Y77.836 E23.85479
G1 X88.637 Y77.283 E23.88843
G1 F2700 E17.38843
;MESH:BoxKnobLid.stl
G0 F7500 X89.841 Y81.003
G0 X93.245 Y105.275
;TYPE:WALL-INNER
G1 F2700 E23.88843
G1 F1500 X130.755 Y105.275 E25.75981
G1 X131.235 Y105.173 E25.7843
G1 X131.699 Y104.966 E25.80964
G1 X132.103 Y104.672 E25.83457
G1 X132.437 Y104.302 E25.85944
G1 X132.69 Y103.863 E25.88472
G1 X132.844 Y103.389 E25.90958
G1 X132.9 Y102.862 E25.93602
G1 X132.9 Y81.122 E27.02064
G1 X132.844 Y80.595 E27.04708
G1 X132.689 Y80.118 E27.0721
G1 X132.438 Y79.683 E27.09716
G1 X132.105 Y79.314 E27.12195
G1 X131.696 Y79.016 E27.1472
G1 X131.235 Y78.811 E27.17237
G1 X130.755 Y78.709 E27.19685
G1 X93.245 Y78.708 E29.06823
G1 X92.765 Y78.811 E29.09273
G1 X92.304 Y79.016 E29.1179
G1 X91.895 Y79.314 E29.14314
G1 X91.562 Y79.683 E29.16794
G1 X91.311 Y80.118 E29.193
G1 X91.156 Y80.595 E29.21802
G1 X91.1 Y81.122 E29.24446
G1 X91.1 Y102.862 E30.32907
G1 X91.156 Y103.389 E30.35551
G1 X91.31 Y103.863 E30.38038
G1 X91.564 Y104.302 E30.40568
G1 X91.897 Y104.672 E30.43052
G1 X92.301 Y104.966 E30.45544
G1 X92.765 Y105.173 E30.48079
G1 X93.245 Y105.275 E30.50527
G1 F2700 E24.00527
G0 F7500 X92.694 Y105.03
G0 X93.262 Y105.114
G0 X130.738 Y105.114
G0 X131.038 Y106.507
G0 X131.633 Y106.381
G0 X132.334 Y106.068
G0 X132.954 Y105.617
G0 X133.467 Y105.048
G0 X133.851 Y104.384
G0 X134.088 Y103.655
G0 X134.13 Y103.243
G0 X134.165 Y93.355
G0 X131.357 Y93.104
G1 F2700 E30.50527
G1 F1500 X131.077 Y93.288 E30.52199
G1 X130.669 Y93.387 E30.54294
G1 X130.43 Y93.338 E30.55511
G1 X130.207 Y93.173 E30.56895
G1 X129.956 Y92.806 E30.59113
G1 X129.884 Y92.588 E30.60258
G1 X129.882 Y91.432 E30.66026
G1 X129.957 Y91.176 E30.67357
G1 X130.208 Y90.812 E30.69562
G1 X130.429 Y90.647 E30.70938
G1 X130.669 Y90.598 E30.72161
G1 X131.077 Y90.697 E30.74255
G1 X131.357 Y90.881 E30.75927
G1 X131.5 Y91.271 E30.77999
G1 X131.5 Y92.801 E30.85632
G1 X131.357 Y93.104 E30.87304
G0 F7500 X131.032 Y92.886
;TYPE:WALL-OUTER
G1 F1500 X130.668 Y92.987 E30.89188
G1 X130.501 Y92.9 E30.90128
G1 X130.283 Y92.579 E30.92064
G1 X130.282 Y91.407 E30.97911
G1 X130.525 Y91.051 E31.00061
G1 X130.668 Y90.998 E31.00822
G1 X130.959 Y91.079 E31.02329
G1 X131.052 Y91.141 E31.02887
G1 X131.1 Y91.271 E31.03578
G1 X131.097 Y92.749 E31.10952
G1 X131.032 Y92.886 E31.11708
G0 F7500 X130.839 Y92.939
G1 F2700 E24.61708
G0 F7500 X130.383 Y93.252
G0 X129.756 Y92.834
G0 X134.165 Y92.834
G0 X134.164 Y102.927
G0 X134.088 Y103.655
G0 X133.851 Y104.384
G0 X133.467 Y105.048
G0 X132.954 Y105.617
G0 X132.334 Y106.068
G0 X131.633 Y106.381
G0 X131.027 Y106.508
G0 X129.756 Y106.54
G0 X93.203 Y105.675
G1 F2700 E31.11708
G1 F1500 X130.797 Y105.675 E32.99266
G1 X131.359 Y105.555 E33.02133
G1 X131.9 Y105.314 E33.05087
G1 X132.372 Y104.971 E33.07998
G1 X132.762 Y104.539 E33.10902
G1 X133.058 Y104.027 E33.13853
G1 X133.238 Y103.473 E33.16759
G1 X133.3 Y102.883 E33.19718
G1 X133.3 Y81.101 E34.28389
G1 X133.238 Y80.511 E34.31349
G1 X133.057 Y79.954 E34.34271
G1 X132.763 Y79.446 E34.37199
G1 X132.374 Y79.015 E34.40096
G1 X131.897 Y78.668 E34.43039
G1 X131.359 Y78.429 E34.45976
G1 X130.797 Y78.309 E34.48843
G1 X93.203 Y78.308 E36.364
G1 X92.641 Y78.429 E36.39268
G1 X92.103 Y78.668 E36.42205
G1 X91.626 Y79.015 E36.45148
G1 X91.237 Y79.446 E36.48044
G1 X90.943 Y79.954 E36.50973
G1 X90.762 Y80.511 E36.53895
G1 X90.7 Y81.101 E36.56854
G1 X90.7 Y102.883 E37.65525
G1 X90.762 Y103.473 E37.68485
G1 X90.942 Y104.027 E37.71391
G1 X91.238 Y104.539 E37.74342
G1 X91.628 Y104.971 E37.77245
G1 X92.1 Y105.314 E37.80156
G1 X92.641 Y105.555 E37.83111
G1 X93.203 Y105.675 E37.85978
G0 F7500 X93.403 Y105.675
G1 F2700 E31.35978
G0 F7500 X93.403 Y105.375
G0 X130.665 Y105.075
G0 X130.665 Y106.54
G0 X131.633 Y106.381
G0 X132.334 Y106.068
G0 X132.954 Y105.617
G0 X133.467 Y105.048
G0 X133.851 Y104.384
G0 X134.088 Y103.655
G0 X134.13 Y103.243
G0 X134.165 Y93.568
G0 X130.676 Y93.749
;TYPE:SKIN
G1 F2700 E37.85978
G1 F1500 X131.202 Y93.628 E37.88671
G1 F1435.4 X131.622 Y93.351 E37.91294
G1 F1321.6 X131.928 Y92.851 E37.94613
G1 F1273.9 X131.93 Y91.307 E38.03683
G1 F1379.3 X131.662 Y90.707 E38.07249
G1 F1500 X131.584 Y90.608 E38.07877
G1 X131.203 Y90.357 E38.10154
G1 X130.67 Y90.233 E38.12884
G1 X130.279 Y90.32 E38.14882
G1 X129.933 Y90.58 E38.17042
G1 X129.585 Y91.092 E38.2013
G1 X129.523 Y91.394 E38.21668
G1 X129.522 Y92.587 E38.2762
G1 X129.587 Y92.903 E38.2923
G1 X129.933 Y93.41 E38.32292
G1 X130.166 Y93.607 E38.33814
G1 X130.42 Y93.711 E38.35184
G1 X130.676 Y93.749 E38.36475
G1 F2700 E31.86475
G0 F7500 X130.665 Y93.488
G0 X129.756 Y92.834
G0 X134.165 Y92.834
G0 X134.164 Y102.927
G0 X134.088 Y103.655
G0 X133.851 Y104.384
G0 X133.467 Y105.048
G0 X132.954 Y105.617
G0 X132.334 Y106.068
G0 X131.633 Y106.381
G0 X131.027 Y106.508
G0 X129.756 Y106.54
G0 X93.281 Y104.915
G1 F2700 E38.36475
G1 F1500 X92.881 Y104.828 E38.38517
G1 X92.478 Y104.649 E38.40717
G1 X92.142 Y104.405 E38.42789
G1 X91.856 Y104.088 E38.44919
G1 X91.642 Y103.718 E38.47051
G1 X91.511 Y103.312 E38.4918
G1 X91.46 Y102.843 E38.51533
G1 X91.461 Y81.139 E39.59815
G1 X91.509 Y80.672 E39.62157
G1 X91.641 Y80.266 E39.64287
G1 X91.856 Y79.895 E39.66426
G1 X92.137 Y79.583 E39.68521
G1 X92.485 Y79.331 E39.70665
G1 X92.881 Y79.155 E39.72827
G1 X93.281 Y79.069 E39.74868
G1 X130.719 Y79.07 E41.61647
G1 X131.119 Y79.155 E41.63687
G1 X131.52 Y79.332 E41.65874
G1 X131.86 Y79.58 E41.67973
G1 X132.144 Y79.895 E41.70089
G1 X132.359 Y80.266 E41.72229
G1 X132.491 Y80.672 E41.74358
G1 X132.54 Y81.139 E41.76701
G1 X132.54 Y90.551 E42.23658
G1 F1376.1 X132.504 Y91.09 E42.26595
G1 F1185.8 X132.47 Y91.282 E42.27826
G1 F1107 X132.468 Y92.916 E42.38872
G1 F1162.8 X132.496 Y93.066 E42.39854
G1 F1351.4 X132.54 Y93.49 E42.42215
G1 F1500 X132.54 Y102.843 E42.88877
G1 X132.489 Y103.312 E42.91231
G1 X132.358 Y103.718 E42.93359
G1 X132.144 Y104.088 E42.95492
G1 X131.858 Y104.405 E42.97622
G1 X131.522 Y104.649 E42.99693
G1 X131.119 Y104.828 E43.01893
G1 X130.719 Y104.915 E43.03935
G1 X93.281 Y104.915 E44.90714
G0 F7500 X92.606 Y104.486
G1 F1500 X91.922 Y103.801 E44.95544
G0 F7500 X91.677 Y102.99
G1 F1500 X93.401 Y104.714 E45.07708
G0 F7500 X93.966 Y104.714
G1 F1500 X91.66 Y102.408 E45.23978
G0 F7500 X91.66 Y101.842
G1 F1500 X94.532 Y104.714 E45.44241
G0 F7500 X95.098 Y104.714
G1 F1500 X91.66 Y101.276 E45.68498
G0 F7500 X91.66 Y100.711
G1 F1500 X95.663 Y104.714 E45.96742
G0 F7500 X96.229 Y104.714
G1 F1500 X91.66 Y100.145 E46.28978
G0 F7500 X91.66 Y99.579
G1 F1500 X96.795 Y104.714 E46.65209
G0 F7500 X97.36 Y104.714
G1 F1500 X91.66 Y99.014 E47.05425
G0 F7500 X91.66 Y98.448
G1 F1500 X97.926 Y104.714 E47.49635
G0 F7500 X98.492 Y104.714
G1 F1500 X91.66 Y97.882 E47.97839
G0 F7500 X91.66 Y97.316
G1 F1500 X99.057 Y104.714 E48.50032
G0 F7500 X99.623 Y104.714
G1 F1500 X91.66 Y96.751 E49.06215
G0 F7500 X91.66 Y96.185
G1 F1500 X100.189 Y104.714 E49.66392
G0 F7500 X100.754 Y104.714
G1 F1500 X91.66 Y95.619 E50.30559
G0 F7500 X91.66 Y95.054
G1 F1500 X101.32 Y104.714 E50.98715
G0 F7500 X101.886 Y104.714
G1 F1500 X91.66 Y94.488 E51.70865
G0 F7500 X91.66 Y93.922
G1 F1500 X102.451 Y104.714 E52.47005
G0 F7500 X103.017 Y104.714
G1 F1500 X91.66 Y93.357 E53.27135
G0 F7500 X91.66 Y92.791
G1 F1500 X103.583 Y104.714 E54.11258
G0 F7500 X104.149 Y104.714
G1 F1500 X91.66 Y92.225 E54.99374
G0 F7500 X91.66 Y91.66
G1 F1500 X104.714 Y104.714 E55.91477
G0 F7500 X105.28 Y104.714
G1 F1500 X91.66 Y91.094 E56.87574
G0 F7500 X91.66 Y90.528
G1 F1500 X105.846 Y104.714 E57.87664
G0 F7500 X106.411 Y104.714
G1 F1500 X91.66 Y89.963 E58.9174
G0 F7500 X91.66 Y89.397
G1 F1500 X106.977 Y104.714 E59.9981
G0 F7500 X107.543 Y104.714
G1 F1500 X91.66 Y88.831 E61.11873
G0 F7500 X91.66 Y88.266
G1 F1500 X108.108 Y104.714 E62.27922
G0 F7500 X108.674 Y104.714
G1 F1500 X91.66 Y87.7 E63.47965
G0 F7500 X91.66 Y87.134
G1 F1500 X109.24 Y104.714 E64.72002
G0 F7500 X109.805 Y104.714
G1 F1500 X91.66 Y86.568 E66.00028
G0 F7500 X91.66 Y86.003
G1 F1500 X110.371 Y104.714 E67.32044
G0 F7500 X110.937 Y104.714
G1 F1500 X91.66 Y85.437 E68.68054
G0 F7500 X91.66 Y84.871
G1 F1500 X111.502 Y104.714 E70.08054
G0 F7500 X112.068 Y104.714
G1 F1500 X91.66 Y84.306 E71.52043
G0 F7500 X91.66 Y83.74
G1 F1500 X112.634 Y104.714 E73.00026
G0 F7500 X113.2 Y104.714
G1 F1500 X91.66 Y83.174 E74.52002
G0 F7500 X91.66 Y82.609
G1 F1500 X113.765 Y104.714 E76.07965
G0 F7500 X114.331 Y104.714
G1 F1500 X91.66 Y82.043 E77.67921
G0 F7500 X91.66 Y81.477
G1 F1500 X114.897 Y104.714 E79.31871
G0 F7500 X115.462 Y104.714
G1 F1500 X91.682 Y80.934 E80.99651
G0 F7500 X91.783 Y80.47
G1 F1500 X116.028 Y104.714 E82.70709
G0 F7500 X116.594 Y104.714
G1 F1500 X91.971 Y80.091 E84.44438
G0 F7500 X92.226 Y79.781
G1 F1500 X117.159 Y104.714 E86.20354
G0 F7500 X117.725 Y104.714
G1 F1500 X92.545 Y79.534 E87.98012
G0 F7500 X92.928 Y79.352
G1 F1500 X118.291 Y104.714 E89.76958
G0 F7500 X118.856 Y104.714
G1 F1500 X93.411 Y79.269 E91.56487
G0 F7500 X93.977 Y79.269
G1 F1500 X119.422 Y104.714 E93.36015
G0 F7500 X119.988 Y104.714
G1 F1500 X94.543 Y79.269 E95.15543
G0 F7500 X95.108 Y79.269
G1 F1500 X120.553 Y104.714 E96.95071
G0 F7500 X121.119 Y104.714
G1 F1500 X95.674 Y79.269 E98.746
G0 F7500 X96.24 Y79.269
G1 F1500 X121.685 Y104.714 E100.54128
G0 F7500 X122.25 Y104.714
G1 F1500 X96.805 Y79.269 E102.33656
G0 F7500 X97.371 Y79.269
G1 F1500 X122.816 Y104.714 E104.13184
G0 F7500 X123.382 Y104.714
G1 F1500 X97.937 Y79.269 E105.92712
G0 F7500 X98.502 Y79.269
G1 F1500 X123.948 Y104.714 E107.72244
G0 F7500 X124.513 Y104.714
G1 F1500 X99.068 Y79.269 E109.51772
G0 F7500 X99.634 Y79.269
G1 F1500 X125.079 Y104.714 E111.31301
G0 F7500 X125.645 Y104.714
G1 F1500 X100.199 Y79.269 E113.10832
G0 F7500 X100.765 Y79.269
G1 F1500 X126.21 Y104.714 E114.90361
G0 F7500 X126.776 Y104.714
G1 F1500 X101.331 Y79.269 E116.69889
G0 F7500 X101.896 Y79.269
