;FLAVOR:Marlin
;TIME:3172
;Filament used: 1.41448m
;Layer height: 0.15
;MINX:91.4
;MINY:94.5
;MINZ:0.3
;MAXX:128.6
;MAXY:125.5
;MAXZ:10.05
;Generated with Cura_SteamEngine 5.4.0
M140 S60
M105
M190 S60
M104 S195
M105
M109 S195
M82 ;absolute extrusion mode
G28 ;Home
G1 Z15.0 F2000 ;Move the platform
G92 E0
G92 E0
G1 F2700 E-6.5
;LAYER_COUNT:66
;LAYER:0
M107
M204 S1000
G0 F7500 X92.535 Y95.495 Z0.3
;TYPE:SKIRT
G1 F2700 E0
G1 F1500 X92.978 Y95.138 E0.02838
G1 X93.471 Y94.855 E0.05674
G1 X93.942 Y94.671 E0.08197
G1 X94.549 Y94.539 E0.11296
G1 X94.908 Y94.51 E0.13093
G1 X95.24 Y94.501 E0.1475
G1 X124.345 Y94.5 E1.59956
G1 X125.043 Y94.51 E1.63438
G1 X125.64 Y94.57 E1.66432
G1 X126.19 Y94.716 E1.69271
G1 X126.654 Y94.918 E1.71796
G1 X127.135 Y95.22 E1.74629
G1 X127.608 Y95.639 E1.77782
G1 X127.963 Y96.081 E1.8061
G1 X128.246 Y96.575 E1.8345
G1 X128.447 Y97.106 E1.86283
G1 X128.562 Y97.653 E1.89072
G1 X128.59 Y98.009 E1.90853
G1 X128.599 Y98.34 E1.92505
G1 X128.6 Y104.344 E2.22459
G1 X128.59 Y105.061 E2.26037
G1 X128.557 Y105.869 E2.30071
G1 X128.478 Y108.656 E2.43981
G1 X128.478 Y111.362 E2.57481
G1 X128.556 Y114.106 E2.71177
G1 X128.598 Y115.205 E2.76664
G1 X128.6 Y121.214 E3.06643
G1 X128.59 Y121.941 E3.1027
G1 X128.53 Y122.538 E3.13264
G1 X128.384 Y123.087 E3.16098
G1 X128.153 Y123.607 E3.18937
G1 X127.844 Y124.083 E3.21768
G1 X127.462 Y124.507 E3.24615
G1 X127.071 Y124.827 E3.27136
G1 X126.528 Y125.145 E3.30275
G1 X126.057 Y125.329 E3.32798
G1 X125.449 Y125.461 E3.35902
G1 X125.091 Y125.49 E3.37694
G1 X124.76 Y125.499 E3.39346
G1 X95.661 Y125.5 E4.84521
G1 X94.963 Y125.491 E4.88004
G1 X94.365 Y125.432 E4.91002
G1 X93.815 Y125.286 E4.93841
G1 X93.295 Y125.055 E4.9668
G1 X92.819 Y124.747 E4.99508
G1 X92.396 Y124.366 E5.02348
G1 X92.039 Y123.923 E5.05187
G1 X91.756 Y123.431 E5.08019
G1 X91.554 Y122.899 E5.10858
G1 X91.439 Y122.353 E5.13641
G1 X91.41 Y121.988 E5.15468
G1 X91.401 Y121.644 E5.17185
G1 X91.4 Y98.726 E6.31523
G1 X91.409 Y98.061 E6.34841
G1 X91.469 Y97.462 E6.37845
G1 X91.615 Y96.914 E6.40674
G1 X91.845 Y96.395 E6.43506
G1 X92.155 Y95.917 E6.46349
G1 X92.535 Y95.495 E6.49182
G0 F7500 X92.789 Y95.804
G1 F1500 X93.18 Y95.483 E6.51706
G1 X93.617 Y95.228 E6.5423
G1 X94.088 Y95.044 E6.56753
G1 X94.582 Y94.938 E6.59273
G1 X94.919 Y94.91 E6.6096
G1 X95.24 Y94.901 E6.62562
G1 X124.339 Y94.9 E8.07738
G1 X125.037 Y94.91 E8.11221
G1 X125.54 Y94.957 E8.13741
G1 X126.03 Y95.083 E8.16265
G1 X126.494 Y95.285 E8.1879
G1 X126.92 Y95.557 E8.21312
G1 X127.298 Y95.892 E8.23831
G1 X127.618 Y96.283 E8.26352
G1 X127.873 Y96.72 E8.28876
G1 X128.056 Y97.191 E8.31397
G1 X128.163 Y97.685 E8.33919
G1 X128.19 Y98.02 E8.35596
G1 X128.199 Y98.34 E8.37193
G1 X128.2 Y104.338 E8.67117
G1 X128.19 Y105.045 E8.70645
G1 X128.157 Y105.853 E8.74679
G1 X128.078 Y108.645 E8.88614
G1 X128.078 Y111.362 E9.02169
G1 X128.156 Y114.121 E9.15939
G1 X128.198 Y115.205 E9.21352
G1 X128.2 Y121.208 E9.51301
G1 X128.19 Y121.935 E9.54928
G1 X128.143 Y122.438 E9.57448
G1 X128.017 Y122.928 E9.59973
G1 X127.816 Y123.392 E9.62495
G1 X127.544 Y123.818 E9.65017
G1 X127.209 Y124.197 E9.67541
G1 X126.818 Y124.517 E9.70061
G1 X126.382 Y124.772 E9.72581
G1 X125.911 Y124.956 E9.75104
G1 X125.416 Y125.062 E9.7763
G1 X125.08 Y125.09 E9.79312
G1 X124.76 Y125.099 E9.80909
G1 X95.666 Y125.1 E11.26059
G1 X94.968 Y125.091 E11.29542
G1 X94.464 Y125.044 E11.32067
G1 X93.974 Y124.919 E11.3459
G1 X93.51 Y124.718 E11.37113
G1 X93.084 Y124.447 E11.39632
G1 X92.705 Y124.112 E11.42156
G1 X92.384 Y123.721 E11.44679
G1 X92.129 Y123.285 E11.47199
G1 X91.945 Y122.814 E11.49722
G1 X91.838 Y122.32 E11.52244
G1 X91.81 Y121.977 E11.53961
G1 X91.801 Y121.644 E11.55623
G1 X91.8 Y98.731 E12.69936
G1 X91.809 Y98.066 E12.73254
G1 X91.856 Y97.562 E12.7578
G1 X91.982 Y97.073 E12.78299
G1 X92.183 Y96.609 E12.80822
G1 X92.454 Y96.182 E12.83345
G1 X92.789 Y95.804 E12.85865
G1 F2700 E6.35865
;MESH:holder.stl
G0 F7500 X95.42 Y97.435
G0 X124.4 Y121.3
;TYPE:WALL-INNER
G1 F2700 E12.85865
G1 F1500 X124.4 Y119.5 E12.94845
G1 X98 Y119.5 E14.26555
G1 X97.761 Y119.451 E14.27772
G1 X97.575 Y119.325 E14.28893
G1 X97.449 Y119.139 E14.30014
G1 X97.4 Y118.978 E14.30853
G1 X97.4 Y118 E14.35733
G1 X97.47 Y117.717 E14.37187
G1 X97.64 Y117.52 E14.38485
G1 X97.947 Y117.401 E14.40128
G1 X124.4 Y117.4 E15.72103
G1 X124.4 Y115.6 E15.81083
G1 X97.947 Y115.599 E17.13057
G1 X97.64 Y115.48 E17.147
G1 X97.47 Y115.283 E17.15998
G1 X97.4 Y115.081 E17.17065
G1 X97.4 Y105 E17.67359
G1 X97.47 Y104.717 E17.68814
G1 X97.64 Y104.52 E17.70112
G1 X97.947 Y104.401 E17.71754
G1 X124.4 Y104.4 E19.03729
G1 X124.4 Y102.6 E19.12709
G1 X97.947 Y102.599 E20.44684
G1 X97.64 Y102.48 E20.46326
G1 X97.47 Y102.283 E20.47625
G1 X97.4 Y102.081 E20.48691
G1 X97.4 Y101.1 E20.53585
G1 X97.449 Y100.861 E20.54803
G1 X97.575 Y100.675 E20.55923
G1 X97.761 Y100.549 E20.57044
G1 X97.922 Y100.5 E20.57884
G1 X124.4 Y100.5 E21.89983
G1 X124.4 Y98.7 E21.98963
G1 X95.6 Y98.7 E23.42647
G1 X95.6 Y121.3 E24.55399
G1 X124.4 Y121.3 E25.99083
G0 F7500 X124.8 Y121.7
;TYPE:WALL-OUTER
G1 F1500 X124.8 Y119.1 E26.12054
G1 X97.944 Y119.1 E27.46039
G1 X97.858 Y119.042 E27.46557
G1 X97.802 Y118.935 E27.47159
G1 X97.8 Y117.931 E27.52168
G1 X97.88 Y117.84 E27.52773
G1 X97.982 Y117.8 E27.5332
G1 X124.8 Y117.8 E28.87115
G1 X124.8 Y115.2 E29.00087
G1 X97.982 Y115.2 E30.33882
G1 X97.88 Y115.16 E30.34429
G1 X97.802 Y115.035 E30.35164
G1 X97.8 Y104.931 E30.85573
G1 X97.88 Y104.84 E30.86177
G1 X97.982 Y104.8 E30.86724
G1 X124.8 Y104.8 E32.20519
G1 X124.8 Y102.2 E32.33491
G1 X97.982 Y102.2 E33.67286
G1 X97.88 Y102.16 E33.67833
G1 X97.802 Y102.035 E33.68568
G1 X97.8 Y101.044 E33.73512
G1 X97.858 Y100.958 E33.7403
G1 X97.965 Y100.902 E33.74632
G1 X124.8 Y100.9 E35.08513
G1 X124.8 Y98.3 E35.21484
G1 X95.2 Y98.3 E36.69159
G1 X95.2 Y121.7 E37.85902
G1 X124.8 Y121.7 E39.33577
G0 F7500 X124.8 Y121.5
G0 X124.04 Y120.94
;TYPE:SKIN
G1 F1500 X95.96 Y120.94 E40.73669
G1 X95.96 Y99.06 E41.82829
G1 X124.04 Y99.06 E43.2292
G1 X124.04 Y100.14 E43.28308
G1 X97.868 Y100.142 E44.58881
G1 X97.589 Y100.234 E44.60347
G1 X97.319 Y100.422 E44.61988
G1 X97.113 Y100.717 E44.63783
G1 X97.044 Y101.061 E44.65534
G1 X97.042 Y102.136 E44.70897
G1 X97.151 Y102.46 E44.72602
G1 X97.425 Y102.768 E44.74659
G1 X97.634 Y102.888 E44.75861
G1 X97.918 Y102.958 E44.77321
G1 X124.04 Y102.96 E46.07644
G1 X124.04 Y104.04 E46.13032
G1 X97.918 Y104.042 E47.43355
G1 X97.69 Y104.091 E47.44519
G1 X97.418 Y104.232 E47.46047
G1 X97.145 Y104.548 E47.48131
G1 X97.045 Y104.956 E47.50226
G1 X97.042 Y115.136 E48.01015
G1 X97.151 Y115.46 E48.0272
G1 X97.425 Y115.768 E48.04777
G1 X97.634 Y115.888 E48.05979
G1 X97.918 Y115.958 E48.07438
G1 X124.04 Y115.96 E49.37761
G1 X124.04 Y117.04 E49.4315
G1 X97.918 Y117.042 E50.73473
G1 X97.69 Y117.091 E50.74636
G1 X97.418 Y117.232 E50.76165
G1 X97.145 Y117.548 E50.78248
G1 X97.045 Y117.956 E50.80344
G1 X97.042 Y119.032 E50.85712
G1 X97.134 Y119.311 E50.87178
G1 X97.322 Y119.581 E50.88819
G1 X97.617 Y119.787 E50.90614
G1 X97.961 Y119.856 E50.92365
G1 X124.04 Y119.86 E52.22473
G1 X124.04 Y120.94 E52.27862
G1 F2700 E45.77862
G0 F7500 X124.3 Y120.94
G0 X124.3 Y119.34
G0 X97.572 Y119.328
G0 X97.572 Y117.572
G0 X124.3 Y117.56
G0 X124.3 Y115.44
G0 X97.572 Y115.428
G0 X97.572 Y104.572
G0 X124.3 Y104.56
G0 X124.3 Y102.44
G0 X97.572 Y102.428
G0 X97.572 Y100.672
G0 X124.3 Y100.66
G0 X124.3 Y99.514
G0 X123.839 Y99.514
G1 F2700 E52.27862
G1 F1500 X123.584 Y99.26 E52.29657
G0 F7500 X123.018 Y99.26
G1 F1500 X123.699 Y99.94 E52.34458
G0 F7500 X123.133 Y99.94
G1 F1500 X122.453 Y99.26 E52.39256
G0 F7500 X121.887 Y99.26
G1 F1500 X122.567 Y99.94 E52.44054
G0 F7500 X122.002 Y99.94
G1 F1500 X121.321 Y99.26 E52.48855
G0 F7500 X120.756 Y99.26
G1 F1500 X121.436 Y99.94 E52.53653
G0 F7500 X120.87 Y99.94
G1 F1500 X120.19 Y99.26 E52.58451
G0 F7500 X119.624 Y99.26
G1 F1500 X120.305 Y99.94 E52.63252
G0 F7500 X119.739 Y99.94
G1 F1500 X119.059 Y99.26 E52.6805
G0 F7500 X118.493 Y99.26
G1 F1500 X119.173 Y99.94 E52.72848
G0 F7500 X118.608 Y99.941
G1 F1500 X117.927 Y99.26 E52.77652
G0 F7500 X117.362 Y99.26
G1 F1500 X118.042 Y99.941 E52.82454
G0 F7500 X117.477 Y99.941
G1 F1500 X116.796 Y99.26 E52.87259
G0 F7500 X116.23 Y99.26
G1 F1500 X116.911 Y99.941 E52.92063
G0 F7500 X116.345 Y99.941
G1 F1500 X115.664 Y99.26 E52.96868
G0 F7500 X115.099 Y99.26
G1 F1500 X115.78 Y99.941 E53.01673
G0 F7500 X115.214 Y99.941
G1 F1500 X114.533 Y99.26 E53.06478
G0 F7500 X113.967 Y99.26
G1 F1500 X114.648 Y99.941 E53.11283
G0 F7500 X114.083 Y99.941
G1 F1500 X113.402 Y99.26 E53.16088
G0 F7500 X112.836 Y99.26
G1 F1500 X113.517 Y99.941 E53.20892
G0 F7500 X112.952 Y99.941
G1 F1500 X112.27 Y99.26 E53.25701
G0 F7500 X111.705 Y99.26
G1 F1500 X112.386 Y99.941 E53.30506
G0 F7500 X111.821 Y99.941
G1 F1500 X111.139 Y99.26 E53.35314
G0 F7500 X110.573 Y99.26
G1 F1500 X111.255 Y99.941 E53.40122
G0 F7500 X110.689 Y99.941
G1 F1500 X110.008 Y99.26 E53.44927
G0 F7500 X109.442 Y99.26
G1 F1500 X110.124 Y99.941 E53.49735
G0 F7500 X109.558 Y99.941
G1 F1500 X108.876 Y99.26 E53.54544
G0 F7500 X108.311 Y99.26
G1 F1500 X108.992 Y99.941 E53.59349
G0 F7500 X108.427 Y99.941
G1 F1500 X107.745 Y99.26 E53.64157
G0 F7500 X107.179 Y99.26
G1 F1500 X107.862 Y99.942 E53.68972
G0 F7500 X107.296 Y99.942
G1 F1500 X106.614 Y99.26 E53.73784
G0 F7500 X106.048 Y99.26
G1 F1500 X106.73 Y99.942 E53.78596
G0 F7500 X106.165 Y99.942
G1 F1500 X105.482 Y99.26 E53.83411
G0 F7500 X104.916 Y99.26
G1 F1500 X105.599 Y99.942 E53.88227
G0 F7500 X105.033 Y99.942
G1 F1500 X104.351 Y99.26 E53.93039
G0 F7500 X103.785 Y99.26
G1 F1500 X104.467 Y99.942 E53.97851
G0 F7500 X103.902 Y99.942
G1 F1500 X103.219 Y99.26 E54.02666
G0 F7500 X102.654 Y99.26
G1 F1500 X103.336 Y99.942 E54.07478
G0 F7500 X102.771 Y99.943
G1 F1500 X102.088 Y99.26 E54.12297
G0 F7500 X101.522 Y99.26
G1 F1500 X102.205 Y99.943 E54.17116
G0 F7500 X101.64 Y99.943
G1 F1500 X100.957 Y99.26 E54.21935
G0 F7500 X100.391 Y99.26
G1 F1500 X101.074 Y99.943 E54.26754
G0 F7500 X100.508 Y99.943
G1 F1500 X99.825 Y99.26 E54.31573
G0 F7500 X99.26 Y99.26
G1 F1500 X99.943 Y99.943 E54.36392
G0 F7500 X99.377 Y99.943
G1 F1500 X98.694 Y99.26 E54.4121
G0 F7500 X98.128 Y99.26
G1 F1500 X98.811 Y99.943 E54.46029
G0 F7500 X98.246 Y99.943
G1 F1500 X97.563 Y99.26 E54.50848
G0 F7500 X96.997 Y99.26
G1 F1500 X97.715 Y99.977 E54.55911
G0 F7500 X97.336 Y100.165
G1 F1500 X96.431 Y99.26 E54.62296
G0 F7500 X96.159 Y99.553
G1 F1500 X97.056 Y100.45 E54.68625
G0 F7500 X96.883 Y100.843
G1 F1500 X96.159 Y100.119 E54.73733
G0 F7500 X96.159 Y100.684
G1 F1500 X96.841 Y101.366 E54.78545
G0 F7500 X96.843 Y101.935
G1 F1500 X96.159 Y101.25 E54.83374
G0 F7500 X96.159 Y101.816
G1 F1500 X98.184 Y103.841 E54.97662
G0 F7500 X97.667 Y103.89
G1 F1500 X96.159 Y102.381 E55.08305
G0 F7500 X96.159 Y102.947
G1 F1500 X97.29 Y104.079 E55.16288
G0 F7500 X97.025 Y104.379
G1 F1500 X96.159 Y103.513 E55.22399
G0 F7500 X96.159 Y104.079
G1 F1500 X96.878 Y104.798 E55.27472
G0 F7500 X96.841 Y105.326
G1 F1500 X96.159 Y104.644 E55.32283
G0 F7500 X96.159 Y105.21
G1 F1500 X96.841 Y105.892 E55.37095
G0 F7500 X96.841 Y106.458
G1 F1500 X96.159 Y105.776 E55.41907
G0 F7500 X96.159 Y106.341
G1 F1500 X96.841 Y107.024 E55.46723
G0 F7500 X96.841 Y107.589
G1 F1500 X96.159 Y106.907 E55.51534
G0 F7500 X96.159 Y107.473
G1 F1500 X96.842 Y108.156 E55.56353
G0 F7500 X96.842 Y108.721
G1 F1500 X96.159 Y108.038 E55.61172
G0 F7500 X96.159 Y108.604
G1 F1500 X96.842 Y109.287 E55.65991
G0 F7500 X96.843 Y109.853
G1 F1500 X96.159 Y109.17 E55.70814
G0 F7500 X96.159 Y109.735
G1 F1500 X96.843 Y110.419 E55.7564
G0 F7500 X96.843 Y110.986
G1 F1500 X96.159 Y110.301 E55.80469
G0 F7500 X96.159 Y110.867
G1 F1500 X96.843 Y111.551 E55.85295
G0 F7500 X96.843 Y112.117
G1 F1500 X96.159 Y111.432 E55.90125
G0 F7500 X96.159 Y111.998
G1 F1500 X96.844 Y112.683 E55.94958
G0 F7500 X96.844 Y113.249
G1 F1500 X96.159 Y112.564 E55.99791
G0 F7500 X96.159 Y113.13
G1 F1500 X96.845 Y113.815 E56.04627
G0 F7500 X96.845 Y114.381
G1 F1500 X96.159 Y113.695 E56.09467
G0 F7500 X96.159 Y114.261
G1 F1500 X96.845 Y114.947 E56.14308
G0 F7500 X96.159 Y114.827
G1 F1500 X98.173 Y116.841 E56.28517
G0 F7500 X97.659 Y116.892
G1 F1500 X96.159 Y115.392 E56.39101
G0 F7500 X96.159 Y115.958
G1 F1500 X97.283 Y117.082 E56.47031
G0 F7500 X97.022 Y117.386
G1 F1500 X96.159 Y116.524 E56.53117
G0 F7500 X96.159 Y117.089
G1 F1500 X96.876 Y117.806 E56.58175
G0 F7500 X96.842 Y118.338
G1 F1500 X96.159 Y117.655 E56.62994
G0 F7500 X96.159 Y118.221
G1 F1500 X96.844 Y118.906 E56.67827
G0 F7500 X96.159 Y118.786
G1 F1500 X98.111 Y120.739 E56.81603
G0 F7500 X97.546 Y120.739
G1 F1500 X96.159 Y119.352 E56.91389
G0 F7500 X96.159 Y119.918
G1 F1500 X96.98 Y120.739 E56.97182
G0 F7500 X96.414 Y120.739
G1 F1500 X96.159 Y120.483 E56.98985
G1 F2700 E50.48985
G0 F7500 X95.7 Y120.483
G0 X95.772 Y121.128
G0 X124.228 Y121.128
G0 X124.228 Y119.672
G0 X98.01 Y119.601
G0 X97.998 Y120.06
G1 F2700 E56.98985
G1 F1500 X98.677 Y120.739 E57.03775
G0 F7500 X99.243 Y120.739
G1 F1500 X98.564 Y120.06 E57.08566
G0 F7500 X99.13 Y120.06
G1 F1500 X99.808 Y120.739 E57.13353
G0 F7500 X100.374 Y120.739
G1 F1500 X99.695 Y120.06 E57.18144
G0 F7500 X100.261 Y120.06
G1 F1500 X100.94 Y120.739 E57.22935
G0 F7500 X101.505 Y120.739
G1 F1500 X100.827 Y120.06 E57.27722
G0 F7500 X101.392 Y120.06
G1 F1500 X102.071 Y120.739 E57.32513
G0 F7500 X102.637 Y120.739
G1 F1500 X101.958 Y120.06 E57.37303
G0 F7500 X102.524 Y120.06
G1 F1500 X103.202 Y120.739 E57.4209
G0 F7500 X103.768 Y120.739
G1 F1500 X103.089 Y120.06 E57.46881
G0 F7500 X103.655 Y120.06
G1 F1500 X104.334 Y120.739 E57.51672
G0 F7500 X104.899 Y120.739
G1 F1500 X104.221 Y120.06 E57.56459
G0 F7500 X104.786 Y120.06
G1 F1500 X105.465 Y120.739 E57.6125
G0 F7500 X106.031 Y120.739
G1 F1500 X105.352 Y120.06 E57.66041
G0 F7500 X105.918 Y120.06
G1 F1500 X106.597 Y120.739 E57.70831
G0 F7500 X107.162 Y120.739
G1 F1500 X106.483 Y120.06 E57.75622
G0 F7500 X107.049 Y120.06
G1 F1500 X107.728 Y120.739 E57.80413
G0 F7500 X108.294 Y120.739
G1 F1500 X107.615 Y120.06 E57.85203
G0 F7500 X108.18 Y120.06
G1 F1500 X108.859 Y120.739 E57.89994
G0 F7500 X109.425 Y120.739
G1 F1500 X108.746 Y120.06 E57.94785
G0 F7500 X109.312 Y120.06
G1 F1500 X109.991 Y120.739 E57.99575
G0 F7500 X110.556 Y120.739
G1 F1500 X109.878 Y120.06 E58.04363
G0 F7500 X110.443 Y120.06
G1 F1500 X111.122 Y120.739 E58.09153
G0 F7500 X111.688 Y120.739
G1 F1500 X111.009 Y120.06 E58.13944
G0 F7500 X111.575 Y120.06
G1 F1500 X112.253 Y120.739 E58.18731
G0 F7500 X112.819 Y120.739
G1 F1500 X112.14 Y120.06 E58.23522
G0 F7500 X112.706 Y120.06
G1 F1500 X113.385 Y120.739 E58.28313
G0 F7500 X113.95 Y120.739
G1 F1500 X113.272 Y120.06 E58.331
G0 F7500 X113.837 Y120.06
G1 F1500 X114.516 Y120.739 E58.37891
G0 F7500 X115.082 Y120.739
G1 F1500 X114.403 Y120.06 E58.42681
G0 F7500 X114.969 Y120.06
G1 F1500 X115.648 Y120.739 E58.47472
G0 F7500 X116.213 Y120.739
G1 F1500 X115.534 Y120.06 E58.52263
G0 F7500 X116.1 Y120.06
G1 F1500 X116.779 Y120.739 E58.57053
G0 F7500 X117.345 Y120.739
G1 F1500 X116.666 Y120.06 E58.61844
G0 F7500 X117.231 Y120.06
G1 F1500 X117.91 Y120.739 E58.66635
G0 F7500 X118.476 Y120.739
G1 F1500 X117.797 Y120.06 E58.71426
G0 F7500 X118.363 Y120.06
G1 F1500 X119.042 Y120.739 E58.76216
G0 F7500 X119.607 Y120.739
G1 F1500 X118.928 Y120.06 E58.81007
G0 F7500 X119.494 Y120.06
G1 F1500 X120.173 Y120.739 E58.85798
G0 F7500 X120.739 Y120.739
G1 F1500 X120.06 Y120.06 E58.90588
G0 F7500 X120.626 Y120.06
G1 F1500 X121.304 Y120.739 E58.95376
G0 F7500 X121.87 Y120.739
G1 F1500 X121.191 Y120.06 E59.00166
G0 F7500 X121.757 Y120.06
G1 F1500 X122.436 Y120.739 E59.04957
G0 F7500 X123.001 Y120.739
G1 F1500 X122.323 Y120.06 E59.09744
G0 F7500 X122.888 Y120.06
G1 F1500 X123.567 Y120.739 E59.14535
G0 F7500 X123.839 Y120.445
G1 F1500 X123.454 Y120.06 E59.17251
G1 F2700 E52.67251
G0 F7500 X123.454 Y119.6
G0 X97.572 Y119.328
G0 X97.572 Y117.572
G0 X123.628 Y117.301
G0 X123.628 Y116.84
G1 F2700 E59.17251
G1 F1500 X122.948 Y116.159 E59.22053
G0 F7500 X123.513 Y116.159
G1 F1500 X123.839 Y116.485 E59.24353
G0 F7500 X123.062 Y116.84
G1 F1500 X122.382 Y116.159 E59.29154
G0 F7500 X121.816 Y116.159
