;FLAVOR:Marlin
;TIME:2094
;Filament used: 0.938864m
;Layer height: 0.15
;MINX:96
;MINY:96.6
;MINZ:0.3
;MAXX:124
;MAXY:123.4
;MAXZ:10.05
;Generated with Cura_SteamEngine 5.4.0
M140 S60
M105
M190 S60
M104 S195
M105
M109 S195
M82 ;absolute extrusion mode
G28 ;Home
G1 Z15.0 F2000 ;Move the platform
G92 E0
G92 E0
G1 F2700 E-6.5
;LAYER_COUNT:66
;LAYER:0
M107
M204 S1000
G0 F7500 X97.284 Y97.684 Z0.3
;TYPE:SKIRT
G1 F2700 E0
G1 F1500 X97.779 Y97.291 E0.03153
G1 X98.325 Y96.982 E0.06283
G1 X98.857 Y96.78 E0.09122
G1 X99.517 Y96.64 E0.12488
G1 X99.897 Y96.61 E0.1439
G1 X100.24 Y96.601 E0.16102
G1 X119.351 Y96.6 E1.11447
G1 X120.083 Y96.612 E1.15099
G1 X120.743 Y96.683 E1.18411
G1 X121.293 Y96.829 E1.2125
G1 X121.867 Y97.079 E1.24374
G1 X122.348 Y97.381 E1.27207
G1 X122.92 Y97.889 E1.31024
G1 X123.31 Y98.382 E1.3416
G1 X123.62 Y98.933 E1.37314
G1 X123.838 Y99.524 E1.40457
G1 X123.961 Y100.122 E1.43503
G1 X123.99 Y100.498 E1.45384
G1 X123.999 Y100.84 E1.47091
G1 X124 Y106.841 E1.7703
G1 X123.973 Y108.742 E1.86515
G1 X123.973 Y111.489 E2.0022
G1 X123.999 Y112.703 E2.06278
G1 X124 Y118.72 E2.36297
G1 X123.988 Y119.481 E2.40094
G1 X123.917 Y120.141 E2.43406
G1 X123.75 Y120.749 E2.46552
G1 X123.489 Y121.325 E2.49707
G1 X123.141 Y121.851 E2.52853
G1 X122.715 Y122.317 E2.56003
G1 X122.273 Y122.672 E2.58831
G1 X121.674 Y123.018 E2.62283
G1 X121.142 Y123.22 E2.65122
G1 X120.481 Y123.36 E2.68493
G1 X120.102 Y123.39 E2.70389
G1 X119.76 Y123.399 E2.72096
G1 X100.656 Y123.4 E3.67406
G1 X99.924 Y123.389 E3.71059
G1 X99.262 Y123.319 E3.7438
G1 X98.653 Y123.152 E3.7753
G1 X98.078 Y122.891 E3.80681
G1 X97.551 Y122.544 E3.83829
G1 X97.085 Y122.117 E3.86982
G1 X96.692 Y121.622 E3.90135
G1 X96.382 Y121.073 E3.93281
G1 X96.163 Y120.481 E3.9643
G1 X96.04 Y119.885 E3.99466
G1 X96.01 Y119.498 E4.01402
G1 X96.001 Y119.144 E4.03169
G1 X96 Y101.221 E4.92587
G1 X96.011 Y100.521 E4.9608
G1 X96.082 Y99.859 E4.99402
G1 X96.249 Y99.252 E5.02543
G1 X96.509 Y98.677 E5.05691
G1 X96.858 Y98.149 E5.08849
G1 X97.284 Y97.684 E5.11995
G0 F7500 X97.535 Y97.995
G1 F1500 X97.978 Y97.638 E5.14833
G1 X98.471 Y97.355 E5.17669
G1 X98.942 Y97.171 E5.20192
G1 X99.549 Y97.039 E5.23291
G1 X99.908 Y97.01 E5.25088
G1 X100.24 Y97.001 E5.26745
G1 X119.345 Y97 E6.2206
G1 X120.043 Y97.01 E6.25543
G1 X120.64 Y97.07 E6.28536
G1 X121.19 Y97.216 E6.31375
G1 X121.654 Y97.418 E6.339
G1 X122.135 Y97.72 E6.36734
G1 X122.608 Y98.139 E6.39886
G1 X122.963 Y98.581 E6.42715
G1 X123.246 Y99.075 E6.45555
G1 X123.447 Y99.606 E6.48388
G1 X123.562 Y100.153 E6.51176
G1 X123.59 Y100.509 E6.52958
G1 X123.599 Y100.84 E6.5461
G1 X123.6 Y106.835 E6.84519
G1 X123.573 Y108.736 E6.94004
G1 X123.573 Y111.489 E7.07739
G1 X123.599 Y112.703 E7.13797
G1 X123.6 Y118.714 E7.43786
G1 X123.59 Y119.441 E7.47413
G1 X123.53 Y120.038 E7.50407
G1 X123.384 Y120.587 E7.53241
G1 X123.153 Y121.107 E7.5608
G1 X122.844 Y121.583 E7.58911
G1 X122.462 Y122.007 E7.61758
G1 X122.071 Y122.327 E7.64279
G1 X121.528 Y122.645 E7.67418
G1 X121.057 Y122.829 E7.69941
G1 X120.449 Y122.961 E7.73045
G1 X120.091 Y122.99 E7.74837
G1 X119.76 Y122.999 E7.76489
G1 X100.661 Y123 E8.71774
G1 X99.963 Y122.991 E8.75257
G1 X99.365 Y122.932 E8.78255
G1 X98.815 Y122.786 E8.81094
G1 X98.295 Y122.555 E8.83933
G1 X97.819 Y122.247 E8.86761
G1 X97.396 Y121.866 E8.89601
G1 X97.039 Y121.423 E8.9244
G1 X96.756 Y120.931 E8.95271
G1 X96.554 Y120.399 E8.9811
G1 X96.439 Y119.853 E9.00894
G1 X96.41 Y119.488 E9.02721
G1 X96.401 Y119.144 E9.04438
G1 X96.4 Y101.226 E9.93831
G1 X96.409 Y100.561 E9.97149
G1 X96.469 Y99.962 E10.00152
G1 X96.615 Y99.414 E10.02982
G1 X96.845 Y98.895 E10.05814
G1 X97.155 Y98.417 E10.08656
G1 X97.535 Y97.995 E10.11489
G0 F7500 X97.789 Y98.304
G1 F1500 X98.18 Y97.983 E10.14013
G1 X98.617 Y97.728 E10.16538
G1 X99.088 Y97.544 E10.1906
G1 X99.582 Y97.438 E10.21581
G1 X99.919 Y97.41 E10.23268
G1 X100.24 Y97.401 E10.2487
G1 X119.339 Y97.4 E11.20156
G1 X120.037 Y97.41 E11.23638
G1 X120.54 Y97.457 E11.26159
G1 X121.03 Y97.583 E11.28683
G1 X121.494 Y97.785 E11.31208
G1 X121.92 Y98.057 E11.33729
G1 X122.298 Y98.392 E11.36249
G1 X122.618 Y98.783 E11.3877
G1 X122.873 Y99.22 E11.41294
G1 X123.056 Y99.691 E11.43815
G1 X123.163 Y100.185 E11.46337
G1 X123.19 Y100.52 E11.48013
G1 X123.199 Y100.84 E11.49611
G1 X123.2 Y106.829 E11.7949
G1 X123.173 Y108.73 E11.88975
G1 X123.173 Y111.489 E12.0274
G1 X123.199 Y112.703 E12.08798
G1 X123.2 Y118.708 E12.38757
G1 X123.19 Y119.435 E12.42384
G1 X123.143 Y119.938 E12.44904
G1 X123.017 Y120.428 E12.47429
G1 X122.816 Y120.892 E12.49951
G1 X122.544 Y121.318 E12.52473
G1 X122.209 Y121.697 E12.54997
G1 X121.818 Y122.017 E12.57517
G1 X121.382 Y122.272 E12.60037
G1 X120.911 Y122.456 E12.6256
G1 X120.416 Y122.562 E12.65086
G1 X120.08 Y122.59 E12.66768
G1 X119.76 Y122.599 E12.68365
G1 X100.666 Y122.6 E13.63625
G1 X99.968 Y122.591 E13.67108
G1 X99.464 Y122.544 E13.69633
G1 X98.974 Y122.419 E13.72156
G1 X98.51 Y122.218 E13.74679
G1 X98.084 Y121.947 E13.77198
G1 X97.705 Y121.612 E13.79721
G1 X97.384 Y121.221 E13.82245
G1 X97.129 Y120.785 E13.84765
G1 X96.945 Y120.314 E13.87288
G1 X96.838 Y119.82 E13.8981
G1 X96.81 Y119.477 E13.91527
G1 X96.801 Y119.144 E13.93189
G1 X96.8 Y101.231 E14.82557
G1 X96.809 Y100.566 E14.85875
G1 X96.856 Y100.062 E14.884
G1 X96.982 Y99.573 E14.9092
G1 X97.183 Y99.109 E14.93442
G1 X97.454 Y98.682 E14.95965
G1 X97.789 Y98.304 E14.98485
G1 F2700 E8.48485
;MESH:holder.stl
G0 F7500 X100.414 Y99.935
G0 X119.4 Y118.8
;TYPE:WALL-INNER
G1 F2700 E14.98485
G1 F1500 X119.4 Y117 E15.07466
G1 X103 Y117 E15.89285
G1 X102.761 Y116.951 E15.90503
G1 X102.575 Y116.825 E15.91624
G1 X102.449 Y116.639 E15.92744
G1 X102.4 Y116.478 E15.93584
G1 X102.4 Y115.5 E15.98463
G1 X102.47 Y115.217 E15.99918
G1 X102.64 Y115.02 E16.01216
G1 X102.947 Y114.901 E16.02859
G1 X119.4 Y114.9 E16.84943
G1 X119.4 Y113.1 E16.93923
G1 X102.947 Y113.099 E17.76007
G1 X102.64 Y112.98 E17.7765
G1 X102.47 Y112.783 E17.78948
G1 X102.4 Y112.581 E17.80015
G1 X102.4 Y107.5 E18.05364
G1 X102.47 Y107.217 E18.06819
G1 X102.64 Y107.02 E18.08117
G1 X102.947 Y106.901 E18.09759
G1 X119.4 Y106.9 E18.91844
G1 X119.4 Y105.1 E19.00824
G1 X102.947 Y105.099 E19.82908
G1 X102.64 Y104.98 E19.84551
G1 X102.47 Y104.783 E19.85849
G1 X102.4 Y104.581 E19.86916
G1 X102.4 Y103.6 E19.9181
G1 X102.449 Y103.361 E19.93027
G1 X102.575 Y103.175 E19.94148
G1 X102.761 Y103.049 E19.95269
G1 X102.922 Y103 E19.96108
G1 X119.4 Y103 E20.78318
G1 X119.4 Y101.2 E20.87298
G1 X100.6 Y101.2 E21.81091
G1 X100.6 Y118.8 E22.68898
G1 X119.4 Y118.8 E23.62692
G0 F7500 X119.8 Y119.2
;TYPE:WALL-OUTER
G1 F1500 X119.8 Y116.6 E23.75663
G1 X102.944 Y116.6 E24.59758
G1 X102.858 Y116.542 E24.60276
G1 X102.802 Y116.435 E24.60878
G1 X102.8 Y115.431 E24.65887
G1 X102.88 Y115.34 E24.66492
G1 X102.982 Y115.3 E24.67038
G1 X119.8 Y115.3 E25.50944
G1 X119.8 Y112.7 E25.63915
G1 X102.982 Y112.7 E26.4782
G1 X102.88 Y112.66 E26.48367
G1 X102.802 Y112.535 E26.49102
G1 X102.8 Y107.431 E26.74566
G1 X102.88 Y107.34 E26.7517
G1 X102.982 Y107.3 E26.75717
G1 X119.8 Y107.3 E27.59622
G1 X119.8 Y104.7 E27.72594
G1 X102.982 Y104.7 E28.56499
G1 X102.88 Y104.66 E28.57046
G1 X102.802 Y104.535 E28.57781
G1 X102.8 Y103.544 E28.62725
G1 X102.858 Y103.458 E28.63243
G1 X102.965 Y103.402 E28.63845
G1 X119.8 Y103.4 E29.47835
G1 X119.8 Y100.8 E29.60807
G1 X100.2 Y100.8 E30.58591
G1 X100.2 Y119.2 E31.50389
G1 X119.8 Y119.2 E32.48174
G0 F7500 X119.8 Y119
G0 X119.04 Y118.44
;TYPE:SKIN
G1 F1500 X100.96 Y118.44 E33.38376
G1 X100.96 Y101.56 E34.2259
G1 X119.04 Y101.56 E35.12792
G1 X119.04 Y102.64 E35.1818
G1 X102.868 Y102.642 E35.98862
G1 X102.589 Y102.734 E36.00328
G1 X102.319 Y102.922 E36.0197
G1 X102.113 Y103.217 E36.03765
G1 X102.044 Y103.561 E36.05515
G1 X102.042 Y104.636 E36.10878
G1 X102.151 Y104.96 E36.12584
G1 X102.425 Y105.268 E36.1464
G1 X102.634 Y105.388 E36.15843
G1 X102.918 Y105.458 E36.17302
G1 X119.04 Y105.46 E36.97735
G1 X119.04 Y106.54 E37.03123
G1 X102.918 Y106.542 E37.83556
G1 X102.69 Y106.591 E37.8472
G1 X102.418 Y106.732 E37.86248
G1 X102.145 Y107.048 E37.88331
G1 X102.045 Y107.456 E37.90427
G1 X102.042 Y112.636 E38.1627
G1 X102.151 Y112.96 E38.17976
G1 X102.425 Y113.268 E38.20032
G1 X102.634 Y113.388 E38.21235
G1 X102.918 Y113.458 E38.22694
G1 X119.04 Y113.46 E39.03127
G1 X119.04 Y114.54 E39.08515
G1 X102.918 Y114.542 E39.88948
G1 X102.69 Y114.591 E39.90112
G1 X102.418 Y114.732 E39.9164
G1 X102.145 Y115.048 E39.93724
G1 X102.045 Y115.456 E39.95819
G1 X102.042 Y116.532 E40.01188
G1 X102.134 Y116.811 E40.02653
G1 X102.322 Y117.081 E40.04295
G1 X102.617 Y117.287 E40.0609
G1 X102.961 Y117.356 E40.0784
G1 X119.04 Y117.36 E40.88059
G1 X119.04 Y118.44 E40.93447
G1 F2700 E34.43447
G0 F7500 X119.3 Y118.44
G0 X119.3 Y116.84
G0 X102.572 Y116.828
G0 X102.572 Y115.072
G0 X119.3 Y115.06
G0 X119.3 Y112.94
G0 X102.572 Y112.928
G0 X102.572 Y107.072
G0 X119.3 Y107.06
G0 X119.3 Y104.94
G0 X102.572 Y104.928
G0 X102.572 Y103.172
G0 X119.3 Y103.16
G0 X119.3 Y101.868
G0 X118.839 Y101.868
G1 F2700 E40.93447
G1 F1500 X118.73 Y101.759 E40.94216
G0 F7500 X118.164 Y101.759
G1 F1500 X118.839 Y102.434 E40.98978
G0 F7500 X118.279 Y102.439
G1 F1500 X117.598 Y101.759 E41.0378
G0 F7500 X117.033 Y101.759
G1 F1500 X117.713 Y102.439 E41.08577
G0 F7500 X117.147 Y102.439
G1 F1500 X116.467 Y101.759 E41.13375
G0 F7500 X115.901 Y101.759
G1 F1500 X116.582 Y102.439 E41.18176
G0 F7500 X116.017 Y102.44
G1 F1500 X115.336 Y101.759 E41.22981
G0 F7500 X114.77 Y101.759
G1 F1500 X115.451 Y102.44 E41.27786
G0 F7500 X114.885 Y102.44
G1 F1500 X114.204 Y101.759 E41.32591
G0 F7500 X113.639 Y101.759
G1 F1500 X114.32 Y102.44 E41.37396
G0 F7500 X113.755 Y102.441
G1 F1500 X113.073 Y101.759 E41.42208
G0 F7500 X112.507 Y101.759
G1 F1500 X113.189 Y102.441 E41.47019
G0 F7500 X112.623 Y102.441
G1 F1500 X111.942 Y101.759 E41.51828
G0 F7500 X111.376 Y101.759
G1 F1500 X112.058 Y102.441 E41.5664
G0 F7500 X111.493 Y102.442
G1 F1500 X110.81 Y101.759 E41.61459
G0 F7500 X110.245 Y101.759
G1 F1500 X110.927 Y102.442 E41.66274
G0 F7500 X110.361 Y102.442
G1 F1500 X109.679 Y101.759 E41.71089
G0 F7500 X109.113 Y101.759
G1 F1500 X109.796 Y102.442 E41.75908
G0 F7500 X109.231 Y102.442
G1 F1500 X108.547 Y101.759 E41.80731
G0 F7500 X107.982 Y101.759
G1 F1500 X108.665 Y102.442 E41.8555
G0 F7500 X108.099 Y102.442
G1 F1500 X107.416 Y101.759 E41.90369
G0 F7500 X106.85 Y101.759
G1 F1500 X107.533 Y102.442 E41.95188
G0 F7500 X106.968 Y102.443
G1 F1500 X106.285 Y101.759 E42.0001
G0 F7500 X105.719 Y101.759
G1 F1500 X106.403 Y102.443 E42.04836
G0 F7500 X105.837 Y102.443
G1 F1500 X105.153 Y101.759 E42.09662
G0 F7500 X104.588 Y101.759
G1 F1500 X105.271 Y102.443 E42.14485
G0 F7500 X104.706 Y102.444
G1 F1500 X104.022 Y101.759 E42.19314
G0 F7500 X103.456 Y101.759
G1 F1500 X104.141 Y102.444 E42.24147
G0 F7500 X103.575 Y102.444
G1 F1500 X102.891 Y101.759 E42.28977
G0 F7500 X102.325 Y101.759
G1 F1500 X103.009 Y102.444 E42.33806
G0 F7500 X102.53 Y102.53
G1 F1500 X101.759 Y101.759 E42.39246
G0 F7500 X101.194 Y101.759
G1 F1500 X102.198 Y102.764 E42.46333
G0 F7500 X101.958 Y103.089
G1 F1500 X101.16 Y102.291 E42.51964
G0 F7500 X101.16 Y102.857
G1 F1500 X101.844 Y103.541 E42.5679
G0 F7500 X101.843 Y104.105
G1 F1500 X101.16 Y103.422 E42.61608
G0 F7500 X101.16 Y103.988
G1 F1500 X101.847 Y104.675 E42.66456
G0 F7500 X101.16 Y104.554
G1 F1500 X102.946 Y106.341 E42.7906
G0 F7500 X102.499 Y106.459
G1 F1500 X101.16 Y105.119 E42.88511
G0 F7500 X101.16 Y105.685
G1 F1500 X102.178 Y106.703 E42.95694
G0 F7500 X101.944 Y107.036
G1 F1500 X101.16 Y106.251 E43.01229
G0 F7500 X101.16 Y106.816
G1 F1500 X101.841 Y107.497 E43.06034
G0 F7500 X101.841 Y108.063
G1 F1500 X101.16 Y107.382 E43.10839
G0 F7500 X101.16 Y107.948
G1 F1500 X101.841 Y108.629 E43.15643
G0 F7500 X101.842 Y109.196
G1 F1500 X101.16 Y108.514 E43.20455
G0 F7500 X101.16 Y109.079
G1 F1500 X101.843 Y109.762 E43.25274
G0 F7500 X101.843 Y110.328
G1 F1500 X101.16 Y109.645 E43.30093
G0 F7500 X101.16 Y110.211
G1 F1500 X101.843 Y110.894 E43.34912
G0 F7500 X101.844 Y111.461
G1 F1500 X101.16 Y110.776 E43.39742
G0 F7500 X101.16 Y111.342
G1 F1500 X101.845 Y112.027 E43.44575
G0 F7500 X101.845 Y112.593
G1 F1500 X101.16 Y111.908 E43.49408
G0 F7500 X101.16 Y112.473
G1 F1500 X103.027 Y114.341 E43.62584
G0 F7500 X102.55 Y114.429
G1 F1500 X101.16 Y113.039 E43.72391
G0 F7500 X101.16 Y113.605
G1 F1500 X102.215 Y114.66 E43.79835
G0 F7500 X101.972 Y114.983
G1 F1500 X101.16 Y114.17 E43.85567
G0 F7500 X101.16 Y114.736
G1 F1500 X101.848 Y115.424 E43.90421
G0 F7500 X101.842 Y115.984
G1 F1500 X101.16 Y115.302 E43.95233
G0 F7500 X101.16 Y115.867
G1 F1500 X101.844 Y116.552 E44.00063
G0 F7500 X101.16 Y116.433
G1 F1500 X102.966 Y118.239 E44.12805
G0 F7500 X103.531 Y118.239
G1 F1500 X102.824 Y117.532 E44.17793
G0 F7500 X103.417 Y117.56
G1 F1500 X104.097 Y118.239 E44.22588
G0 F7500 X104.663 Y118.239
G1 F1500 X103.983 Y117.56 E44.27382
G0 F7500 X104.549 Y117.56
G1 F1500 X105.228 Y118.239 E44.32173
G0 F7500 X105.794 Y118.239
G1 F1500 X105.114 Y117.56 E44.36967
G0 F7500 X105.68 Y117.56
G1 F1500 X106.36 Y118.239 E44.41761
G0 F7500 X106.925 Y118.239
G1 F1500 X106.246 Y117.56 E44.46552
G0 F7500 X106.812 Y117.56
G1 F1500 X107.491 Y118.239 E44.51343
G0 F7500 X108.057 Y118.239
G1 F1500 X107.377 Y117.56 E44.56137
G0 F7500 X107.943 Y117.56
G1 F1500 X108.622 Y118.239 E44.60928
G0 F7500 X109.188 Y118.239
G1 F1500 X108.509 Y117.56 E44.65718
G0 F7500 X109.074 Y117.56
G1 F1500 X109.754 Y118.239 E44.70512
G0 F7500 X110.319 Y118.239
G1 F1500 X109.64 Y117.56 E44.75303
G0 F7500 X110.206 Y117.56
G1 F1500 X110.885 Y118.239 E44.80094
G0 F7500 X111.451 Y118.239
G1 F1500 X110.771 Y117.56 E44.84888
G0 F7500 X111.337 Y117.56
G1 F1500 X112.017 Y118.239 E44.89682
G0 F7500 X112.582 Y118.239
G1 F1500 X111.903 Y117.56 E44.94473
G0 F7500 X112.468 Y117.56
G1 F1500 X113.148 Y118.239 E44.99267
G0 F7500 X113.714 Y118.239
G1 F1500 X113.034 Y117.56 E45.04062
G0 F7500 X113.6 Y117.56
G1 F1500 X114.279 Y118.239 E45.08852
G0 F7500 X114.845 Y118.239
G1 F1500 X114.165 Y117.56 E45.13647
G0 F7500 X114.731 Y117.56
G1 F1500 X115.411 Y118.239 E45.18441
G0 F7500 X115.976 Y118.239
G1 F1500 X115.297 Y117.56 E45.23231
G0 F7500 X115.862 Y117.56
G1 F1500 X116.542 Y118.239 E45.28026
G0 F7500 X117.108 Y118.239
G1 F1500 X116.428 Y117.56 E45.3282
G0 F7500 X116.994 Y117.56
G1 F1500 X117.673 Y118.239 E45.37611
G0 F7500 X118.239 Y118.239
G1 F1500 X117.56 Y117.56 E45.42401
G0 F7500 X118.125 Y117.56
G1 F1500 X118.805 Y118.239 E45.47196
G0 F7500 X118.839 Y117.708
G1 F1500 X118.691 Y117.56 E45.4824
G1 F2700 E38.9824
G0 F7500 X118.691 Y117.1
G0 X102.572 Y116.828
G0 X102.572 Y115.072
G0 X118.3 Y114.801
G0 X118.3 Y114.34
G1 F2700 E45.4824
G1 F1500 X117.62 Y113.66 E45.53038
G0 F7500 X118.185 Y113.66
G1 F1500 X118.839 Y114.313 E45.57648
G0 F7500 X118.839 Y113.748
G1 F1500 X118.751 Y113.66 E45.58269
G0 F7500 X118.752 Y113.2
G0 X119.228 Y113.272
G0 X119.228 Y114.728
G0 X117.734 Y114.801
G0 X117.734 Y114.34
G1 F1500 X117.054 Y113.66 E45.63067
G0 F7500 X116.488 Y113.66
G1 F1500 X117.169 Y114.34 E45.67868
G0 F7500 X116.603 Y114.34
G1 F1500 X115.922 Y113.659 E45.72673
G0 F7500 X115.356 Y113.659
G1 F1500 X116.037 Y114.34 E45.77478
G0 F7500 X115.471 Y114.34
G1 F1500 X114.791 Y113.659 E45.82279
G0 F7500 X114.225 Y113.659
G1 F1500 X114.906 Y114.34 E45.87084
G0 F7500 X114.34 Y114.34
G1 F1500 X113.659 Y113.659 E45.91889
G0 F7500 X113.093 Y113.658
G1 F1500 X113.774 Y114.34 E45.96697
G0 F7500 X113.209 Y114.34
G1 F1500 X112.527 Y113.658 E46.01509
G0 F7500 X111.961 Y113.658
G1 F1500 X112.643 Y114.34 E46.06321
G0 F7500 X112.077 Y114.34
G1 F1500 X111.396 Y113.658 E46.11129
G0 F7500 X110.829 Y113.658
G1 F1500 X111.512 Y114.34 E46.15945
G0 F7500 X110.946 Y114.34
G1 F1500 X110.264 Y113.658 E46.20757
G0 F7500 X109.698 Y113.658
G1 F1500 X110.381 Y114.341 E46.25576
G0 F7500 X109.815 Y114.341
G1 F1500 X109.132 Y113.658 E46.30395
G0 F7500 X108.567 Y113.658
G1 F1500 X109.25 Y114.341 E46.35213
G0 F7500 X108.684 Y114.341
G1 F1500 X108 Y113.657 E46.40039
G0 F7500 X107.434 Y113.657
G1 F1500 X108.118 Y114.341 E46.44865
G0 F7500 X107.553 Y114.341
G1 F1500 X106.869 Y113.657 E46.49691
G0 F7500 X106.303 Y113.657
