;FLAVOR:Marlin
;TIME:151
;Filament used: 0.0513862m
;Layer height: 0.15
;MINX:102.3
;MINY:102.3
;MINZ:0.3
;MAXX:117.7
;MAXY:117.7
;MAXZ:6
;Generated with Cura_SteamEngine 5.4.0
M140 S60
M105
M190 S60
M104 S195
M105
M109 S195
M82 ;absolute extrusion mode
G28 ;Home
G1 Z15.0 F2000 ;Move the platform
G92 E0
G92 E0
G1 F2700 E-6.5
;LAYER_COUNT:39
;LAYER:0
M107
M204 S1000
G0 F7500 X103.993 Y103.686 Z0.3
;TYPE:SKIRT
G1 F2700 E0
G1 F1500 X104.694 Y103.143 E0.04424
G1 X105.407 Y102.757 E0.08469
G1 X106.112 Y102.505 E0.12204
G1 X106.872 Y102.35 E0.16074
G1 X107.367 Y102.31 E0.18551
G1 X107.74 Y102.301 E0.20413
G1 X111.872 Y102.3 E0.41027
G1 X112.64 Y102.314 E0.4486
G1 X113.56 Y102.425 E0.49483
G1 X114.279 Y102.631 E0.53214
G1 X114.957 Y102.936 E0.56923
G1 X115.589 Y103.34 E0.60666
G1 X116.214 Y103.888 E0.64812
G1 X116.821 Y104.641 E0.69638
G1 X117.22 Y105.362 E0.73749
G1 X117.514 Y106.187 E0.78118
G1 X117.658 Y106.931 E0.81899
G1 X117.69 Y107.367 E0.8408
G1 X117.699 Y107.74 E0.85942
G1 X117.7 Y111.834 E1.06367
G1 X117.685 Y112.668 E1.10528
G1 X117.578 Y113.554 E1.14981
G1 X117.411 Y114.163 E1.18131
G1 X116.993 Y115.083 E1.23173
G1 X116.606 Y115.662 E1.26647
G1 X115.96 Y116.358 E1.31385
G1 X115.308 Y116.856 E1.35478
G1 X114.584 Y117.246 E1.39581
G1 X113.881 Y117.497 E1.43305
G1 X113.134 Y117.65 E1.47109
G1 X112.633 Y117.69 E1.49616
G1 X112.26 Y117.699 E1.51478
G1 X108.136 Y117.7 E1.72052
G1 X107.368 Y117.687 E1.75885
G1 X106.444 Y117.577 E1.80527
G1 X105.835 Y117.41 E1.83677
G1 X104.971 Y117.022 E1.88403
G1 X104.287 Y116.565 E1.92507
G1 X103.641 Y115.957 E1.96933
G1 X103.143 Y115.305 E2.01026
G1 X102.754 Y114.583 E2.05117
G1 X102.502 Y113.877 E2.08857
G1 X102.35 Y113.131 E2.12656
G1 X102.31 Y112.628 E2.15173
G1 X102.301 Y112.244 E2.17089
G1 X102.3 Y108.101 E2.37759
G1 X102.313 Y107.364 E2.41436
G1 X102.424 Y106.441 E2.46074
G1 X102.591 Y105.834 E2.49215
G1 X103.007 Y104.914 E2.54252
G1 X103.356 Y104.386 E2.5741
G1 X103.993 Y103.686 E2.62132
G0 F7500 X104.24 Y104.001
G1 F1500 X104.887 Y103.494 E2.66233
G1 X105.544 Y103.133 E2.69973
G1 X106.193 Y102.897 E2.73418
G1 X106.905 Y102.749 E2.77046
G1 X107.377 Y102.71 E2.79409
G1 X107.74 Y102.701 E2.81221
G1 X111.865 Y102.7 E3.018
G1 X112.633 Y102.714 E3.05633
G1 X113.452 Y102.81 E3.09747
G1 X114.115 Y102.996 E3.13182
G1 X114.793 Y103.301 E3.16891
G1 X115.325 Y103.641 E3.20041
G1 X115.95 Y104.189 E3.24188
G1 X116.508 Y104.89 E3.28658
G1 X116.844 Y105.498 E3.32124
G1 X117.122 Y106.264 E3.36189
G1 X117.259 Y106.961 E3.39733
G1 X117.29 Y107.377 E3.41814
G1 X117.299 Y107.74 E3.43626
G1 X117.3 Y111.827 E3.64016
G1 X117.285 Y112.661 E3.68177
G1 X117.192 Y113.448 E3.72131
G1 X117.025 Y114.057 E3.75282
G1 X116.66 Y114.861 E3.79687
G1 X116.273 Y115.44 E3.83161
G1 X115.715 Y116.042 E3.87256
G1 X115.116 Y116.505 E3.91033
G1 X114.449 Y116.869 E3.94824
G1 X113.746 Y117.12 E3.98549
G1 X113.101 Y117.251 E4.01832
G1 X112.623 Y117.29 E4.04225
G1 X112.26 Y117.299 E4.06036
G1 X108.143 Y117.3 E4.26576
G1 X107.375 Y117.287 E4.30408
G1 X106.55 Y117.191 E4.34552
G1 X105.941 Y117.024 E4.37703
G1 X105.193 Y116.689 E4.41791
G1 X104.509 Y116.232 E4.45896
G1 X103.957 Y115.712 E4.49679
G1 X103.494 Y115.113 E4.53456
G1 X103.131 Y114.449 E4.57232
G1 X102.879 Y113.743 E4.60971
G1 X102.749 Y113.099 E4.64249
G1 X102.71 Y112.618 E4.66657
G1 X102.701 Y112.244 E4.68523
G1 X102.7 Y108.108 E4.89158
G1 X102.713 Y107.371 E4.92835
G1 X102.81 Y106.547 E4.96975
G1 X102.977 Y105.94 E5.00115
G1 X103.341 Y105.135 E5.04523
G1 X103.69 Y104.607 E5.07681
G1 X104.24 Y104.001 E5.11764
G0 F7500 X104.535 Y104.271
G1 F1500 X105.082 Y103.843 E5.15229
G1 X105.683 Y103.508 E5.18661
G1 X106.274 Y103.289 E5.21806
G1 X106.986 Y103.141 E5.25434
G1 X107.387 Y103.11 E5.27441
G1 X107.74 Y103.101 E5.29202
G1 X111.858 Y103.1 E5.49747
G1 X112.626 Y103.114 E5.53579
G1 X113.346 Y103.196 E5.57195
G1 X113.953 Y103.362 E5.60334
G1 X114.58 Y103.64 E5.63756
G1 X115.061 Y103.942 E5.66589
G1 X115.686 Y104.49 E5.70736
G1 X116.159 Y105.086 E5.74532
G1 X116.469 Y105.637 E5.77687
G1 X116.73 Y106.343 E5.81442
G1 X116.86 Y106.991 E5.84739
G1 X116.89 Y107.387 E5.8672
G1 X116.899 Y107.74 E5.88482
G1 X116.9 Y111.82 E6.08837
G1 X116.887 Y112.617 E6.12814
G1 X116.806 Y113.342 E6.16454
G1 X116.639 Y113.951 E6.19604
G1 X116.327 Y114.639 E6.23373
G1 X115.94 Y115.218 E6.26848
G1 X115.468 Y115.727 E6.30311
G1 X114.922 Y116.155 E6.33772
G1 X114.313 Y116.493 E6.37247
G1 X113.665 Y116.728 E6.40686
G1 X113.068 Y116.852 E6.43728
G1 X112.613 Y116.89 E6.46006
G1 X112.26 Y116.899 E6.47767
G1 X108.15 Y116.9 E6.68272
G1 X107.382 Y116.887 E6.72104
G1 X106.656 Y116.805 E6.75749
G1 X106.047 Y116.638 E6.789
G1 X105.358 Y116.325 E6.82675
G1 X104.781 Y115.939 E6.86139
G1 X104.272 Y115.466 E6.89605
G1 X103.844 Y114.919 E6.93071
G1 X103.507 Y114.312 E6.96534
G1 X103.271 Y113.662 E6.99984
G1 X103.148 Y113.066 E7.0302
G1 X103.11 Y112.608 E7.05313
G1 X103.101 Y112.244 E7.0713
G1 X103.1 Y108.115 E7.27729
G1 X103.113 Y107.378 E7.31407
G1 X103.196 Y106.653 E7.35048
G1 X103.363 Y106.046 E7.38188
G1 X103.675 Y105.356 E7.41966
G1 X104.024 Y104.828 E7.45124
G1 X104.535 Y104.271 E7.48895
G0 F7500 X104.784 Y104.584
G1 F1500 X105.279 Y104.191 E7.52048
G1 X105.825 Y103.882 E7.55178
G1 X106.357 Y103.68 E7.58017
G1 X107.017 Y103.54 E7.61384
G1 X107.397 Y103.51 E7.63285
G1 X107.74 Y103.501 E7.64997
G1 X111.851 Y103.5 E7.85507
G1 X112.583 Y103.512 E7.89159
G1 X113.243 Y103.583 E7.92471
G1 X113.793 Y103.729 E7.9531
G1 X114.367 Y103.979 E7.98434
G1 X114.848 Y104.281 E8.01267
G1 X115.42 Y104.789 E8.05084
G1 X115.81 Y105.282 E8.0822
G1 X116.12 Y105.833 E8.11374
G1 X116.338 Y106.424 E8.14517
G1 X116.461 Y107.022 E8.17563
G1 X116.49 Y107.398 E8.19444
G1 X116.499 Y107.74 E8.21151
G1 X116.5 Y111.814 E8.41476
G1 X116.489 Y112.575 E8.45273
G1 X116.42 Y113.236 E8.48589
G1 X116.253 Y113.845 E8.51739
G1 X115.993 Y114.419 E8.54883
G1 X115.645 Y114.948 E8.58042
G1 X115.219 Y115.414 E8.61192
G1 X114.725 Y115.807 E8.64342
G1 X114.174 Y116.118 E8.67498
G1 X113.584 Y116.336 E8.70636
G1 X112.987 Y116.46 E8.73678
G1 X112.603 Y116.49 E8.756
G1 X112.26 Y116.499 E8.77312
G1 X108.156 Y116.5 E8.97787
G1 X107.424 Y116.489 E9.01439
G1 X106.762 Y116.419 E9.0476
G1 X106.153 Y116.252 E9.07911
G1 X105.578 Y115.991 E9.11061
G1 X105.051 Y115.644 E9.14209
G1 X104.585 Y115.217 E9.17362
G1 X104.192 Y114.722 E9.20516
G1 X103.882 Y114.173 E9.23661
G1 X103.663 Y113.581 E9.2681
G1 X103.54 Y112.985 E9.29846
G1 X103.51 Y112.598 E9.31783
G1 X103.501 Y112.244 E9.33549
G1 X103.5 Y108.121 E9.54119
G1 X103.511 Y107.421 E9.57612
G1 X103.582 Y106.759 E9.60934
G1 X103.749 Y106.152 E9.64074
G1 X104.009 Y105.577 E9.67223
G1 X104.358 Y105.049 E9.7038
G1 X104.784 Y104.584 E9.73527
G0 F7500 X105.035 Y104.895
G1 F1500 X105.478 Y104.538 E9.76365
G1 X105.971 Y104.255 E9.79201
G1 X106.442 Y104.071 E9.81724
G1 X107.049 Y103.939 E9.84823
G1 X107.408 Y103.91 E9.8662
G1 X107.74 Y103.901 E9.88277
G1 X111.845 Y103.9 E10.08757
G1 X112.543 Y103.91 E10.1224
G1 X113.14 Y103.97 E10.15233
G1 X113.69 Y104.116 E10.18072
G1 X114.154 Y104.318 E10.20597
G1 X114.635 Y104.62 E10.2343
G1 X115.108 Y105.039 E10.26583
G1 X115.463 Y105.481 E10.29411
G1 X115.746 Y105.975 E10.32251
G1 X115.947 Y106.506 E10.35084
G1 X116.062 Y107.053 E10.37873
G1 X116.09 Y107.409 E10.39654
G1 X116.099 Y107.74 E10.41306
G1 X116.1 Y111.809 E10.61607
G1 X116.091 Y112.536 E10.65234
G1 X116.033 Y113.133 E10.68226
G1 X115.887 Y113.683 E10.71065
G1 X115.657 Y114.202 E10.73898
G1 X115.348 Y114.68 E10.76737
G1 X114.967 Y115.103 E10.79577
G1 X114.526 Y115.46 E10.82408
G1 X114.032 Y115.744 E10.85251
G1 X113.501 Y115.945 E10.88084
G1 X112.955 Y116.061 E10.90868
G1 X112.592 Y116.09 E10.92685
G1 X112.26 Y116.099 E10.94342
G1 X108.161 Y116.1 E11.14792
G1 X107.463 Y116.091 E11.18275
G1 X106.865 Y116.032 E11.21273
G1 X106.315 Y115.886 E11.24112
G1 X105.795 Y115.655 E11.2695
G1 X105.319 Y115.347 E11.29779
G1 X104.896 Y114.966 E11.32619
G1 X104.539 Y114.523 E11.35458
G1 X104.256 Y114.031 E11.38289
G1 X104.054 Y113.499 E11.41128
G1 X103.939 Y112.953 E11.43912
G1 X103.91 Y112.588 E11.45739
G1 X103.901 Y112.244 E11.47456
G1 X103.9 Y108.126 E11.68
G1 X103.909 Y107.461 E11.71318
G1 X103.969 Y106.862 E11.74322
G1 X104.115 Y106.314 E11.77151
G1 X104.345 Y105.795 E11.79983
G1 X104.655 Y105.317 E11.82826
G1 X105.035 Y104.895 E11.85659
G0 F7500 X105.289 Y105.204
G1 F1500 X105.68 Y104.883 E11.88183
G1 X106.117 Y104.628 E11.90707
G1 X106.588 Y104.444 E11.9323
G1 X107.082 Y104.338 E11.9575
G1 X107.419 Y104.31 E11.97437
G1 X107.74 Y104.301 E11.9904
G1 X111.839 Y104.3 E12.1949
G1 X112.537 Y104.31 E12.22972
G1 X113.04 Y104.357 E12.25493
G1 X113.53 Y104.483 E12.28017
G1 X113.994 Y104.685 E12.30542
G1 X114.42 Y104.957 E12.33063
G1 X114.798 Y105.292 E12.35583
G1 X115.118 Y105.683 E12.38104
G1 X115.373 Y106.12 E12.40628
G1 X115.556 Y106.591 E12.43149
G1 X115.663 Y107.085 E12.45671
G1 X115.69 Y107.42 E12.47347
G1 X115.699 Y107.74 E12.48945
G1 X115.7 Y111.804 E12.6922
G1 X115.691 Y112.531 E12.72847
G1 X115.645 Y113.034 E12.75367
G1 X115.52 Y113.524 E12.7789
G1 X115.319 Y113.988 E12.80413
G1 X115.048 Y114.415 E12.82936
G1 X114.713 Y114.794 E12.8546
G1 X114.323 Y115.115 E12.8798
G1 X113.887 Y115.371 E12.90502
G1 X113.416 Y115.554 E12.93023
G1 X112.922 Y115.662 E12.95546
G1 X112.581 Y115.69 E12.97253
G1 X112.26 Y115.699 E12.98855
G1 X108.166 Y115.7 E13.1928
G1 X107.468 Y115.691 E13.22763
G1 X106.964 Y115.644 E13.25288
G1 X106.474 Y115.519 E13.27811
G1 X106.01 Y115.318 E13.30334
G1 X105.584 Y115.047 E13.32853
G1 X105.205 Y114.712 E13.35376
G1 X104.884 Y114.321 E13.379
G1 X104.629 Y113.885 E13.4042
G1 X104.445 Y113.414 E13.42943
G1 X104.338 Y112.92 E13.45465
G1 X104.31 Y112.577 E13.47181
G1 X104.301 Y112.244 E13.48843
G1 X104.3 Y108.131 E13.69363
G1 X104.309 Y107.466 E13.72681
G1 X104.356 Y106.962 E13.75207
G1 X104.482 Y106.473 E13.77726
G1 X104.683 Y106.009 E13.80249
G1 X104.954 Y105.582 E13.82772
G1 X105.289 Y105.204 E13.85292
G1 F2700 E7.35292
;MESH:Knob.stl
G0 F7500 X107.914 Y106.835
G0 X111.9 Y111.9
;TYPE:WALL-INNER
G1 F2700 E13.85292
G1 F1500 X111.9 Y108.1 E14.0425
G1 X108.1 Y108.1 E14.23208
G1 X108.1 Y111.9 E14.42167
G1 X111.9 Y111.9 E14.61125
G0 F7500 X112.3 Y112.3
;TYPE:WALL-OUTER
G1 F1500 X112.3 Y107.7 E14.84074
G1 X107.7 Y107.7 E15.07024
G1 X107.7 Y112.3 E15.29973
G1 X112.3 Y112.3 E15.52923
G0 F7500 X112.3 Y112.1
G0 X111.54 Y111.54
;TYPE:SKIN
G1 F1500 X108.46 Y111.54 E15.68289
G1 X108.46 Y108.46 E15.83655
G1 X111.54 Y108.46 E15.99021
G1 X111.54 Y111.54 E16.14388
G0 F7500 X111.8 Y111.54
G0 X111.8 Y109.076
G0 X111.339 Y109.076
G1 F1500 X110.922 Y108.659 E16.1733
G0 F7500 X110.356 Y108.659
G1 F1500 X111.339 Y109.642 E16.24265
G0 F7500 X111.339 Y110.208
G1 F1500 X109.791 Y108.659 E16.35191
G0 F7500 X109.225 Y108.659
G1 F1500 X111.339 Y110.773 E16.50106
G0 F7500 X111.339 Y111.339
G1 F1500 X108.659 Y108.659 E16.69015
G0 F7500 X108.659 Y109.225
G1 F1500 X110.773 Y111.339 E16.8393
G0 F7500 X110.208 Y111.339
G1 F1500 X108.659 Y109.791 E16.94856
G0 F7500 X108.659 Y110.356
G1 F1500 X109.642 Y111.339 E17.01792
G0 F7500 X109.076 Y111.339
G1 F1500 X108.659 Y110.922 E17.04734
G1 F2700 E10.54734
;MESH:NONMESH
G0 F300 X108.659 Y110.922 Z0.45
G0 F7500 X108.2 Y110.922
G0 X107.914 Y107.914
G0 X107.914 Y106.835
G0 X105.289 Y105.204
;TIME_ELAPSED:20.938737
;LAYER:1
M106 S228.8
;TYPE:SKIRT
G1 F2700 E17.04734
G1 F1500 X105.68 Y104.883 E17.05996
G1 X106.117 Y104.628 E17.07258
G1 X106.588 Y104.444 E17.08519
G1 X107.082 Y104.338 E17.09779
G1 X107.419 Y104.31 E17.10623
G1 X107.74 Y104.301 E17.11424
G1 X111.839 Y104.3 E17.21649
G1 X112.537 Y104.31 E17.2339
G1 X113.04 Y104.357 E17.24651
G1 X113.53 Y104.483 E17.25913
G1 X113.994 Y104.685 E17.27175
G1 X114.42 Y104.957 E17.28436
G1 X114.798 Y105.292 E17.29696
G1 X115.118 Y105.683 E17.30956
G1 X115.373 Y106.12 E17.32218
G1 X115.556 Y106.591 E17.33479
G1 X115.663 Y107.085 E17.3474
G1 X115.69 Y107.42 E17.35578
G1 X115.699 Y107.74 E17.36377
G1 X115.7 Y111.804 E17.46514
G1 X115.691 Y112.531 E17.48328
G1 X115.645 Y113.034 E17.49588
G1 X115.52 Y113.524 E17.50849
G1 X115.319 Y113.988 E17.52111
G1 X115.048 Y114.415 E17.53372
G1 X114.713 Y114.794 E17.54634
G1 X114.323 Y115.115 E17.55894
G1 X113.887 Y115.371 E17.57155
G1 X113.416 Y115.554 E17.58416
G1 X112.922 Y115.662 E17.59677
G1 X112.581 Y115.69 E17.60531
G1 X112.26 Y115.699 E17.61332
G1 X108.166 Y115.7 E17.71544
G1 X107.468 Y115.691 E17.73286
G1 X106.964 Y115.644 E17.74548
G1 X106.474 Y115.519 E17.7581
G1 X106.01 Y115.318 E17.77071
G1 X105.584 Y115.047 E17.78331
G1 X105.205 Y114.712 E17.79592
G1 X104.884 Y114.321 E17.80854
G1 X104.629 Y113.885 E17.82114
G1 X104.445 Y113.414 E17.83376
G1 X104.338 Y112.92 E17.84637
G1 X104.31 Y112.577 E17.85495
G1 X104.301 Y112.244 E17.86326
G1 X104.3 Y108.131 E17.96586
G1 X104.309 Y107.466 E17.98245
G1 X104.356 Y106.962 E17.99508
G1 X104.482 Y106.473 E18.00767
G1 X104.683 Y106.009 E18.02029
G1 X104.954 Y105.582 E18.0329
G1 X105.289 Y105.204 E18.0455
G1 F2700 E11.5455
;MESH:Knob.stl
G0 F8250 X107.914 Y106.835
G0 X111.9 Y111.9
;TYPE:WALL-INNER
G1 F2700 E18.0455
G1 F2760 X111.9 Y108.1 E18.14029
G1 X108.1 Y108.1 E18.23508
G1 X108.1 Y111.9 E18.32988
G1 X111.9 Y111.9 E18.42467
G0 F8250 X112.3 Y112.3
;TYPE:WALL-OUTER
G1 F1770 X112.3 Y107.7 E18.53941
G1 X107.7 Y107.7 E18.65416
G1 X107.7 Y112.3 E18.76891
G1 X112.3 Y112.3 E18.88366
G0 F8250 X112.3 Y112.1
G0 X111.54 Y111.54
;TYPE:SKIN
G1 F1500 X108.46 Y111.54 E18.96049
G1 X108.46 Y108.46 E19.03732
G1 X111.54 Y108.46 E19.11415
G1 X111.54 Y111.54 E19.19098
G0 F8250 X110.974 Y111.339
G1 F1500 X111.339 Y110.974 E19.20386
G0 F8250 X111.339 Y110.409
G1 F1500 X110.409 Y111.339 E19.23666
G0 F8250 X109.843 Y111.339
G1 F1500 X111.339 Y109.843 E19.28944
G0 F8250 X111.339 Y109.277
G1 F1500 X109.277 Y111.339 E19.36218
G0 F8250 X108.712 Y111.339
G1 F1500 X111.339 Y108.712 E19.45486
G0 F8250 X110.826 Y108.659
G1 F1500 X108.659 Y110.826 E19.5313
G0 F8250 X108.659 Y110.26
G1 F1500 X110.26 Y108.659 E19.58778
G0 F8250 X109.694 Y108.659
G1 F1500 X108.659 Y109.694 E19.6243
G0 F8250 X108.659 Y109.129
G1 F1500 X109.129 Y108.659 E19.64088
G1 F2700 E13.14088
;MESH:NONMESH
G0 F300 X109.129 Y108.659 Z0.6
G0 F8250 X109.129 Y108.2
G0 X107.914 Y107.914
G0 X107.914 Y106.835
G0 X105.289 Y105.204
;TIME_ELAPSED:27.471364
;LAYER:2
M106 S244.2
;TYPE:SKIRT
G1 F2700 E19.64088
G1 F1500 X105.68 Y104.883 E19.6535
G1 X106.117 Y104.628 E19.66612
G1 X106.588 Y104.444 E19.67873
G1 X107.082 Y104.338 E19.69133
G1 X107.419 Y104.31 E19.69977
G1 X107.74 Y104.301 E19.70778
G1 X111.839 Y104.3 E19.81003
G1 X112.537 Y104.31 E19.82744
G1 X113.04 Y104.357 E19.84005
G1 X113.53 Y104.483 E19.85267
G1 X113.994 Y104.685 E19.86529
G1 X114.42 Y104.957 E19.8779
G1 X114.798 Y105.292 E19.8905
G1 X115.118 Y105.683 E19.9031
G1 X115.373 Y106.12 E19.91572
G1 X115.556 Y106.591 E19.92833
G1 X115.663 Y107.085 E19.94094
G1 X115.69 Y107.42 E19.94932
G1 X115.699 Y107.74 E19.95731
G1 X115.7 Y111.804 E20.05868
G1 X115.691 Y112.531 E20.07682
G1 X115.645 Y113.034 E20.08942
G1 X115.52 Y113.524 E20.10203
G1 X115.319 Y113.988 E20.11465
G1 X115.048 Y114.415 E20.12726
G1 X114.713 Y114.794 E20.13988
G1 X114.323 Y115.115 E20.15248
G1 X113.887 Y115.371 E20.16509
G1 X113.416 Y115.554 E20.1777
G1 X112.922 Y115.662 E20.19031
G1 X112.581 Y115.69 E20.19885
G1 X112.26 Y115.699 E20.20686
G1 X108.166 Y115.7 E20.30898
G1 X107.468 Y115.691 E20.3264
G1 X106.964 Y115.644 E20.33902
G1 X106.474 Y115.519 E20.35164
G1 X106.01 Y115.318 E20.36425
G1 X105.584 Y115.047 E20.37685
G1 X105.205 Y114.712 E20.38946
G1 X104.884 Y114.321 E20.40208
G1 X104.629 Y113.885 E20.41468
G1 X104.445 Y113.414 E20.4273
G1 X104.338 Y112.92 E20.43991
G1 X104.31 Y112.577 E20.44849
G1 X104.301 Y112.244 E20.4568
G1 X104.3 Y108.131 E20.5594
G1 X104.309 Y107.466 E20.57599
G1 X104.356 Y106.962 E20.58862
G1 X104.482 Y106.473 E20.60121
G1 X104.683 Y106.009 E20.61383
G1 X104.954 Y105.582 E20.62644
G1 X105.289 Y105.204 E20.63904
G1 F2700 E14.13904
;MESH:Knob.stl
G0 F9000 X107.914 Y106.835
G0 X111.9 Y111.9
;TYPE:WALL-INNER
G1 F2700 E20.63904
G1 F4020 X111.9 Y108.1 E20.73383
G1 X108.1 Y108.1 E20.82862
G1 X108.1 Y111.9 E20.92342
